;FLAVOR:Marlin
;TIME:2234
;Filament used: 2.99756m
;Layer height: 0.2
;Generated with Cura_SteamEngine 3.2.1
M104 S200
M109 S200
M82 ;absolute extrusion mode
; -- START GCODE --
G21                     ;set units to millimetres
G90                     ;set to absolute positioning
M106 S0                 ;set fan speed to zero (turned off)
G28 X0 Y0               ;move to the X/Y origin (Home)
G28 Z0                  ;move to the Z origin (Home)
G1 Z15.0 F1200          ;move Z to position 15.0 mm
G92 E0                  ;zero the extruded length
G1 E20 F200             ;extrude 20mm of feed stock
G92 E0                  ;zero the extruded length again
G1 F7200                ;set feedrate to 120 mm/s
; -- end of START GCODE --
;LAYER_COUNT:51
;LAYER:0
M107
G0 F3600 X126.263 Y66.952 Z0.2
;TYPE:SKIRT
G1 F2400 X126.531 Y66.487 E0.01785
G1 X126.864 Y66.067 E0.03568
G1 X127.256 Y65.701 E0.05352
G1 X127.698 Y65.398 E0.07134
G1 X128.181 Y65.163 E0.0892
G1 X128.692 Y65.003 E0.10701
G1 X129.222 Y64.92 E0.12486
G1 X129.509 Y64.909 E0.13441
G1 X167.491 Y64.91 E1.3977
G1 X168.026 Y64.95 E1.41554
G1 X168.549 Y65.069 E1.43338
G1 X169.048 Y65.264 E1.4512
G1 X169.513 Y65.532 E1.46905
G1 X169.933 Y65.865 E1.48688
G1 X170.299 Y66.257 E1.50471
G1 X170.602 Y66.699 E1.52254
G1 X170.837 Y67.182 E1.5404
G1 X170.997 Y67.693 E1.55821
G1 X171.08 Y68.223 E1.57605
G1 X171.091 Y68.51 E1.58561
G1 X171.091 Y141.491 E4.01297
G1 X171.051 Y142.026 E4.03081
G1 X170.932 Y142.549 E4.04865
G1 X170.737 Y143.048 E4.06647
G1 X170.469 Y143.513 E4.08432
G1 X170.136 Y143.933 E4.10215
G1 X169.744 Y144.299 E4.11998
G1 X169.302 Y144.602 E4.13781
G1 X168.819 Y144.837 E4.15567
G1 X168.308 Y144.997 E4.17348
G1 X167.778 Y145.08 E4.19132
G1 X167.491 Y145.091 E4.20088
G1 X129.509 Y145.091 E5.46416
G1 X128.974 Y145.051 E5.48201
G1 X128.451 Y144.932 E5.49985
G1 X127.952 Y144.737 E5.51767
G1 X127.487 Y144.469 E5.53552
G1 X127.067 Y144.136 E5.55334
G1 X126.701 Y143.744 E5.57118
G1 X126.398 Y143.302 E5.58901
G1 X126.163 Y142.819 E5.60687
G1 X126.003 Y142.308 E5.62468
G1 X125.92 Y141.778 E5.64252
G1 X125.909 Y141.491 E5.65208
G1 X125.909 Y68.509 E8.07947
G1 X125.949 Y67.974 E8.09731
G1 X126.068 Y67.451 E8.11515
G1 X126.263 Y66.952 E8.13297
G0 F3600 X126.662 Y67.047
G1 F2400 X126.928 Y66.617 E8.14979
G1 X127.258 Y66.234 E8.1666
G1 X127.645 Y65.908 E8.18343
G1 X128.078 Y65.647 E8.20025
G1 X128.546 Y65.457 E8.21705
G1 X129.039 Y65.344 E8.23387
G1 X129.509 Y65.309 E8.24954
G1 X167.491 Y65.31 E9.51283
G1 X167.995 Y65.35 E9.52965
G1 X168.486 Y65.469 E9.54645
G1 X168.953 Y65.664 E9.56328
G1 X169.383 Y65.929 E9.58008
G1 X169.766 Y66.26 E9.59692
G1 X170.092 Y66.646 E9.61372
G1 X170.353 Y67.079 E9.63054
G1 X170.543 Y67.547 E9.64734
G1 X170.656 Y68.04 E9.66416
G1 X170.691 Y68.51 E9.67984
G1 X170.691 Y141.491 E12.10719
G1 X170.651 Y141.995 E12.12401
G1 X170.532 Y142.486 E12.14081
G1 X170.338 Y142.953 E12.15763
G1 X170.072 Y143.383 E12.17445
G1 X169.742 Y143.766 E12.19127
G1 X169.355 Y144.092 E12.2081
G1 X168.922 Y144.353 E12.22491
G1 X168.454 Y144.543 E12.24171
G1 X167.961 Y144.656 E12.25853
G1 X167.491 Y144.691 E12.27421
G1 X129.509 Y144.691 E13.53749
G1 X129.005 Y144.651 E13.55431
G1 X128.514 Y144.532 E13.57111
G1 X128.047 Y144.338 E13.58793
G1 X127.617 Y144.072 E13.60475
G1 X127.234 Y143.742 E13.62157
G1 X126.908 Y143.355 E13.6384
G1 X126.647 Y142.922 E13.65521
G1 X126.457 Y142.454 E13.67201
G1 X126.344 Y141.961 E13.68883
G1 X126.309 Y141.491 E13.70451
G1 X126.309 Y68.509 E16.1319
G1 X126.349 Y68.005 E16.14872
G1 X126.468 Y67.514 E16.16552
G1 X126.662 Y67.047 E16.18234
G1 F1500 E9.68234
G0 F3600 X128.835 Y69.114
G0 X130.114 Y69.114
G0 X166.83 Y140.83
G0 X166.9 Y140.9
;TYPE:WALL-INNER
G1 F1500 E16.18234
G1 F2400 X130.1 Y140.9 E17.40631
G1 X130.1 Y69.1 E19.79439
G1 X166.9 Y69.1 E21.01836
G1 X166.9 Y140.9 E23.40644
G0 F3600 X167.3 Y141.3
;TYPE:WALL-OUTER
G1 F2400 X129.7 Y141.3 E24.65702
G1 X129.7 Y68.7 E27.07171
G1 X167.3 Y68.7 E28.32229
G1 X167.3 Y141.3 E30.73697
G0 F3600 X167.1 Y141.3
G0 X166.83 Y140.83
G0 X166.51 Y140.51
;TYPE:SKIN
G1 F2400 X130.49 Y140.51 E31.935
G1 X130.49 Y69.49 E34.29714
G1 X166.51 Y69.49 E35.49517
G1 X166.51 Y140.51 E37.8573
G0 F3600 X131.277 Y140.328
G1 F2400 X130.669 Y139.72 E37.8859
G1 X130.599 Y139.65
G0 F3600 X130.669 Y139.154
G1 F2400 X131.843 Y140.328 E37.94112
G1 X131.913 Y140.398
G0 F3600 X132.409 Y140.328
G1 F2400 X130.669 Y138.588 E38.02297
G1 X130.599 Y138.518
G0 F3600 X130.669 Y138.023
G1 F2400 X132.974 Y140.328 E38.13139
G1 X133.044 Y140.398
G0 F3600 X133.54 Y140.328
G1 F2400 X130.669 Y137.457 E38.26643
G1 X130.599 Y137.387
G0 F3600 X130.669 Y136.891
G1 F2400 X134.106 Y140.328 E38.4281
G1 X134.176 Y140.398
G0 F3600 X134.672 Y140.328
G1 F2400 X130.669 Y136.325 E38.61639
G1 X130.599 Y136.255
G0 F3600 X130.669 Y135.76
G1 F2400 X135.237 Y140.328 E38.83125
G1 X135.307 Y140.398
G0 F3600 X135.803 Y140.328
G1 F2400 X130.669 Y135.194 E39.07274
G1 X130.599 Y135.124
G0 F3600 X130.669 Y134.628
G1 F2400 X136.369 Y140.328 E39.34085
G1 X136.439 Y140.398
G0 F3600 X136.934 Y140.328
G1 F2400 X130.669 Y134.063 E39.63553
G1 X130.599 Y133.993
G0 F3600 X130.669 Y133.497
G1 F2400 X137.5 Y140.328 E39.95684
G1 X137.57 Y140.398
G0 F3600 X138.066 Y140.328
G1 F2400 X130.669 Y132.931 E40.30478
G1 X130.599 Y132.861
G0 F3600 X130.669 Y132.366
G1 F2400 X138.631 Y140.328 E40.67928
G1 X138.701 Y140.398
G0 F3600 X139.197 Y140.328
G1 F2400 X130.669 Y131.8 E41.08042
G1 X130.599 Y131.73
G0 F3600 X130.669 Y131.234
G1 F2400 X139.763 Y140.328 E41.50817
G1 X139.833 Y140.398
G0 F3600 X140.328 Y140.328
G1 F2400 X130.669 Y130.669 E41.9625
G1 X130.599 Y130.599
G0 F3600 X130.669 Y130.103
G1 F2400 X140.894 Y140.328 E42.44345
G1 X140.964 Y140.398
G0 F3600 X141.46 Y140.328
G1 F2400 X130.669 Y129.537 E42.95103
G1 X130.599 Y129.467
G0 F3600 X130.669 Y128.972
G1 F2400 X142.025 Y140.328 E43.48518
G1 X142.095 Y140.398
G0 F3600 X142.591 Y140.328
G1 F2400 X130.669 Y128.406 E44.04595
G1 X130.599 Y128.336
G0 F3600 X130.669 Y127.84
G1 F2400 X143.157 Y140.328 E44.63335
G1 X143.227 Y140.398
G0 F3600 X143.722 Y140.328
G1 F2400 X130.669 Y127.274 E45.24735
G1 X130.599 Y127.204
G0 F3600 X130.669 Y126.709
G1 F2400 X144.288 Y140.328 E45.88794
G1 X144.358 Y140.398
G0 F3600 X144.854 Y140.328
G1 F2400 X130.669 Y126.143 E46.55516
G1 X130.599 Y126.073
G0 F3600 X130.669 Y125.577
G1 F2400 X145.42 Y140.328 E47.249
G1 X145.49 Y140.398
G0 F3600 X145.985 Y140.328
G1 F2400 X130.669 Y125.012 E47.96942
G1 X130.599 Y124.942
G0 F3600 X130.669 Y124.446
G1 F2400 X146.551 Y140.328 E48.71646
G1 X146.621 Y140.398
G0 F3600 X147.117 Y140.328
G1 F2400 X130.669 Y123.88 E49.49013
G1 X130.599 Y123.81
G0 F3600 X130.669 Y123.315
G1 F2400 X147.682 Y140.328 E50.29036
G1 X147.752 Y140.398
G0 F3600 X148.248 Y140.328
G1 F2400 X130.669 Y122.749 E51.11723
G1 X130.599 Y122.679
G0 F3600 X130.669 Y122.183
G1 F2400 X148.814 Y140.329 E51.97074
G1 X148.884 Y140.399
G0 F3600 X149.38 Y140.329
G1 F2400 X130.669 Y121.618 E52.85084
G1 X130.599 Y121.548
G0 F3600 X130.669 Y121.052
G1 F2400 X149.946 Y140.329 E53.75757
G1 X150.016 Y140.399
G0 F3600 X150.511 Y140.329
G1 F2400 X130.669 Y120.486 E54.6909
G1 X130.599 Y120.416
G0 F3600 X130.669 Y119.921
G1 F2400 X151.077 Y140.329 E55.65083
G1 X151.147 Y140.399
G0 F3600 X151.643 Y140.329
G1 F2400 X130.669 Y119.355 E56.63739
G1 X130.599 Y119.285
G0 F3600 X130.669 Y118.789
G1 F2400 X152.208 Y140.329 E57.65054
G1 X152.278 Y140.399
G0 F3600 X152.774 Y140.329
G1 F2400 X130.669 Y118.224 E58.69029
G1 X130.599 Y118.154
G0 F3600 X130.669 Y117.658
G1 F2400 X153.34 Y140.329 E59.75667
G1 X153.41 Y140.399
G0 F3600 X153.906 Y140.329
G1 F2400 X130.669 Y117.092 E60.84966
G1 X130.599 Y117.022
G0 F3600 X130.669 Y116.526
G1 F2400 X154.471 Y140.329 E61.96926
G1 X154.541 Y140.399
G0 F3600 X155.037 Y140.329
G1 F2400 X130.669 Y115.961 E63.11546
G1 X130.599 Y115.891
G0 F3600 X130.669 Y115.395
G1 F2400 X155.603 Y140.329 E64.28827
G1 X155.673 Y140.399
G0 F3600 X156.168 Y140.329
G1 F2400 X130.669 Y114.829 E65.48769
G1 X130.599 Y114.759
G0 F3600 X130.669 Y114.264
G1 F2400 X156.734 Y140.329 E66.71371
G1 X156.804 Y140.399
G0 F3600 X157.3 Y140.329
G1 F2400 X130.669 Y113.698 E67.96635
G1 X130.599 Y113.628
G0 F3600 X130.669 Y113.132
G1 F2400 X157.865 Y140.329 E69.24559
G1 X157.935 Y140.399
G0 F3600 X158.431 Y140.329
G1 F2400 X130.669 Y112.567 E70.55143
G1 X130.599 Y112.497
G0 F3600 X130.669 Y112.001
G1 F2400 X158.997 Y140.329 E71.88389
G1 X159.067 Y140.399
G0 F3600 X159.562 Y140.329
G1 F2400 X130.669 Y111.435 E73.24295
G1 X130.599 Y111.365
G0 F3600 X130.669 Y110.87
G1 F2400 X160.128 Y140.329 E74.62861
G1 X160.198 Y140.399
G0 F3600 X160.694 Y140.329
G1 F2400 X130.669 Y110.304 E76.0409
G1 X130.599 Y110.234
G0 F3600 X130.669 Y109.738
G1 F2400 X161.259 Y140.329 E77.47978
G1 X161.329 Y140.399
G0 F3600 X161.825 Y140.329
G1 F2400 X130.669 Y109.173 E78.94526
G1 X130.599 Y109.103
G0 F3600 X130.669 Y108.607
G1 F2400 X162.391 Y140.329 E80.43737
G1 X162.461 Y140.399
G0 F3600 X162.957 Y140.329
G1 F2400 X130.669 Y108.041 E81.9561
G1 X130.599 Y107.971
G0 F3600 X130.669 Y107.475
G1 F2400 X163.522 Y140.329 E83.50143
G1 X163.592 Y140.399
G0 F3600 X164.088 Y140.329
G1 F2400 X130.669 Y106.91 E85.07335
G1 X130.599 Y106.84
G0 F3600 X130.669 Y106.344
G1 F2400 X164.654 Y140.329 E86.6719
G1 X164.724 Y140.399
G0 F3600 X165.219 Y140.329
G1 F2400 X130.669 Y105.778 E88.29705
G1 X130.599 Y105.708
G0 F3600 X130.669 Y105.213
G1 F2400 X165.785 Y140.329 E89.9488
G1 X165.855 Y140.399
G0 F3600 X166.329 Y140.307
G1 F2400 X130.669 Y104.647 E91.62614
G1 X130.599 Y104.577
G0 F3600 X130.669 Y104.081
G1 F2400 X166.329 Y139.741 E93.30348
G1 X166.399 Y139.811
G0 F3600 X166.329 Y139.176
G1 F2400 X130.669 Y103.516 E94.98081
G1 X130.599 Y103.446
G0 F3600 X130.669 Y102.95
G1 F2400 X166.329 Y138.61 E96.65815
G1 X166.399 Y138.68
G0 F3600 X166.329 Y138.044
G1 F2400 X130.669 Y102.384 E98.33549
G1 X130.599 Y102.314
G0 F3600 X130.669 Y101.819
G1 F2400 X166.329 Y137.479 E100.01283
G1 X166.399 Y137.549
G0 F3600 X166.329 Y136.913
G1 F2400 X130.669 Y101.253 E101.69016
G1 X130.599 Y101.183
G0 F3600 X130.669 Y100.687
G1 F2400 X166.329 Y136.347 E103.3675
G1 X166.399 Y136.417
G0 F3600 X166.329 Y135.782
G1 F2400 X130.669 Y100.122 E105.04484
G1 X130.599 Y100.052
G0 F3600 X130.669 Y99.556
G1 F2400 X166.329 Y135.216 E106.72217
G1 X166.399 Y135.286
G0 F3600 X166.329 Y134.65
G1 F2400 X130.669 Y98.99 E108.39951
G1 X130.599 Y98.92
G0 F3600 X130.669 Y98.425
G1 F2400 X166.329 Y134.085 E110.07685
G1 X166.399 Y134.155
G0 F3600 X166.329 Y133.519
G1 F2400 X130.669 Y97.859 E111.75418
G1 X130.599 Y97.789
G0 F3600 X130.669 Y97.293
G1 F2400 X166.329 Y132.953 E113.43152
G1 X166.399 Y133.023
G0 F3600 X166.329 Y132.388
G1 F2400 X130.669 Y96.727 E115.10888
G1 X130.599 Y96.657
G0 F3600 X130.669 Y96.162
G1 F2400 X166.329 Y131.822 E116.78622
G1 X166.399 Y131.892
G0 F3600 X166.329 Y131.256
G1 F2400 X130.669 Y95.596 E118.46356
G1 X130.599 Y95.526
G0 F3600 X130.669 Y95.03
G1 F2400 X166.329 Y130.691 E120.14092
G1 X166.399 Y130.761
G0 F3600 X166.329 Y130.125
G1 F2400 X130.669 Y94.465 E121.81825
G1 X130.599 Y94.395
G0 F3600 X130.669 Y93.899
G1 F2400 X166.329 Y129.559 E123.49559
G1 X166.399 Y129.629
G0 F3600 X166.329 Y128.993
G1 F2400 X130.669 Y93.333 E125.17293
G1 X130.599 Y93.263
G0 F3600 X130.669 Y92.768
G1 F2400 X166.329 Y128.428 E126.85027
G1 X166.399 Y128.498
G0 F3600 X166.329 Y127.862
G1 F2400 X130.669 Y92.202 E128.5276
G1 X130.599 Y92.132
G0 F3600 X130.669 Y91.636
G1 F2400 X166.329 Y127.296 E130.20494
G1 X166.399 Y127.366
G0 F3600 X166.329 Y126.731
G1 F2400 X130.669 Y91.071 E131.88228
G1 X130.599 Y91.001
G0 F3600 X130.669 Y90.505
G1 F2400 X166.329 Y126.165 E133.55961
G1 X166.399 Y126.235
G0 F3600 X166.329 Y125.599
G1 F2400 X130.669 Y89.939 E135.23695
G1 X130.599 Y89.869
G0 F3600 X130.669 Y89.374
G1 F2400 X166.329 Y125.034 E136.91429
G1 X166.399 Y125.104
G0 F3600 X166.329 Y124.468
G1 F2400 X130.669 Y88.808 E138.59163
G1 X130.599 Y88.738
G0 F3600 X130.669 Y88.242
G1 F2400 X166.329 Y123.902 E140.26896
G1 X166.399 Y123.972
G0 F3600 X166.329 Y123.337
G1 F2400 X130.669 Y87.676 E141.94632
G1 X130.599 Y87.606
G0 F3600 X130.669 Y87.111
G1 F2400 X166.329 Y122.771 E143.62366
G1 X166.399 Y122.841
G0 F3600 X166.329 Y122.205
G1 F2400 X130.669 Y86.545 E145.301
G1 X130.599 Y86.475
G0 F3600 X130.669 Y85.979
G1 F2400 X166.329 Y121.64 E146.97836
G1 X166.399 Y121.71
G0 F3600 X166.329 Y121.074
G1 F2400 X130.669 Y85.414 E148.65569
G1 X130.599 Y85.344
G0 F3600 X130.669 Y84.848
G1 F2400 X166.329 Y120.508 E150.33303
G1 X166.399 Y120.578
G0 F3600 X166.329 Y119.942
G1 F2400 X130.669 Y84.282 E152.01037
G1 X130.599 Y84.212
G0 F3600 X130.669 Y83.717
G1 F2400 X166.329 Y119.377 E153.68771
G1 X166.399 Y119.447
G0 F3600 X166.329 Y118.811
G1 F2400 X130.669 Y83.151 E155.36504
G1 X130.599 Y83.081
G0 F3600 X130.669 Y82.585
G1 F2400 X166.329 Y118.245 E157.04238
G1 X166.399 Y118.315
G0 F3600 X166.329 Y117.68
G1 F2400 X130.669 Y82.02 E158.71972
G1 X130.599 Y81.95
G0 F3600 X130.669 Y81.454
G1 F2400 X166.329 Y117.114 E160.39705
G1 X166.399 Y117.184
G0 F3600 X166.329 Y116.548
G1 F2400 X130.669 Y80.888 E162.07439
G1 X130.599 Y80.818
G0 F3600 X130.669 Y80.323
G1 F2400 X166.329 Y115.983 E163.75173
G1 X166.399 Y116.053
G0 F3600 X166.329 Y115.417
G1 F2400 X130.669 Y79.757 E165.42907
G1 X130.599 Y79.687
G0 F3600 X130.669 Y79.191
G1 F2400 X166.329 Y114.851 E167.1064
G1 X166.399 Y114.921
G0 F3600 X166.329 Y114.286
G1 F2400 X130.669 Y78.626 E168.78374
G1 X130.599 Y78.556
G0 F3600 X130.669 Y78.06
G1 F2400 X166.329 Y113.72 E170.46108
G1 X166.399 Y113.79
G0 F3600 X166.329 Y113.154
G1 F2400 X130.669 Y77.494 E172.13841
G1 X130.599 Y77.424
G0 F3600 X130.669 Y76.928
G1 F2400 X166.329 Y112.589 E173.81577
G1 X166.399 Y112.659
G0 F3600 X166.329 Y112.023
G1 F2400 X130.669 Y76.363 E175.49311
G1 X130.599 Y76.293
G0 F3600 X130.669 Y75.797
G1 F2400 X166.329 Y111.457 E177.17045
G1 X166.399 Y111.527
G0 F3600 X166.329 Y110.892
G1 F2400 X130.669 Y75.231 E178.84781
G1 X130.599 Y75.161
G0 F3600 X130.669 Y74.666
G1 F2400 X166.329 Y110.326 E180.52515
G1 X166.399 Y110.396
G0 F3600 X166.329 Y109.76
G1 F2400 X130.669 Y74.1 E182.20248
G1 X130.599 Y74.03
G0 F3600 X130.669 Y73.534
G1 F2400 X166.329 Y109.194 E183.87982
G1 X166.399 Y109.264
G0 F3600 X166.329 Y108.629
G1 F2400 X130.669 Y72.969 E185.55716
G1 X130.599 Y72.899
G0 F3600 X130.669 Y72.403
G1 F2400 X166.329 Y108.063 E187.23449
G1 X166.399 Y108.133
G0 F3600 X166.329 Y107.497
G1 F2400 X130.669 Y71.837 E188.91183
G1 X130.599 Y71.767
G0 F3600 X130.669 Y71.272
G1 F2400 X166.329 Y106.932 E190.58917
G1 X166.399 Y107.002
G0 F3600 X166.329 Y106.366
G1 F2400 X130.669 Y70.706 E192.26651
G1 X130.599 Y70.636
G0 F3600 X130.669 Y70.14
G1 F2400 X166.329 Y105.8 E193.94384
G1 X166.399 Y105.87
G0 F3600 X166.329 Y105.235
G1 F2400 X130.764 Y69.67 E195.61671
G1 X130.694 Y69.6
G0 F3600 X131.33 Y69.67
G1 F2400 X166.329 Y104.669 E197.26296
G1 X166.399 Y104.739
G0 F3600 X166.329 Y104.103
G1 F2400 X131.895 Y69.67 E198.8826
G1 X131.825 Y69.6
G0 F3600 X132.461 Y69.67
G1 F2400 X166.329 Y103.538 E200.47565
G1 X166.399 Y103.608
G0 F3600 X166.329 Y102.972
G1 F2400 X133.027 Y69.67 E202.04207
G1 X132.957 Y69.6
G0 F3600 X133.592 Y69.67
G1 F2400 X166.329 Y102.406 E203.5819
G1 X166.399 Y102.476
G0 F3600 X166.329 Y101.841
G1 F2400 X134.158 Y69.67 E205.09512
G1 X134.088 Y69.6
G0 F3600 X134.724 Y69.67
G1 F2400 X166.329 Y101.275 E206.58173
G1 X166.399 Y101.345
G0 F3600 X166.329 Y100.709
G1 F2400 X135.29 Y69.67 E208.04171
G1 X135.22 Y69.6
G0 F3600 X135.855 Y69.67
G1 F2400 X166.329 Y100.143 E209.47509
G1 X166.399 Y100.213
G0 F3600 X166.329 Y99.578
G1 F2400 X136.421 Y69.67 E210.88187
G1 X136.351 Y69.6
G0 F3600 X136.987 Y69.67
G1 F2400 X166.329 Y99.012 E212.26202
G1 X166.399 Y99.082
G0 F3600 X166.329 Y98.446
G1 F2400 X137.552 Y69.67 E213.61558
G1 X137.482 Y69.6
G0 F3600 X138.118 Y69.67
G1 F2400 X166.329 Y97.881 E214.94254
G1 X166.399 Y97.951
G0 F3600 X166.329 Y97.315
G1 F2400 X138.684 Y69.67 E216.24288
G1 X138.614 Y69.6
G0 F3600 X139.249 Y69.67
G1 F2400 X166.329 Y96.749 E217.51661
G1 X166.399 Y96.819
G0 F3600 X166.329 Y96.184
G1 F2400 X139.815 Y69.67 E218.76375
G1 X139.745 Y69.6
