;FLAVOR:Marlin
;TIME:25272
;Filament used: 35.3796m
;Layer height: 0.2
;Generated with Cura_SteamEngine 3.2.1
M104 S200
M109 S200
M82 ;absolute extrusion mode
; -- START GCODE --
G21                     ;set units to millimetres
G90                     ;set to absolute positioning
M106 S0                 ;set fan speed to zero (turned off)
G28 X0 Y0               ;move to the X/Y origin (Home)
G28 Z0                  ;move to the Z origin (Home)
G1 Z15.0 F1200          ;move Z to position 15.0 mm
G92 E0                  ;zero the extruded length
G1 E20 F200             ;extrude 20mm of feed stock
G92 E0                  ;zero the extruded length again
G1 F7200                ;set feedrate to 120 mm/s
; -- end of START GCODE --
;LAYER_COUNT:36
;LAYER:0
M107
G0 F3600 X33.553 Y9.214 Z0.2
;TYPE:SKIRT
G1 F2400 X33.747 Y8.747 E0.01682
G1 X34.013 Y8.317 E0.03364
G1 X34.326 Y7.951 E0.04965
G1 X34.554 Y7.722 E0.0604
G1 X34.938 Y7.393 E0.07722
G1 X35.369 Y7.129 E0.09403
G1 X35.836 Y6.936 E0.11084
G1 X36.328 Y6.818 E0.12767
G1 X36.822 Y6.78 E0.14414
G1 X174.9 Y6.78 E4.73664
G1 X175.404 Y6.82 E4.75345
G1 X175.895 Y6.939 E4.77026
G1 X176.502 Y7.21 E4.79237
G1 X181.573 Y10.143 E4.98721
G1 X186.474 Y12.613 E5.16975
G1 X191.469 Y14.786 E5.35092
G1 X196.619 Y16.688 E5.53352
G1 X201.86 Y18.292 E5.71582
G1 X207.224 Y19.609 E5.89952
G1 X209.851 Y20.134 E5.98863
G1 X215.271 Y20.985 E6.1711
G1 X220.714 Y21.526 E6.35303
G1 X226.209 Y21.76 E6.53596
G1 X270.746 Y21.78 E8.01727
G1 X271.25 Y21.82 E8.03408
G1 X271.742 Y21.939 E8.05092
G1 X272.208 Y22.134 E8.06772
G1 X272.638 Y22.4 E8.08454
G1 X273.003 Y22.712 E8.10051
G1 X273.233 Y22.941 E8.1113
G1 X273.562 Y23.325 E8.12812
G1 X273.826 Y23.756 E8.14493
G1 X274.019 Y24.223 E8.16174
G1 X274.137 Y24.715 E8.17857
G1 X274.175 Y25.209 E8.19505
G1 X274.173 Y163.297 E12.78787
G1 X274.147 Y163.704 E12.80144
G1 X273.439 Y169.226 E12.9866
G1 X273.051 Y174.685 E13.16863
G1 X272.961 Y180.211 E13.35245
G1 X272.912 Y180.714 E13.36926
G1 X272.786 Y181.204 E13.38608
G1 X272.583 Y181.667 E13.4029
G1 X272.311 Y182.093 E13.41971
G1 X271.974 Y182.47 E13.43653
G1 X271.583 Y182.79 E13.45333
G1 X271.146 Y183.044 E13.47015
G1 X270.674 Y183.226 E13.48697
G1 X270.18 Y183.332 E13.50377
G1 X269.738 Y183.359 E13.5185
G1 X261.721 Y183.302 E13.78516
G1 X256.133 Y183.382 E13.97103
G1 X252.785 Y183.563 E14.08255
G1 X252.613 Y183.568 E14.08827
G1 X236.807 Y183.57 E14.61398
G1 X231.281 Y183.726 E14.79785
G1 X225.816 Y184.191 E14.98028
G1 X220.41 Y184.962 E15.1619
G1 X215.027 Y186.04 E15.34449
G1 X212.398 Y186.685 E15.43453
G1 X207.107 Y188.222 E15.61778
G1 X201.962 Y190.038 E15.79925
G1 X196.905 Y192.153 E15.98157
G1 X191.979 Y194.547 E16.16373
G1 X187.191 Y197.221 E16.34613
G1 X182.577 Y200.15 E16.5279
G1 X178.596 Y202.971 E16.69019
G1 X178.162 Y203.23 E16.707
G1 X177.692 Y203.417 E16.72382
G1 X177.199 Y203.528 E16.74063
G1 X176.746 Y203.56 E16.75573
G1 X38.731 Y203.56 E21.34613
G1 X38.227 Y203.52 E21.36295
G1 X37.736 Y203.401 E21.37975
G1 X37.269 Y203.207 E21.39657
G1 X36.839 Y202.941 E21.41339
G1 X36.456 Y202.611 E21.4302
G1 X36.13 Y202.224 E21.44703
G1 X35.869 Y201.791 E21.46385
G1 X35.702 Y201.392 E21.47823
G1 X35.504 Y200.811 E21.49865
G1 X35.388 Y200.372 E21.51375
G1 X35.018 Y198.41 E21.58016
G1 X33.545 Y192.049 E21.79732
G1 X33.473 Y191.591 E21.81274
G1 X33.395 Y190.648 E21.84421
G1 X33.384 Y190.384 E21.853
G1 X33.394 Y111.213 E24.48624
G1 X33.403 Y110.978 E24.49406
G1 X33.864 Y104.709 E24.70313
G1 X33.941 Y99.221 E24.88568
G1 X33.706 Y93.747 E25.06792
G1 X33.405 Y90.31 E25.18267
G1 X33.393 Y90.03 E25.19199
G1 X33.394 Y10.209 E27.84685
G1 X33.434 Y9.705 E27.86366
G1 X33.553 Y9.214 E27.88047
G0 F3600 X36.784 Y10.286
;TYPE:SUPPORT
G1 F2400 X36.9 Y10.17 E27.88592
G1 X174.755 Y10.17 E32.471
G1 X174.835 Y10.466 E32.4812
G1 X36.985 Y90.055 E37.77542
G1 X36.784 Y89.939 E37.78313
G1 X36.784 Y10.286 E40.4324
G0 F3600 X36.944 Y10.664
G1 F2400 X174.17 Y10.664 E44.99656
G0 F3600 X173.29 Y10.33
G1 F2400 X173.29 Y11.174 E45.02463
G0 F3600 X170.624 Y10.33
G1 F2400 X170.624 Y12.713 E45.10389
G0 F3600 X169.553 Y13.33
G1 F2400 X36.944 Y13.33 E49.51448
G0 F3600 X36.944 Y15.996
G1 F2400 X164.935 Y15.996 E53.77148
G0 F3600 X165.292 Y15.792
G1 F2400 X165.292 Y10.33 E53.95315
G0 F3600 X162.626 Y10.33
G1 F2400 X162.626 Y17.331 E54.186
G0 F3600 X160.318 Y18.662
G1 F2400 X36.944 Y18.662 E58.28944
G0 F3600 X36.944 Y21.328
G1 F2400 X155.7 Y21.328 E62.23928
G0 F3600 X154.628 Y21.949
G1 F2400 X154.628 Y10.33 E62.62573
G0 F3600 X151.962 Y10.33
G1 F2400 X151.962 Y23.488 E63.06337
G0 F3600 X151.083 Y23.994
G1 F2400 X36.944 Y23.994 E66.85964
G0 F3600 X36.944 Y26.66
G1 F2400 X146.465 Y26.66 E70.50233
G0 F3600 X146.63 Y26.566
G1 F2400 X146.63 Y10.33 E71.04234
G0 F3600 X143.964 Y10.33
G1 F2400 X143.964 Y28.106 E71.63357
G0 F3600 X141.848 Y29.326
G1 F2400 X36.944 Y29.326 E75.12269
G0 F3600 X36.944 Y31.992
G1 F2400 X137.23 Y31.992 E78.45822
G0 F3600 X135.966 Y32.723
G1 F2400 X135.966 Y10.33 E79.20301
G0 F3600 X133.3 Y10.33
G1 F2400 X133.3 Y34.263 E79.99903
G0 F3600 X132.612 Y34.658
G1 F2400 X36.944 Y34.658 E83.18096
G0 F3600 X36.944 Y37.324
G1 F2400 X127.995 Y37.324 E86.20933
G0 F3600 X127.968 Y37.341
G1 F2400 X127.968 Y10.33 E87.10772
G0 F3600 X125.302 Y10.33
G1 F2400 X125.302 Y38.88 E88.05729
G0 F3600 X123.377 Y39.99
G1 F2400 X36.944 Y39.99 E90.93207
G0 F3600 X36.944 Y42.656
G1 F2400 X118.76 Y42.656 E93.65328
G0 F3600 X119.97 Y41.959
G1 F2400 X119.97 Y10.33 E94.70526
G0 F3600 X117.304 Y10.33
G1 F2400 X117.304 Y43.498 E95.80843
G0 F3600 X114.638 Y45.037
G1 F2400 X114.638 Y10.33 E96.96279
G0 F3600 X111.972 Y10.33
G1 F2400 X111.972 Y46.576 E98.16834
G0 F3600 X114.142 Y45.322
G1 F2400 X36.944 Y45.322 E100.73596
G0 F3600 X36.944 Y47.988
G1 F2400 X109.525 Y47.988 E103.15001
G0 F3600 X109.306 Y48.116
G1 F2400 X109.306 Y10.33 E104.40678
G0 F3600 X106.64 Y10.33
G1 F2400 X106.64 Y49.655 E105.71473
G0 F3600 X104.907 Y50.654
G1 F2400 X36.944 Y50.654 E107.97519
G0 F3600 X36.944 Y53.32
G1 F2400 X100.29 Y53.32 E110.08209
G0 F3600 X101.308 Y52.733
G1 F2400 X101.308 Y10.33 E111.49242
G0 F3600 X98.642 Y10.33
G1 F2400 X98.642 Y54.272 E112.95393
G0 F3600 X95.976 Y55.812
G1 F2400 X95.976 Y10.33 E114.46667
G0 F3600 X93.31 Y10.33
G1 F2400 X93.31 Y57.351 E116.0306
G0 F3600 X91.054 Y58.652
G1 F2400 X36.944 Y58.652 E117.8303
G0 F3600 X36.944 Y55.986
G1 F2400 X95.672 Y55.986 E119.7836
G0 F3600 X90.644 Y58.89
G1 F2400 X90.644 Y10.33 E121.39872
G0 F3600 X87.978 Y10.33
G1 F2400 X87.978 Y60.429 E123.06501
G0 F3600 X86.437 Y61.318
G1 F2400 X36.943 Y61.318 E124.71119
G0 F3600 X36.943 Y63.984
G1 F2400 X81.819 Y63.984 E126.20377
G0 F3600 X82.646 Y63.508
G1 F2400 X82.646 Y10.33 E127.97248
G0 F3600 X79.98 Y10.33
G1 F2400 X79.98 Y65.047 E129.79238
G0 F3600 X77.314 Y66.586
G1 F2400 X77.314 Y10.33 E131.66346
G0 F3600 X74.648 Y10.33
G1 F2400 X74.648 Y68.126 E133.58576
G0 F3600 X72.584 Y69.316
G1 F2400 X36.943 Y69.316 E134.77119
G0 F3600 X36.943 Y66.65
G1 F2400 X77.202 Y66.65 E136.11021
G0 F3600 X71.982 Y69.665
G1 F2400 X71.982 Y10.33 E138.0837
G0 F3600 X69.316 Y10.33
G1 F2400 X69.316 Y71.204 E140.10837
G0 F3600 X67.967 Y71.982
G1 F2400 X36.943 Y71.982 E141.14024
G0 F3600 X36.943 Y74.648
G1 F2400 X63.348 Y74.648 E142.01847
G0 F3600 X63.984 Y74.282
G1 F2400 X63.984 Y10.33 E144.14552
G0 F3600 X61.318 Y10.33
G1 F2400 X61.318 Y75.822 E146.32379
G0 F3600 X58.731 Y77.314
G1 F2400 X36.943 Y77.314 E147.04847
G0 F3600 X36.943 Y79.98
G1 F2400 X54.113 Y79.98 E147.61954
G0 F3600 X53.32 Y80.439
G1 F2400 X53.32 Y10.33 E149.95138
G0 F3600 X50.654 Y10.33
G1 F2400 X50.654 Y81.979 E152.33443
G0 F3600 X49.495 Y82.646
G1 F2400 X36.943 Y82.646 E152.75191
G0 F3600 X36.943 Y85.312
G1 F2400 X44.878 Y85.312 E153.01583
G0 F3600 X45.322 Y85.057
G1 F2400 X45.322 Y10.33 E155.50126
G0 F3600 X42.656 Y10.33
G1 F2400 X42.656 Y86.596 E158.03788
G0 F3600 X40.26 Y87.978
G1 F2400 X36.943 Y87.978 E158.1482
G0 F3600 X37.324 Y89.675
G1 F2400 X37.324 Y10.33 E160.78723
G0 F3600 X39.99 Y10.33
G1 F2400 X39.99 Y88.135 E163.37503
G0 F3600 X47.988 Y83.518
G1 F2400 X47.988 Y10.33 E165.80928
G0 F3600 X55.986 Y10.33
G1 F2400 X55.986 Y78.9 E168.08992
G0 F3600 X58.652 Y77.361
G1 F2400 X58.652 Y10.33 E170.31938
G0 F3600 X66.65 Y10.33
G1 F2400 X66.65 Y72.743 E172.39525
G0 F3600 X85.312 Y61.969
G1 F2400 X85.312 Y10.33 E174.11277
G0 F3600 X103.974 Y10.33
G1 F2400 X103.974 Y51.194 E175.47191
G0 F3600 X122.636 Y40.419
G1 F2400 X122.636 Y10.33 E176.47268
G0 F3600 X130.634 Y10.33
G1 F2400 X130.634 Y35.802 E177.31988
G0 F3600 X138.632 Y31.184
G1 F2400 X138.632 Y10.33 E178.01349
G0 F3600 X141.298 Y10.33
G1 F2400 X141.298 Y29.645 E178.6559
G0 F3600 X149.296 Y25.027
G1 F2400 X149.296 Y10.33 E179.14473
G0 F3600 X157.294 Y10.33
G1 F2400 X157.294 Y20.409 E179.47996
G0 F3600 X159.96 Y18.87
G1 F2400 X159.96 Y10.33 E179.764
G0 F3600 X167.958 Y10.33
G1 F2400 X167.958 Y14.253 E179.89448
G0 F3600 X175.586 Y20.285
G1 F2400 X175.786 Y20.401 E179.90217
G1 X175.785 Y100.054 E182.55144
G1 X175.669 Y100.17 E182.55689
G1 X37.835 Y100.17 E187.14127
G1 X37.755 Y99.874 E187.15147
G1 X175.586 Y20.285 E192.44514
G0 F3600 X175.625 Y21.328
G1 F2400 X174.099 Y21.328 E192.4959
G0 F3600 X173.29 Y21.795
G1 F2400 X173.29 Y100.01 E195.09734
G0 F3600 X170.624 Y100.01
G1 F2400 X170.624 Y23.335 E197.64756
G0 F3600 X169.482 Y23.994
G1 F2400 X175.625 Y23.994 E197.85188
G0 F3600 X175.625 Y26.66
G1 F2400 X164.865 Y26.66 E198.20976
G0 F3600 X165.292 Y26.414
G1 F2400 X165.292 Y100.01 E200.65757
G0 F3600 X162.626 Y100.01
G1 F2400 X162.626 Y27.953 E203.05419
G0 F3600 X160.248 Y29.326
G1 F2400 X175.625 Y29.326 E203.56563
G0 F3600 X175.625 Y31.992
G1 F2400 X155.631 Y31.992 E204.23064
G0 F3600 X154.628 Y32.571
G1 F2400 X154.628 Y100.01 E206.47367
G0 F3600 X151.962 Y100.01
G1 F2400 X151.962 Y34.111 E208.66548
G0 F3600 X151.014 Y34.658
G1 F2400 X175.625 Y34.658 E209.48404
G0 F3600 X175.625 Y37.324
G1 F2400 X146.397 Y37.324 E210.45617
G0 F3600 X146.63 Y37.19
G1 F2400 X146.63 Y100.01 E212.54557
G0 F3600 X143.964 Y100.01
G1 F2400 X143.964 Y38.729 E214.58379
G0 F3600 X141.781 Y39.99
G1 F2400 X175.625 Y39.99 E215.70944
G0 F3600 X175.625 Y42.656
G1 F2400 X137.164 Y42.656 E216.98866
G0 F3600 X135.966 Y43.347
G1 F2400 X135.966 Y100.01 E218.87328
G0 F3600 X133.3 Y100.01
G1 F2400 X133.3 Y44.887 E220.70668
G0 F3600 X132.547 Y45.322
G1 F2400 X175.625 Y45.322 E222.13946
G0 F3600 X175.625 Y47.988
G1 F2400 X127.93 Y47.988 E223.7258
G0 F3600 X127.968 Y47.966
G1 F2400 X127.968 Y100.01 E225.45679
G0 F3600 X125.302 Y100.01
G1 F2400 X125.302 Y49.505 E227.13659
G0 F3600 X123.313 Y50.654
G1 F2400 X175.625 Y50.654 E228.8765
G0 F3600 X175.625 Y53.32
G1 F2400 X118.696 Y53.32 E230.76996
G0 F3600 X119.97 Y52.584
G1 F2400 X119.97 Y100.01 E232.34736
G0 F3600 X117.304 Y100.01
G1 F2400 X117.304 Y54.124 E233.87353
G0 F3600 X114.638 Y55.663
G1 F2400 X114.638 Y100.01 E235.34852
G0 F3600 X111.972 Y100.01
G1 F2400 X111.972 Y57.202 E236.77232
G0 F3600 X114.079 Y55.986
G1 F2400 X175.625 Y55.986 E238.81935
G0 F3600 X175.625 Y58.652
G1 F2400 X109.462 Y58.652 E241.01994
G0 F3600 X109.306 Y58.742
G1 F2400 X109.306 Y100.01 E242.39252
G0 F3600 X106.64 Y100.01
G1 F2400 X106.64 Y60.281 E243.71391
G0 F3600 X104.845 Y61.318
G1 F2400 X175.625 Y61.318 E246.06806
G0 F3600 X175.625 Y63.984
G1 F2400 X100.228 Y63.984 E248.57578
G0 F3600 X101.308 Y63.36
G1 F2400 X101.308 Y100.01 E249.79476
G0 F3600 X98.642 Y100.01
G1 F2400 X98.642 Y64.9 E250.96252
G0 F3600 X95.976 Y66.439
G1 F2400 X95.976 Y100.01 E252.0791
G0 F3600 X93.31 Y100.01
G1 F2400 X93.31 Y67.979 E253.14446
G0 F3600 X95.611 Y66.65
G1 F2400 X175.625 Y66.65 E255.80573
G0 F3600 X175.625 Y69.316
G1 F2400 X90.994 Y69.316 E258.62057
G0 F3600 X90.644 Y69.518
G1 F2400 X90.644 Y100.01 E259.63474
G0 F3600 X87.978 Y100.01
G1 F2400 X87.978 Y71.057 E260.59772
G0 F3600 X86.378 Y71.982
G1 F2400 X175.625 Y71.982 E263.56609
G0 F3600 X175.625 Y74.648
G1 F2400 X81.761 Y74.648 E266.68802
G0 F3600 X82.646 Y74.136
G1 F2400 X82.646 Y100.01 E267.54859
G0 F3600 X79.98 Y100.01
G1 F2400 X79.98 Y75.676 E268.35794
G0 F3600 X77.314 Y77.215
G1 F2400 X77.314 Y100.01 E269.11611
G0 F3600 X74.648 Y100.01
G1 F2400 X74.648 Y78.755 E269.82305
G0 F3600 X72.527 Y79.98
G1 F2400 X175.625 Y79.98 E273.2521
G0 F3600 X175.625 Y77.314
G1 F2400 X77.144 Y77.314 E276.52759
G0 F3600 X71.982 Y80.294
G1 F2400 X71.982 Y100.01 E277.18335
G0 F3600 X69.316 Y100.01
G1 F2400 X69.316 Y81.833 E277.78792
G0 F3600 X67.91 Y82.646
G1 F2400 X175.625 Y82.646 E281.37054
G0 F3600 X175.625 Y85.312
G1 F2400 X63.292 Y85.312 E285.10675
G0 F3600 X63.984 Y84.912
G1 F2400 X63.984 Y100.01 E285.60891
G0 F3600 X61.318 Y100.01
G1 F2400 X61.318 Y86.452 E286.05985
G0 F3600 X58.675 Y87.978
G1 F2400 X175.625 Y87.978 E289.94962
G0 F3600 X175.625 Y90.644
G1 F2400 X54.058 Y90.644 E293.99296
G0 F3600 X53.32 Y91.07
G1 F2400 X53.32 Y100.01 E294.2903
G0 F3600 X50.654 Y100.01
G1 F2400 X50.654 Y92.61 E294.53643
G0 F3600 X49.441 Y93.31
G1 F2400 X175.625 Y93.31 E298.73332
G0 F3600 X175.625 Y95.976
G1 F2400 X44.824 Y95.976 E303.08378
G0 F3600 X45.322 Y95.688
G1 F2400 X45.322 Y100.01 E303.22753
G0 F3600 X42.656 Y100.01
G1 F2400 X42.656 Y97.228 E303.32006
G0 F3600 X40.207 Y98.642
G1 F2400 X175.625 Y98.642 E307.82408
G0 F3600 X167.958 Y100.01
G1 F2400 X167.958 Y24.874 E310.32312
G0 F3600 X159.96 Y29.492
G1 F2400 X159.96 Y100.01 E312.66856
G0 F3600 X157.294 Y100.01
G1 F2400 X157.294 Y31.032 E314.96277
G0 F3600 X149.296 Y35.65
G1 F2400 X149.296 Y100.01 E317.1034
G0 F3600 X141.298 Y100.01
G1 F2400 X141.298 Y40.269 E319.09039
G0 F3600 X138.632 Y41.808
G1 F2400 X138.632 Y100.01 E321.0262
G0 F3600 X130.634 Y100.01
G1 F2400 X130.634 Y46.426 E322.80841
G0 F3600 X122.636 Y51.045
G1 F2400 X122.636 Y100.01 E324.43699
G0 F3600 X103.974 Y100.01
G1 F2400 X103.974 Y61.821 E325.70716
G0 F3600 X85.312 Y72.597
G1 F2400 X85.312 Y100.01 E326.61892
G0 F3600 X66.65 Y100.01
G1 F2400 X66.65 Y83.373 E327.17227
G0 F3600 X58.652 Y87.991
G1 F2400 X58.652 Y100.01 E327.57202
G0 F3600 X55.986 Y100.01
G1 F2400 X55.986 Y89.531 E327.92056
G0 F3600 X47.988 Y94.149
G1 F2400 X47.988 Y100.01 E328.11549
G0 F3600 X39.99 Y100.01
G1 F2400 X39.99 Y98.767 E328.15684
G0 F3600 X36.9 Y111.17
G1 F2400 X174.755 Y111.17 E332.74191
G1 X174.835 Y111.466 E332.75211
G1 X36.985 Y191.055 E338.04633
G1 X36.784 Y190.939 E338.05405
G1 X36.784 Y111.286 E340.70332
G1 X36.9 Y111.17 E340.70877
G0 F3600 X37.324 Y111.33
G1 F2400 X37.324 Y190.675 E343.3478
G0 F3600 X36.943 Y189.286
G1 F2400 X39.727 Y189.286 E343.4404
G0 F3600 X39.99 Y189.135
G1 F2400 X39.99 Y111.33 E346.0282
G0 F3600 X42.656 Y111.33
G1 F2400 X42.656 Y187.596 E348.56482
G0 F3600 X44.344 Y186.62
G1 F2400 X36.943 Y186.62 E348.81098
G0 F3600 X36.943 Y183.954
G1 F2400 X48.962 Y183.954 E349.21073
G0 F3600 X47.988 Y184.518
G1 F2400 X47.988 Y111.33 E351.64497
G0 F3600 X45.322 Y111.33
G1 F2400 X45.322 Y186.057 E354.1304
G0 F3600 X50.654 Y182.979
G1 F2400 X50.654 Y111.33 E356.51346
G0 F3600 X53.32 Y111.33
G1 F2400 X53.32 Y181.439 E358.84529
G0 F3600 X53.58 Y181.288
G1 F2400 X36.943 Y181.288 E359.39864
G0 F3600 X36.943 Y178.622
G1 F2400 X58.197 Y178.622 E360.10555
G0 F3600 X58.652 Y178.361
G1 F2400 X58.652 Y111.33 E362.33501
G0 F3600 X55.986 Y111.33
G1 F2400 X55.986 Y179.9 E364.61566
G0 F3600 X61.318 Y176.822
G1 F2400 X61.318 Y111.33 E366.79393
G0 F3600 X63.984 Y111.33
G1 F2400 X63.984 Y175.282 E368.92098
G0 F3600 X62.815 Y175.956
G1 F2400 X36.943 Y175.956 E369.78149
G0 F3600 X36.943 Y173.29
G1 F2400 X67.432 Y173.29 E370.79556
G0 F3600 X66.65 Y173.743
G1 F2400 X66.65 Y111.33 E372.87142
G0 F3600 X69.316 Y111.33
G1 F2400 X69.316 Y172.204 E374.8961
G0 F3600 X71.982 Y170.665
G1 F2400 X71.982 Y111.33 E376.86959
G0 F3600 X74.648 Y111.33
G1 F2400 X74.648 Y169.126 E378.79189
G0 F3600 X76.667 Y167.958
G1 F2400 X36.943 Y167.958 E380.11312
G0 F3600 X36.943 Y165.292
G1 F2400 X81.285 Y165.292 E381.58794
G0 F3600 X79.98 Y166.047
G1 F2400 X79.98 Y111.33 E383.40784
G0 F3600 X77.314 Y111.33
G1 F2400 X77.314 Y167.586 E385.27892
G0 F3600 X72.05 Y170.624
G1 F2400 X36.943 Y170.624 E386.44658
G0 F3600 X36.943 Y162.626
G1 F2400 X85.902 Y162.626 E388.07496
G0 F3600 X85.312 Y162.969
