;FLAVOR:Marlin
;TIME:25112
;Filament used: 35.0366m
;Layer height: 0.2
;Generated with Cura_SteamEngine 3.2.1
M104 S200
M109 S200
M82 ;absolute extrusion mode
; -- START GCODE --
G21                     ;set units to millimetres
G90                     ;set to absolute positioning
M106 S0                 ;set fan speed to zero (turned off)
G28 X0 Y0               ;move to the X/Y origin (Home)
G28 Z0                  ;move to the Z origin (Home)
G1 Z15.0 F1200          ;move Z to position 15.0 mm
G92 E0                  ;zero the extruded length
G1 E20 F200             ;extrude 20mm of feed stock
G92 E0                  ;zero the extruded length again
G1 F7200                ;set feedrate to 120 mm/s
; -- end of START GCODE --
;LAYER_COUNT:35
;LAYER:0
M107
G0 F3600 X33.464 Y16.076 Z0.2
;TYPE:SKIRT
G1 F2400 X33.729 Y15.646 E0.0168
G1 X34.042 Y15.28 E0.03282
G1 X34.268 Y15.053 E0.04347
G1 X34.652 Y14.724 E0.06029
G1 X35.083 Y14.46 E0.0771
G1 X35.55 Y14.267 E0.09391
G1 X36.042 Y14.149 E0.11073
G1 X36.536 Y14.111 E0.12721
G1 X174.627 Y14.112 E4.72014
G1 X175.131 Y14.152 E4.73696
G1 X175.589 Y14.26 E4.75261
G1 X177.468 Y14.852 E4.81813
G1 X182.776 Y16.314 E5.00125
G1 X188.182 Y17.479 E5.18518
G1 X190.795 Y17.926 E5.27335
G1 X196.254 Y18.624 E5.4564
G1 X201.735 Y19.013 E5.63916
G1 X205.848 Y19.1 E5.77598
G1 X260.458 Y19.11 E7.59232
G1 X260.962 Y19.15 E7.60914
G1 X261.453 Y19.269 E7.62594
G1 X261.919 Y19.464 E7.64274
G1 X262.35 Y19.73 E7.65959
G1 X262.705 Y20.033 E7.67511
G1 X262.938 Y20.263 E7.686
G1 X263.269 Y20.645 E7.70281
G1 X263.535 Y21.075 E7.71963
G1 X263.73 Y21.541 E7.73643
G1 X263.85 Y22.033 E7.75327
G1 X263.89 Y22.54 E7.77019
G1 X263.89 Y160.615 E12.36258
G1 X263.841 Y161.17 E12.38111
G1 X262.63 Y168.044 E12.61326
G1 X262.504 Y168.534 E12.63009
G1 X262.301 Y168.997 E12.64691
G1 X262.029 Y169.423 E12.66372
G1 X261.692 Y169.8 E12.68054
G1 X261.301 Y170.12 E12.69734
G1 X260.864 Y170.374 E12.71415
G1 X260.392 Y170.556 E12.73098
G1 X259.898 Y170.662 E12.74778
G1 X259.456 Y170.689 E12.76251
G1 X251.438 Y170.632 E13.0292
G1 X245.85 Y170.712 E13.21507
G1 X242.501 Y170.893 E13.32662
G1 X242.395 Y170.897 E13.33015
G1 X239.003 Y170.967 E13.44299
G1 X233.516 Y171.328 E13.62589
G1 X228.085 Y171.996 E13.80788
G1 X222.665 Y172.975 E13.99107
G1 X220.066 Y173.559 E14.07967
G1 X214.738 Y174.997 E14.26322
G1 X209.543 Y176.721 E14.44527
G1 X204.445 Y178.738 E14.62762
G1 X199.496 Y181.028 E14.80899
G1 X194.651 Y183.611 E14.99161
G1 X189.958 Y186.467 E15.17433
G1 X185.471 Y189.558 E15.35555
G1 X181.121 Y192.93 E15.53861
G1 X178.536 Y195.128 E15.65147
G1 X178.126 Y195.424 E15.66829
G1 X177.674 Y195.652 E15.68513
G1 X177.193 Y195.806 E15.70193
G1 X176.463 Y195.89 E15.72637
G1 X38.409 Y195.89 E20.31806
G1 X37.905 Y195.85 E20.33488
G1 X37.414 Y195.731 E20.35168
G1 X36.947 Y195.537 E20.3685
G1 X36.517 Y195.271 E20.38532
G1 X36.134 Y194.941 E20.40213
G1 X35.808 Y194.554 E20.41896
G1 X35.532 Y194.091 E20.43689
G1 X33.434 Y189.784 E20.59623
G1 X33.249 Y189.314 E20.61303
G1 X33.141 Y188.82 E20.62985
G1 X33.111 Y188.383 E20.64442
G1 X33.11 Y108.526 E23.30047
G1 X33.112 Y108.42 E23.304
G1 X33.246 Y104.361 E23.43908
G1 X33.101 Y96.774 E23.69147
G1 X33.1 Y96.713 E23.6935
G1 X33.11 Y17.538 E26.32687
G1 X33.15 Y17.034 E26.34368
G1 X33.269 Y16.542 E26.36052
G1 X33.464 Y16.076 E26.37732
G0 F3600 X36.5 Y17.616
;TYPE:SUPPORT
G1 F2400 X36.616 Y17.5 E26.38278
G1 X174.471 Y17.5 E30.96785
G1 X174.551 Y17.796 E30.97805
G1 X36.701 Y97.385 E36.27227
G1 X36.5 Y97.269 E36.27999
G1 X36.5 Y17.616 E38.92926
G0 F3600 X37.324 Y17.66
G1 F2400 X37.324 Y96.841 E41.56283
G0 F3600 X36.659 Y95.976
G1 F2400 X38.819 Y95.976 E41.63467
G0 F3600 X39.99 Y95.301
G1 F2400 X39.99 Y17.66 E44.21702
G0 F3600 X42.656 Y17.66
G1 F2400 X42.656 Y93.762 E46.74818
G0 F3600 X43.437 Y93.31
G1 F2400 X36.659 Y93.31 E46.97362
G0 F3600 X36.659 Y90.644
G1 F2400 X48.054 Y90.644 E47.35262
G0 F3600 X47.988 Y90.684
G1 F2400 X47.988 Y17.66 E49.78141
G0 F3600 X45.322 Y17.66
G1 F2400 X45.322 Y92.223 E52.26138
G0 F3600 X50.654 Y89.145
G1 F2400 X50.654 Y17.66 E54.63898
G0 F3600 X53.32 Y17.66
G1 F2400 X53.32 Y87.605 E56.96536
G0 F3600 X52.672 Y87.978
G1 F2400 X36.659 Y87.978 E57.49796
G0 F3600 X36.659 Y85.312
G1 F2400 X57.29 Y85.312 E58.18415
G0 F3600 X55.986 Y86.066
G1 F2400 X55.986 Y17.66 E60.45934
G0 F3600 X58.652 Y17.66
G1 F2400 X58.652 Y84.527 E62.68335
G0 F3600 X61.318 Y82.988
G1 F2400 X61.318 Y17.66 E64.85617
G0 F3600 X63.984 Y17.66
G1 F2400 X63.984 Y81.448 E66.97776
G0 F3600 X61.907 Y82.646
G1 F2400 X36.659 Y82.646 E67.81751
G0 F3600 X36.659 Y79.98
G1 F2400 X66.526 Y79.98 E68.8109
G0 F3600 X66.65 Y79.909
G1 F2400 X66.65 Y17.66 E70.88131
G0 F3600 X69.316 Y17.66
G1 F2400 X69.316 Y78.37 E72.90053
G0 F3600 X71.143 Y77.314
G1 F2400 X36.659 Y77.314 E74.04747
G0 F3600 X36.659 Y74.648
G1 F2400 X75.761 Y74.648 E75.34801
G0 F3600 X74.648 Y75.292
G1 F2400 X74.648 Y17.66 E77.26486
G0 F3600 X71.982 Y17.66
G1 F2400 X71.982 Y76.831 E79.23289
G0 F3600 X77.314 Y73.752
G1 F2400 X77.314 Y17.66 E81.09852
G0 F3600 X79.98 Y17.66
G1 F2400 X79.98 Y72.213 E82.91296
G0 F3600 X80.378 Y71.982
G1 F2400 X36.659 Y71.982 E84.36706
G0 F3600 X36.659 Y69.316
G1 F2400 X84.996 Y69.316 E85.97475
G0 F3600 X85.312 Y69.135
G1 F2400 X85.312 Y17.66 E87.68682
G0 F3600 X82.646 Y17.66
G1 F2400 X82.646 Y70.674 E89.45007
G0 F3600 X87.978 Y67.595
G1 F2400 X87.978 Y17.66 E91.11092
G0 F3600 X90.644 Y17.66
G1 F2400 X90.644 Y66.056 E92.72058
G0 F3600 X89.613 Y66.65
G1 F2400 X36.659 Y66.65 E94.48183
G0 F3600 X36.659 Y63.984
G1 F2400 X94.231 Y63.984 E96.39668
G0 F3600 X93.31 Y64.517
G1 F2400 X93.31 Y17.66 E97.95516
G0 F3600 X95.976 Y17.66
G1 F2400 X95.976 Y62.978 E99.46244
G0 F3600 X98.642 Y61.439
G1 F2400 X98.642 Y17.66 E100.91853
G0 F3600 X101.308 Y17.66
G1 F2400 X101.308 Y59.899 E102.32341
G0 F3600 X103.466 Y58.652
G1 F2400 X36.66 Y58.652 E104.54538
G0 F3600 X36.66 Y55.986
G1 F2400 X108.084 Y55.986 E106.92096
G0 F3600 X109.306 Y55.282
G1 F2400 X109.306 Y17.66 E108.17227
G0 F3600 X106.64 Y17.66
G1 F2400 X106.64 Y56.821 E109.47477
G0 F3600 X103.974 Y58.36
G1 F2400 X103.974 Y17.66 E110.82846
G0 F3600 X111.972 Y17.66
G1 F2400 X111.972 Y53.742 E112.02855
G0 F3600 X112.701 Y53.32
G1 F2400 X36.66 Y53.32 E114.55768
G0 F3600 X36.66 Y50.654
G1 F2400 X117.319 Y50.654 E117.24041
G0 F3600 X117.304 Y50.664
G1 F2400 X117.304 Y17.66 E118.33813
G0 F3600 X114.638 Y17.66
G1 F2400 X114.638 Y52.203 E119.48703
G0 F3600 X119.97 Y49.125
G1 F2400 X119.97 Y17.66 E120.53356
G0 F3600 X122.636 Y17.66
G1 F2400 X122.636 Y47.585 E121.52887
G0 F3600 X121.936 Y47.988
G1 F2400 X36.66 Y47.988 E124.36517
G0 F3600 X36.66 Y45.322
G1 F2400 X126.554 Y45.322 E127.35505
G0 F3600 X125.302 Y46.046
G1 F2400 X125.302 Y17.66 E128.29917
G0 F3600 X127.968 Y17.66
G1 F2400 X127.968 Y44.507 E129.19211
G0 F3600 X130.634 Y42.968
G1 F2400 X130.634 Y17.66 E130.03386
G0 F3600 X133.3 Y17.66
G1 F2400 X133.3 Y41.429 E130.82442
G0 F3600 X131.171 Y42.656
G1 F2400 X36.66 Y42.656 E133.96787
G0 F3600 X36.66 Y39.99
G1 F2400 X135.789 Y39.99 E137.26491
G0 F3600 X135.966 Y39.889
G1 F2400 X135.966 Y17.66 E138.00425
G0 F3600 X138.632 Y17.66
G1 F2400 X138.632 Y38.35 E138.6924
G0 F3600 X140.407 Y37.324
G1 F2400 X36.66 Y37.324 E142.14304
G0 F3600 X36.66 Y34.658
G1 F2400 X145.024 Y34.658 E145.74724
G0 F3600 X143.964 Y35.272
G1 F2400 X143.964 Y17.66 E146.33302
G0 F3600 X141.298 Y17.66
G1 F2400 X141.298 Y36.811 E146.96998
G0 F3600 X146.63 Y33.732
G1 F2400 X146.63 Y17.66 E147.50454
G0 F3600 X149.296 Y17.66
G1 F2400 X149.296 Y32.193 E147.98791
G0 F3600 X149.642 Y31.992
G1 F2400 X36.66 Y31.992 E151.74571
G0 F3600 X36.66 Y29.326
G1 F2400 X154.259 Y29.326 E155.65707
G0 F3600 X154.628 Y29.115
G1 F2400 X154.628 Y17.66 E156.03806
G0 F3600 X151.962 Y17.66
G1 F2400 X151.962 Y30.654 E156.47024
G0 F3600 X157.294 Y27.576
G1 F2400 X157.294 Y17.66 E156.80005
G0 F3600 X159.96 Y17.66
G1 F2400 X159.96 Y26.036 E157.07864
G0 F3600 X158.877 Y26.66
G1 F2400 X36.66 Y26.66 E161.14359
G0 F3600 X36.66 Y23.994
G1 F2400 X163.494 Y23.994 E165.36211
G0 F3600 X162.626 Y24.497
G1 F2400 X162.626 Y17.66 E165.58951
G0 F3600 X165.292 Y17.66
G1 F2400 X165.292 Y22.958 E165.76572
G0 F3600 X167.958 Y21.419
G1 F2400 X167.958 Y17.66 E165.89074
G0 F3600 X170.624 Y17.66
G1 F2400 X170.624 Y19.879 E165.96455
G0 F3600 X172.729 Y18.662
G1 F2400 X36.66 Y18.662 E170.49022
G0 F3600 X36.66 Y21.328
G1 F2400 X168.112 Y21.328 E174.86233
G0 F3600 X173.29 Y18.34
G1 F2400 X173.29 Y17.66 E174.88495
G0 F3600 X98.849 Y61.318
G1 F2400 X36.659 Y61.318 E176.9534
G0 F3600 X37.47 Y102.204
G1 F2400 X175.302 Y22.615 E182.2471
G1 X175.502 Y22.731 E182.25479
G1 X175.502 Y30.119 E182.50051
G1 X175.976 Y30.484 E182.52041
G1 X183.402 Y28.474 E182.77629
G1 X183.629 Y27.923 E182.79611
G1 X180.615 Y22.701 E182.99665
G1 X180.731 Y22.5 E183.00437
G1 X260.384 Y22.5 E185.65364
G1 X260.5 Y22.616 E185.65909
G1 X260.5 Y160.471 E190.24417
G1 X260.204 Y160.551 E190.25437
G1 X246.909 Y137.523 E191.13876
G1 X246.415 Y137.318 E191.15655
G1 X242.845 Y138.272 E191.27946
G1 X242.69 Y138.003 E191.28978
G1 X242.098 Y138.163 E191.31018
G1 X242.098 Y167.466 E192.2848
G1 X242.132 Y167.5 E192.2864
G1 X179.618 Y167.5 E194.36563
G1 X179.438 Y167.319 E194.37412
G1 X178.929 Y167.217 E194.39138
G1 X176.789 Y168.105 E194.46844
G1 X176.501 Y168.536 E194.48568
G1 X176.501 Y192.384 E195.27887
G1 X176.385 Y192.5 E195.28433
G1 X38.553 Y192.5 E199.86864
G1 X38.473 Y192.204 E199.87884
G1 X40.342 Y191.13 E199.95053
G1 X40.343 Y190.501 E199.97145
G1 X36.5 Y188.269 E200.11927
G1 X36.5 Y108.616 E202.76854
G1 X36.616 Y108.5 E202.77399
G1 X174.47 Y108.5 E207.35904
G1 X174.55 Y108.798 E207.3693
G1 X172.688 Y109.881 E207.44094
G1 X172.688 Y110.509 E207.46183
G1 X177.042 Y113.047 E207.62945
G1 X177.548 Y113.048 E207.64628
G1 X179.248 Y112.071 E207.7115
G1 X179.502 Y111.632 E207.72836
G1 X179.502 Y102.536 E208.0309
G1 X179.214 Y102.105 E208.04814
G1 X177.074 Y101.217 E208.1252
G1 X176.565 Y101.319 E208.14247
G1 X175.385 Y102.5 E208.19799
G1 X37.55 Y102.5 E212.7824
G1 X37.47 Y102.204 E212.7926
G0 F3600 X39.341 Y101.308
G1 F2400 X176.348 Y101.308 E217.34947
G0 F3600 X175.956 Y101.703
G1 F2400 X175.956 Y30.654 E219.71257
G0 F3600 X175.342 Y29.326
G1 F2400 X163.999 Y29.326 E220.08984
G0 F3600 X165.292 Y28.58
G1 F2400 X165.292 Y102.34 E222.54311
G0 F3600 X162.626 Y102.34
G1 F2400 X162.626 Y30.119 E224.94519
G0 F3600 X159.96 Y31.658
G1 F2400 X159.96 Y102.34 E227.29608
G0 F3600 X157.294 Y102.34
G1 F2400 X157.294 Y33.198 E229.59576
G0 F3600 X159.382 Y31.992
G1 F2400 X260.34 Y31.992 E232.95363
G0 F3600 X260.34 Y29.326
G1 F2400 X180.861 Y29.326 E235.59711
G0 F3600 X181.288 Y29.211
G1 F2400 X181.288 Y167.34 E240.1913
G0 F3600 X183.954 Y167.34
G1 F2400 X183.954 Y22.66 E245.00338
G0 F3600 X181.288 Y22.66
G1 F2400 X181.288 Y23.545 E245.03282
G0 F3600 X181.547 Y23.994
G1 F2400 X260.34 Y23.994 E247.65348
G0 F3600 X258.602 Y22.66
G1 F2400 X258.602 Y157.456 E252.13681
G0 F3600 X258.508 Y157.294
G1 F2400 X260.34 Y157.294 E252.19775
G0 F3600 X260.34 Y154.628
G1 F2400 X256.969 Y154.628 E252.30987
G0 F3600 X255.936 Y152.838
G1 F2400 X255.936 Y22.66 E256.6396
G0 F3600 X253.27 Y22.66
G1 F2400 X253.27 Y148.22 E260.81575
G0 F3600 X253.891 Y149.296
G1 F2400 X260.34 Y149.296 E261.03024
G0 F3600 X260.34 Y146.63
G1 F2400 X252.352 Y146.63 E261.29592
G0 F3600 X250.812 Y143.964
G1 F2400 X260.34 Y143.964 E261.61283
G0 F3600 X260.34 Y141.298
G1 F2400 X249.273 Y141.298 E261.98092
G0 F3600 X250.604 Y143.603
G1 F2400 X250.604 Y22.66 E266.0035
G0 F3600 X247.938 Y22.66
G1 F2400 X247.938 Y138.985 E269.87248
G0 F3600 X247.734 Y138.632
G1 F2400 X260.34 Y138.632 E270.29176
G0 F3600 X260.34 Y135.966
G1 F2400 X36.659 Y135.966 E277.73142
G0 F3600 X36.659 Y133.3
G1 F2400 X260.34 Y133.3 E285.17108
G0 F3600 X260.34 Y130.634
G1 F2400 X36.659 Y130.634 E292.61074
G0 F3600 X36.659 Y127.968
G1 F2400 X260.34 Y127.968 E300.0504
G0 F3600 X260.34 Y125.302
G1 F2400 X36.659 Y125.302 E307.49006
G0 F3600 X36.659 Y122.636
G1 F2400 X260.34 Y122.636 E314.92972
G0 F3600 X260.34 Y119.97
G1 F2400 X36.659 Y119.97 E322.36938
G0 F3600 X36.659 Y117.304
G1 F2400 X260.34 Y117.304 E329.80904
G0 F3600 X260.34 Y114.638
G1 F2400 X36.659 Y114.638 E337.2487
G0 F3600 X36.659 Y111.972
G1 F2400 X174.882 Y111.972 E341.84602
G0 F3600 X175.956 Y112.6
G1 F2400 X175.956 Y192.34 E344.49818
G0 F3600 X176.341 Y191.952
G1 F2400 X39.232 Y191.952 E349.05844
G0 F3600 X39.99 Y192.34
G1 F2400 X39.99 Y191.516 E349.08585
G0 F3600 X39.99 Y190.111
G1 F2400 X39.99 Y108.661 E351.79489
G0 F3600 X37.324 Y108.661
G1 F2400 X37.324 Y188.562 E354.45241
G0 F3600 X38.568 Y189.286
G1 F2400 X176.341 Y189.286 E359.03476
G0 F3600 X176.341 Y186.62
G1 F2400 X36.659 Y186.62 E363.6806
G0 F3600 X36.659 Y183.954
G1 F2400 X176.341 Y183.954 E368.32644
G0 F3600 X176.341 Y181.288
G1 F2400 X36.659 Y181.288 E372.97228
G0 F3600 X36.659 Y178.622
G1 F2400 X176.341 Y178.622 E377.61812
G0 F3600 X176.341 Y175.956
G1 F2400 X36.659 Y175.956 E382.26397
G0 F3600 X36.659 Y173.29
G1 F2400 X176.341 Y173.29 E386.90981
G0 F3600 X176.341 Y170.624
G1 F2400 X36.659 Y170.624 E391.55565
G0 F3600 X36.659 Y167.958
G1 F2400 X176.723 Y167.958 E396.2142
G0 F3600 X178.622 Y167.171
G1 F2400 X178.622 Y112.614 E398.02877
G0 F3600 X179.49 Y111.972
G1 F2400 X260.34 Y111.972 E400.71785
G0 F3600 X260.34 Y109.306
G1 F2400 X179.662 Y109.306 E403.40121
G0 F3600 X179.662 Y106.64
G1 F2400 X260.34 Y106.64 E406.08458
G0 F3600 X260.34 Y103.974
G1 F2400 X179.662 Y103.974 E408.76794
G0 F3600 X178.622 Y101.685
G1 F2400 X178.622 Y29.933 E411.15442
G0 F3600 X175.342 Y26.66
G1 F2400 X168.616 Y26.66 E411.37813
G0 F3600 X167.958 Y27.04
G1 F2400 X167.958 Y102.34 E413.88261
G0 F3600 X170.624 Y102.34
G1 F2400 X170.624 Y25.501 E416.43829
G0 F3600 X173.233 Y23.994
G1 F2400 X175.342 Y23.994 E416.50844
G0 F3600 X173.29 Y23.961
G1 F2400 X173.29 Y102.34 E419.11533
G0 F3600 X177.714 Y101.308
G1 F2400 X260.34 Y101.308 E421.86348
G0 F3600 X260.34 Y98.642
G1 F2400 X43.957 Y98.642 E429.06041
G0 F3600 X42.656 Y99.393
G1 F2400 X42.656 Y102.34 E429.15843
G0 F3600 X45.322 Y102.34
G1 F2400 X45.322 Y97.854 E429.30763
G0 F3600 X47.988 Y96.314
G1 F2400 X47.988 Y102.34 E429.50806
G0 F3600 X50.654 Y102.34
G1 F2400 X50.654 Y94.775 E429.75967
G0 F3600 X48.574 Y95.976
G1 F2400 X260.34 Y95.976 E436.80304
G0 F3600 X260.34 Y93.31
G1 F2400 X53.191 Y93.31 E443.69284
G0 F3600 X53.32 Y93.236
G1 F2400 X53.32 Y102.34 E443.99564
G0 F3600 X55.986 Y102.34
G1 F2400 X55.986 Y91.696 E444.34966
G0 F3600 X57.808 Y90.644
G1 F2400 X260.34 Y90.644 E451.0859
G0 F3600 X260.34 Y87.978
G1 F2400 X62.425 Y87.978 E457.66858
G0 F3600 X61.318 Y88.617
G1 F2400 X61.318 Y102.34 E458.12501
G0 F3600 X58.652 Y102.34
G1 F2400 X58.652 Y90.157 E458.53022
G0 F3600 X63.984 Y87.078
G1 F2400 X63.984 Y102.34 E459.03784
G0 F3600 X66.65 Y102.34
G1 F2400 X66.65 Y85.538 E459.59667
G0 F3600 X67.043 Y85.312
G1 F2400 X260.34 Y85.312 E466.02576
G0 F3600 X260.34 Y82.646
G1 F2400 X71.66 Y82.646 E472.30128
G0 F3600 X71.982 Y82.46
G1 F2400 X71.982 Y102.34 E472.96249
G0 F3600 X69.316 Y102.34
G1 F2400 X69.316 Y83.999 E473.57252
G0 F3600 X74.648 Y80.92
G1 F2400 X74.648 Y102.34 E474.28495
G0 F3600 X77.314 Y102.34
G1 F2400 X77.314 Y79.381 E475.04857
G0 F3600 X76.277 Y79.98
G1 F2400 X260.34 Y79.98 E481.17053
G0 F3600 X260.34 Y77.314
G1 F2400 X80.894 Y77.314 E487.13893
G0 F3600 X79.98 Y77.841
G1 F2400 X79.98 Y102.34 E487.95377
G0 F3600 X82.646 Y102.34
G1 F2400 X82.646 Y76.302 E488.81979
G0 F3600 X85.312 Y74.762
G1 F2400 X85.312 Y102.34 E489.73704
G0 F3600 X87.978 Y102.34
G1 F2400 X87.978 Y73.223 E490.70548
G0 F3600 X90.128 Y71.982
G1 F2400 X260.34 Y71.982 E496.36675
G0 F3600 X260.34 Y69.316
G1 F2400 X94.745 Y69.316 E501.87446
G0 F3600 X95.976 Y68.605
G1 F2400 X95.976 Y102.34 E502.99649
G0 F3600 X93.31 Y102.34
G1 F2400 X93.31 Y70.144 E504.06734
G0 F3600 X90.644 Y71.684
G1 F2400 X90.644 Y102.34 E505.08696
G0 F3600 X90.644 Y108.661
G1 F2400 X90.644 Y192.34 E507.87013
G0 F3600 X87.978 Y192.34
G1 F2400 X87.978 Y108.661 E510.65331
G0 F3600 X85.312 Y108.661
G1 F2400 X85.312 Y192.34 E513.43648
G0 F3600 X82.646 Y192.34
G1 F2400 X82.646 Y108.661 E516.21966
G0 F3600 X79.98 Y108.661
