;FLAVOR:Marlin
;TIME:3815
;Filament used: 5.19166m
;Layer height: 0.2
;Generated with Cura_SteamEngine 3.2.1
M104 S200
M109 S200
M82 ;absolute extrusion mode
; -- START GCODE --
G21                     ;set units to millimetres
G90                     ;set to absolute positioning
M106 S0                 ;set fan speed to zero (turned off)
G28 X0 Y0               ;move to the X/Y origin (Home)
G28 Z0                  ;move to the Z origin (Home)
G1 Z15.0 F1200          ;move Z to position 15.0 mm
G92 E0                  ;zero the extruded length
G1 E20 F200             ;extrude 20mm of feed stock
G92 E0                  ;zero the extruded length again
G1 F7200                ;set feedrate to 120 mm/s
; -- end of START GCODE --
;LAYER_COUNT:16
;LAYER:0
M107
G0 F3600 X76.647 Y63.117 Z0.2
;TYPE:SKIRT
G1 F2400 X76.977 Y62.734 E0.01681
G1 X77.364 Y62.408 E0.03364
G1 X77.797 Y62.147 E0.05046
G1 X78.265 Y61.957 E0.06726
G1 X78.758 Y61.844 E0.08408
G1 X79.228 Y61.809 E0.09976
G1 X217.747 Y61.81 E4.70692
G1 X218.251 Y61.85 E4.72373
G1 X218.742 Y61.969 E4.74054
G1 X219.209 Y62.163 E4.75736
G1 X219.639 Y62.429 E4.77417
G1 X220.022 Y62.759 E4.79099
G1 X220.348 Y63.146 E4.80782
G1 X220.609 Y63.579 E4.82464
G1 X220.799 Y64.047 E4.84143
G1 X220.912 Y64.54 E4.85826
G1 X220.947 Y65.044 E4.87506
G1 X220.901 Y65.548 E4.89189
G1 X220.777 Y66.038 E4.9087
G1 X220.578 Y66.503 E4.92553
G1 X220.307 Y66.93 E4.94235
G1 X219.973 Y67.309 E4.95915
G1 X219.583 Y67.631 E4.97597
G1 X219.347 Y67.781 E4.98527
G1 X80.829 Y147.754 E10.30512
G1 X80.373 Y147.972 E10.32193
G1 X79.888 Y148.114 E10.33874
G1 X79.386 Y148.179 E10.35557
G1 X78.881 Y148.164 E10.37238
G1 X78.384 Y148.069 E10.38921
G1 X77.909 Y147.898 E10.406
G1 X77.466 Y147.654 E10.42282
G1 X77.067 Y147.343 E10.43964
G1 X76.723 Y146.973 E10.45645
G1 X76.441 Y146.553 E10.47327
G1 X76.228 Y146.094 E10.4901
G1 X76.091 Y145.608 E10.5069
G1 X76.029 Y144.983 E10.52779
G1 X76.028 Y65.009 E13.18773
G1 X76.068 Y64.505 E13.20455
G1 X76.187 Y64.014 E13.22135
G1 X76.381 Y63.547 E13.23817
G1 X76.647 Y63.117 E13.25499
G1 F1500 E6.75499
G0 F3600 X78.553 Y65.614
G0 X79.832 Y65.614
G0 X80.068 Y143.702
G0 X80.117 Y143.789
;TYPE:WALL-INNER
G1 F1500 E13.25499
G1 F2400 X79.818 Y143.962 E13.26648
G1 X79.818 Y143.617 E13.27298
G1 X79.818 Y143.616 E13.27302
G1 X79.818 Y65.6 E15.86784
G1 X214.798 Y65.6 E20.35729
G1 X214.799 Y65.6 E20.35732
G1 X215.544 Y65.6 E20.3821
G1 X214.898 Y65.973 E20.39492
G1 X80.117 Y143.789 E25.57126
G0 F3600 X79.717 Y144.481
;TYPE:WALL-OUTER
G1 F2400 X79.418 Y144.654 E25.58275
G1 X79.418 Y144.309 E25.58925
G1 X79.418 Y144.308 E25.58928
G1 X79.418 Y65.2 E28.22043
G1 X216.29 Y65.2 E32.77281
G1 X216.291 Y65.2 E32.77284
G1 X217.036 Y65.2 E32.79762
G1 X216.39 Y65.573 E32.81044
G1 X79.717 Y144.481 E38.05943
G0 F3600 X79.544 Y144.581
G0 X79.868 Y143.876
G0 X80.208 Y143.286
;TYPE:SKIN
G1 F2400 X80.208 Y65.99 E40.63031
G1 X214.088 Y65.99 E45.08317
G1 X80.208 Y143.286 E50.22491
G0 F3600 X80.501 Y142.726
G1 F2400 X80.681 Y142.34 E50.24414
G1 X81.045 Y142.704
G0 F3600 X81.333 Y142.427
G1 F2400 X80.387 Y141.481 E50.28863
G1 X80.317 Y141.411
G0 F3600 X80.387 Y140.915
G1 F2400 X81.692 Y142.22 E50.35002
G1 X81.762 Y142.29
G0 F3600 X82.051 Y142.013
G1 F2400 X80.387 Y140.35 E50.42826
G1 X80.317 Y140.28
G0 F3600 X80.387 Y139.784
G1 F2400 X82.409 Y141.806 E50.52337
G1 X82.479 Y141.876
G0 F3600 X82.768 Y141.599
G1 F2400 X80.387 Y139.218 E50.63537
G1 X80.317 Y139.148
G0 F3600 X80.387 Y138.653
G1 F2400 X83.126 Y141.392 E50.7642
G1 X83.196 Y141.462
G0 F3600 X83.485 Y141.185
G1 F2400 X80.387 Y138.087 E50.90992
G1 X80.317 Y138.017
G0 F3600 X80.387 Y137.521
G1 F2400 X83.844 Y140.978 E51.07253
G1 X83.914 Y141.048
G0 F3600 X84.202 Y140.771
G1 F2400 X80.387 Y136.955 E51.252
G1 X80.317 Y136.885
G0 F3600 X80.387 Y136.39
G1 F2400 X84.561 Y140.564 E51.44833
G1 X84.631 Y140.634
G0 F3600 X84.919 Y140.357
G1 F2400 X80.387 Y135.824 E51.66153
G1 X80.317 Y135.754
G0 F3600 X80.387 Y135.258
G1 F2400 X85.278 Y140.149 E51.89158
G1 X85.348 Y140.219
G0 F3600 X85.636 Y139.942
G1 F2400 X80.387 Y134.693 E52.13848
G1 X80.317 Y134.623
G0 F3600 X80.387 Y134.127
G1 F2400 X85.996 Y139.736 E52.40231
G1 X86.066 Y139.806
G0 F3600 X86.354 Y139.529
G1 F2400 X80.387 Y133.561 E52.683
G1 X80.317 Y133.491
G0 F3600 X80.387 Y132.996
G1 F2400 X86.713 Y139.321 E52.98053
G1 X86.783 Y139.391
G0 F3600 X87.071 Y139.114
G1 F2400 X80.387 Y132.43 E53.29493
G1 X80.317 Y132.36
G0 F3600 X80.387 Y131.864
G1 F2400 X87.43 Y138.907 E53.62621
G1 X87.5 Y138.977
G0 F3600 X87.789 Y138.701
G1 F2400 X80.387 Y131.299 E53.97438
G1 X80.317 Y131.229
G0 F3600 X80.387 Y130.733
G1 F2400 X88.147 Y138.493 E54.33938
G1 X88.217 Y138.563
G0 F3600 X88.506 Y138.286
G1 F2400 X80.387 Y130.167 E54.72128
G1 X80.317 Y130.097
G0 F3600 X80.387 Y129.602
G1 F2400 X88.864 Y138.079 E55.12001
G1 X88.934 Y138.149
G0 F3600 X89.223 Y137.872
G1 F2400 X80.387 Y129.036 E55.53563
G1 X80.317 Y128.966
G0 F3600 X80.387 Y128.47
G1 F2400 X89.581 Y137.665 E55.96811
G1 X89.651 Y137.735
G0 F3600 X89.941 Y137.458
G1 F2400 X80.387 Y127.905 E56.41748
G1 X80.317 Y127.835
G0 F3600 X80.387 Y127.339
G1 F2400 X90.299 Y137.251 E56.88371
G1 X90.369 Y137.321
G0 F3600 X90.658 Y137.044
G1 F2400 X80.387 Y126.773 E57.36682
G1 X80.317 Y126.703
G0 F3600 X80.387 Y126.207
G1 F2400 X91.016 Y136.837 E57.8668
G1 X91.086 Y136.907
G0 F3600 X91.375 Y136.63
G1 F2400 X80.387 Y125.642 E58.38364
G1 X80.317 Y125.572
G0 F3600 X80.387 Y125.076
G1 F2400 X91.733 Y136.422 E58.91732
G1 X91.803 Y136.492
G0 F3600 X92.092 Y136.216
G1 F2400 X80.387 Y124.51 E59.46792
G1 X80.317 Y124.44
G0 F3600 X80.387 Y123.945
G1 F2400 X92.451 Y136.009 E60.03537
G1 X92.521 Y136.079
G0 F3600 X92.809 Y135.801
G1 F2400 X80.387 Y123.379 E60.61966
G1 X80.317 Y123.309
G0 F3600 X80.387 Y122.813
G1 F2400 X93.168 Y135.594 E61.22084
G1 X93.238 Y135.664
G0 F3600 X93.526 Y135.387
G1 F2400 X80.387 Y122.248 E61.83886
G1 X80.317 Y122.178
G0 F3600 X80.387 Y121.682
G1 F2400 X93.886 Y135.181 E62.47381
G1 X93.956 Y135.251
G0 F3600 X94.244 Y134.973
G1 F2400 X80.387 Y121.116 E63.1256
G1 X80.317 Y121.046
G0 F3600 X80.387 Y120.551
G1 F2400 X94.603 Y134.766 E63.79426
G1 X94.673 Y134.836
G0 F3600 X94.961 Y134.559
G1 F2400 X80.387 Y119.985 E64.47977
G1 X80.317 Y119.915
G0 F3600 X80.387 Y119.419
G1 F2400 X95.32 Y134.352 E65.18217
G1 X95.39 Y134.422
G0 F3600 X95.678 Y134.145
G1 F2400 X80.387 Y118.854 E65.90142
G1 X80.317 Y118.784
G0 F3600 X80.387 Y118.288
G1 F2400 X96.037 Y133.938 E66.63754
G1 X96.107 Y134.008
G0 F3600 X96.396 Y133.731
G1 F2400 X80.387 Y117.722 E67.39056
G1 X80.317 Y117.652
G0 F3600 X80.387 Y117.156
G1 F2400 X96.754 Y133.524 E68.16044
G1 X96.824 Y133.594
G0 F3600 X97.113 Y133.317
G1 F2400 X80.387 Y116.591 E68.94718
G1 X80.317 Y116.521
G0 F3600 X80.387 Y116.025
G1 F2400 X97.471 Y133.11 E69.75078
G1 X97.541 Y133.18
G0 F3600 X97.831 Y132.903
G1 F2400 X80.387 Y115.459 E70.57129
G1 X80.317 Y115.389
G0 F3600 X80.387 Y114.894
G1 F2400 X98.189 Y132.696 E71.40864
G1 X98.259 Y132.766
G0 F3600 X98.548 Y132.489
G1 F2400 X80.387 Y114.328 E72.26288
G1 X80.317 Y114.258
G0 F3600 X80.387 Y113.762
G1 F2400 X98.906 Y132.282 E73.13398
G1 X98.976 Y132.352
G0 F3600 X99.265 Y132.074
G1 F2400 X80.387 Y113.197 E74.02192
G1 X80.317 Y113.127
G0 F3600 X80.387 Y112.631
G1 F2400 X99.623 Y131.867 E74.92672
G1 X99.693 Y131.937
G0 F3600 X99.982 Y131.661
G1 F2400 X80.387 Y112.065 E75.84843
G1 X80.317 Y111.995
G0 F3600 X80.387 Y111.5
G1 F2400 X100.341 Y131.453 E76.78699
G1 X100.411 Y131.523
G0 F3600 X100.699 Y131.246
G1 F2400 X80.387 Y110.934 E77.7424
G1 X80.317 Y110.864
G0 F3600 X80.387 Y110.368
G1 F2400 X101.058 Y131.039 E78.7147
G1 X101.128 Y131.109
G0 F3600 X101.416 Y130.832
G1 F2400 X80.387 Y109.803 E79.70384
G1 X80.317 Y109.733
G0 F3600 X80.387 Y109.237
G1 F2400 X101.775 Y130.625 E80.70987
G1 X101.845 Y130.695
G0 F3600 X102.134 Y130.418
G1 F2400 X80.387 Y108.671 E81.73278
G1 X80.317 Y108.601
G0 F3600 X80.387 Y108.106
G1 F2400 X102.493 Y130.211 E82.77255
G1 X102.563 Y130.281
G0 F3600 X102.851 Y130.004
G1 F2400 X80.387 Y107.54 E83.82919
G1 X80.317 Y107.47
G0 F3600 X80.387 Y106.974
G1 F2400 X103.21 Y129.797 E84.90271
G1 X103.28 Y129.867
G0 F3600 X103.568 Y129.59
G1 F2400 X80.387 Y106.408 E85.9931
G1 X80.317 Y106.338
G0 F3600 X80.387 Y105.843
G1 F2400 X103.927 Y129.383 E87.10035
G1 X103.997 Y129.453
G0 F3600 X104.286 Y129.176
G1 F2400 X80.387 Y105.277 E88.22449
G1 X80.317 Y105.207
G0 F3600 X80.387 Y104.711
G1 F2400 X104.644 Y128.969 E89.36548
G1 X104.714 Y129.039
G0 F3600 X105.003 Y128.762
G1 F2400 X80.387 Y104.146 E90.52335
G1 X80.317 Y104.076
G0 F3600 X80.387 Y103.58
G1 F2400 X105.361 Y128.554 E91.69805
G1 X105.431 Y128.624
G0 F3600 X105.72 Y128.347
G1 F2400 X80.387 Y103.014 E92.88963
G1 X80.317 Y102.944
G0 F3600 X80.387 Y102.449
G1 F2400 X106.079 Y128.141 E94.09811
G1 X106.149 Y128.211
G0 F3600 X106.437 Y127.934
G1 F2400 X80.387 Y101.883 E95.32344
G1 X80.317 Y101.813
G0 F3600 X80.387 Y101.317
G1 F2400 X106.796 Y127.726 E96.56564
G1 X106.866 Y127.796
G0 F3600 X107.154 Y127.519
G1 F2400 X80.387 Y100.752 E97.82468
G1 X80.317 Y100.682
G0 F3600 X80.387 Y100.186
G1 F2400 X107.513 Y127.312 E99.1006
G1 X107.583 Y127.382
G0 F3600 X107.872 Y127.105
G1 F2400 X80.387 Y99.62 E100.39341
G1 X80.317 Y99.55
G0 F3600 X80.387 Y99.055
G1 F2400 X108.231 Y126.898 E101.70308
G1 X108.301 Y126.968
G0 F3600 X108.589 Y126.691
G1 F2400 X80.387 Y98.489 E103.02962
G1 X80.317 Y98.419
G0 F3600 X80.387 Y97.923
G1 F2400 X108.948 Y126.484 E104.37304
G1 X109.018 Y126.554
G0 F3600 X109.306 Y126.277
G1 F2400 X80.387 Y97.357 E105.73333
G1 X80.317 Y97.287
G0 F3600 X80.387 Y96.792
G1 F2400 X109.665 Y126.07 E107.11047
G1 X109.735 Y126.14
G0 F3600 X110.024 Y125.863
G1 F2400 X80.387 Y96.226 E108.50451
G1 X80.317 Y96.156
G0 F3600 X80.387 Y95.66
G1 F2400 X110.382 Y125.656 E109.9154
G1 X110.452 Y125.726
G0 F3600 X110.741 Y125.449
G1 F2400 X80.387 Y95.095 E111.34316
G1 X80.317 Y95.025
G0 F3600 X80.387 Y94.529
G1 F2400 X111.099 Y125.242 E112.78778
G1 X111.169 Y125.312
G0 F3600 X111.458 Y125.034
G1 F2400 X80.387 Y93.963 E114.24927
G1 X80.317 Y93.893
G0 F3600 X80.387 Y93.398
G1 F2400 X111.817 Y124.828 E115.72764
G1 X111.887 Y124.898
G0 F3600 X112.176 Y124.621
G1 F2400 X80.387 Y92.832 E117.2229
G1 X80.317 Y92.762
G0 F3600 X80.387 Y92.266
G1 F2400 X112.534 Y124.414 E118.73502
G1 X112.604 Y124.484
G0 F3600 X112.893 Y124.206
G1 F2400 X80.387 Y91.701 E120.26398
G1 X80.317 Y91.631
G0 F3600 X80.387 Y91.135
G1 F2400 X113.251 Y123.999 E121.8098
G1 X113.321 Y124.069
G0 F3600 X113.61 Y123.792
G1 F2400 X80.387 Y90.569 E123.37251
G1 X80.317 Y90.499
G0 F3600 X80.387 Y90.004
G1 F2400 X113.969 Y123.586 E124.9521
G1 X114.039 Y123.656
G0 F3600 X114.327 Y123.378
G1 F2400 X80.387 Y89.438 E126.54853
G1 X80.317 Y89.368
G0 F3600 X80.387 Y88.872
G1 F2400 X114.686 Y123.171 E128.16185
G1 X114.756 Y123.241
G0 F3600 X115.044 Y122.964
G1 F2400 X80.387 Y88.307 E129.79201
G1 X80.317 Y88.237
G0 F3600 X80.387 Y87.741
G1 F2400 X115.403 Y122.757 E131.43906
G1 X115.473 Y122.827
G0 F3600 X115.761 Y122.55
G1 F2400 X80.387 Y87.175 E133.10297
G1 X80.317 Y87.105
G0 F3600 X80.387 Y86.609
G1 F2400 X116.121 Y122.343 E134.78378
G1 X116.191 Y122.413
G0 F3600 X116.479 Y122.136
G1 F2400 X80.387 Y86.044 E136.48144
G1 X80.317 Y85.974
G0 F3600 X80.387 Y85.478
G1 F2400 X116.838 Y121.929 E138.19598
G1 X116.908 Y121.999
G0 F3600 X117.196 Y121.722
G1 F2400 X80.387 Y84.912 E139.92739
G1 X80.317 Y84.842
G0 F3600 X80.387 Y84.347
G1 F2400 X117.555 Y121.514 E141.67564
G1 X117.625 Y121.584
G0 F3600 X117.914 Y121.308
G1 F2400 X80.387 Y83.781 E143.44079
G1 X80.317 Y83.711
G0 F3600 X80.387 Y83.215
G1 F2400 X118.272 Y121.101 E145.22281
G1 X118.342 Y121.171
G0 F3600 X118.631 Y120.894
G1 F2400 X80.387 Y82.65 E147.02169
G1 X80.317 Y82.58
G0 F3600 X80.387 Y82.084
G1 F2400 X118.989 Y120.686 E148.83741
G1 X119.059 Y120.756
G0 F3600 X119.348 Y120.479
G1 F2400 X80.387 Y81.518 E150.67001
G1 X80.317 Y81.448
G0 F3600 X80.387 Y80.953
G1 F2400 X119.706 Y120.272 E152.51946
G1 X119.776 Y120.342
G0 F3600 X120.066 Y120.066
G1 F2400 X80.387 Y80.387 E154.38584
G1 X80.317 Y80.317
G0 F3600 X80.387 Y79.821
G1 F2400 X120.424 Y119.858 E156.26906
G1 X120.494 Y119.928
G0 F3600 X120.783 Y119.651
G1 F2400 X80.387 Y79.256 E158.16914
G1 X80.317 Y79.186
G0 F3600 X80.387 Y78.69
G1 F2400 X121.141 Y119.444 E160.08608
G1 X121.211 Y119.514
G0 F3600 X121.5 Y119.237
G1 F2400 X80.387 Y78.124 E162.01991
G1 X80.317 Y78.054
G0 F3600 X80.387 Y77.559
G1 F2400 X121.859 Y119.03 E163.9706
G1 X121.929 Y119.1
G0 F3600 X122.217 Y118.823
G1 F2400 X80.387 Y76.993 E165.93816
G1 X80.317 Y76.923
G0 F3600 X80.387 Y76.427
G1 F2400 X122.576 Y118.616 E167.9226
G1 X122.646 Y118.686
G0 F3600 X122.934 Y118.409
G1 F2400 X80.387 Y75.861 E169.9239
G1 X80.317 Y75.791
G0 F3600 X80.387 Y75.296
G1 F2400 X123.293 Y118.202 E171.94207
G1 X123.363 Y118.272
G0 F3600 X123.651 Y117.994
G1 F2400 X80.387 Y74.73 E173.97707
G1 X80.317 Y74.66
G0 F3600 X80.387 Y74.164
G1 F2400 X124.01 Y117.788 E176.02899
G1 X124.08 Y117.858
G0 F3600 X124.369 Y117.581
G1 F2400 X80.387 Y73.599 E178.09777
G1 X80.317 Y73.529
G0 F3600 X80.387 Y73.033
G1 F2400 X124.727 Y117.374 E180.18341
G1 X124.797 Y117.444
G0 F3600 X125.086 Y117.166
G1 F2400 X80.387 Y72.467 E182.28591
G1 X80.317 Y72.397
G0 F3600 X80.387 Y71.902
G1 F2400 X125.444 Y116.959 E184.40526
G1 X125.514 Y117.029
G0 F3600 X125.803 Y116.752
G1 F2400 X80.387 Y71.336 E186.54149
G1 X80.317 Y71.266
G0 F3600 X80.387 Y70.77
G1 F2400 X126.162 Y116.546 E188.69462
G1 X126.232 Y116.616
G0 F3600 X126.521 Y116.338
G1 F2400 X80.387 Y70.205 E190.8646
G1 X80.317 Y70.135
G0 F3600 X80.387 Y69.639
G1 F2400 X126.879 Y116.131 E193.05144
G1 X126.949 Y116.201
G0 F3600 X127.238 Y115.924
G1 F2400 X80.387 Y69.073 E195.25517
G1 X80.317 Y69.003
G0 F3600 X80.387 Y68.508
G1 F2400 X127.596 Y115.717 E197.47574
G1 X127.666 Y115.787
G0 F3600 X127.955 Y115.51
G1 F2400 X80.387 Y67.942 E199.71319
G1 X80.317 Y67.872
G0 F3600 X80.387 Y67.376
G1 F2400 X128.314 Y115.303 E201.96753
G1 X128.384 Y115.373
G0 F3600 X128.672 Y115.096
G1 F2400 X80.387 Y66.81 E204.23873
G1 X80.317 Y66.74
G0 F3600 X80.387 Y66.245
G1 F2400 X129.031 Y114.889 E206.5268
G1 X129.101 Y114.959
G0 F3600 X129.389 Y114.682
G1 F2400 X80.878 Y66.17 E208.80863
G1 X80.808 Y66.1
G0 F3600 X81.443 Y66.17
G1 F2400 X129.748 Y114.474 E211.08072
G1 X129.818 Y114.544
G0 F3600 X130.107 Y114.268
G1 F2400 X82.009 Y66.17 E213.34311
G1 X81.939 Y66.1
G0 F3600 X82.575 Y66.17
G1 F2400 X130.466 Y114.061 E215.59575
G1 X130.536 Y114.131
G0 F3600 X130.824 Y113.854
G1 F2400 X83.14 Y66.17 E217.83866
G1 X83.07 Y66.1
G0 F3600 X83.706 Y66.17
G1 F2400 X131.183 Y113.646 E220.07181
G1 X131.253 Y113.716
G0 F3600 X131.541 Y113.439
G1 F2400 X84.272 Y66.17 E222.2952
G1 X84.202 Y66.1
G0 F3600 X84.837 Y66.17
G1 F2400 X131.9 Y113.233 E224.5089
G1 X131.97 Y113.303
G0 F3600 X132.259 Y113.026
G1 F2400 X85.403 Y66.17 E226.71286
G1 X85.333 Y66.1
G0 F3600 X85.969 Y66.17
G1 F2400 X132.617 Y112.818 E228.90704
G1 X132.687 Y112.888
G0 F3600 X132.976 Y112.611
G1 F2400 X86.535 Y66.17 E231.09148
G1 X86.465 Y66.1
G0 F3600 X87.1 Y66.17
G1 F2400 X133.334 Y112.404 E233.26619
G1 X133.404 Y112.474
G0 F3600 X133.693 Y112.197
G1 F2400 X87.666 Y66.17 E235.43116
G1 X87.596 Y66.1
G0 F3600 X88.232 Y66.17
G1 F2400 X134.052 Y111.99 E237.58639
G1 X134.122 Y112.06
G0 F3600 X134.411 Y111.783
G1 F2400 X88.797 Y66.17 E239.73191
G1 X88.727 Y66.1
G0 F3600 X89.363 Y66.17
G1 F2400 X134.769 Y111.576 E241.86767
G1 X134.839 Y111.646
G0 F3600 X135.128 Y111.369
G1 F2400 X89.929 Y66.17 E243.99369
G1 X89.859 Y66.1
G0 F3600 X90.494 Y66.17
G1 F2400 X135.486 Y111.162 E246.10998
G1 X135.556 Y111.232
G0 F3600 X135.845 Y110.954
G1 F2400 X91.06 Y66.17 E248.2165
G1 X90.99 Y66.1
G0 F3600 X91.626 Y66.17
G1 F2400 X136.204 Y110.748 E250.31331
G1 X136.274 Y110.818
G0 F3600 X136.562 Y110.541
G1 F2400 X92.191 Y66.17 E252.40039
G1 X92.121 Y66.1
G0 F3600 X92.757 Y66.17
G1 F2400 X136.921 Y110.334 E254.47773
G1 X136.991 Y110.404
G0 F3600 X137.279 Y110.126
G1 F2400 X93.323 Y66.17 E256.54528
G1 X93.253 Y66.1
G0 F3600 X93.888 Y66.17
G1 F2400 X137.638 Y109.919 E258.60313
G1 X137.708 Y109.989
G0 F3600 X137.997 Y109.713
