;FLAVOR:Marlin
;TIME:12007
;Filament used: 15.8699m
;Layer height: 0.2
;Generated with Cura_SteamEngine 3.2.1
M104 S200
M109 S200
M82 ;absolute extrusion mode
; -- START GCODE --
G21                     ;set units to millimetres
G90                     ;set to absolute positioning
M106 S0                 ;set fan speed to zero (turned off)
G28 X0 Y0               ;move to the X/Y origin (Home)
G28 Z0                  ;move to the Z origin (Home)
G1 Z15.0 F1200          ;move Z to position 15.0 mm
G92 E0                  ;zero the extruded length
G1 E20 F200             ;extrude 20mm of feed stock
G92 E0                  ;zero the extruded length again
G1 F7200                ;set feedrate to 120 mm/s
; -- end of START GCODE --
;LAYER_COUNT:16
;LAYER:0
M107
G0 F3600 X55.663 Y33.546 Z0.2
;TYPE:SKIRT
G1 F2400 X55.929 Y33.116 E0.01682
G1 X56.259 Y32.734 E0.03361
G1 X56.645 Y32.408 E0.05041
G1 X57.078 Y32.147 E0.06723
G1 X57.547 Y31.957 E0.08406
G1 X58.04 Y31.844 E0.10088
G1 X58.509 Y31.809 E0.11652
G1 X127.075 Y31.8 E2.39704
G1 X127.17 Y31.801 E2.4002
G1 X131.804 Y31.939 E2.55439
G1 X138.422 Y31.811 E2.77455
G1 X138.605 Y31.812 E2.78064
G1 X140.829 Y31.896 E2.85466
G1 X146.346 Y31.89 E3.03816
G1 X148.339 Y31.814 E3.10449
G1 X148.463 Y31.812 E3.10862
G1 X189.265 Y31.843 E4.4657
G1 X189.308 Y31.843 E4.46713
G1 X194.908 Y31.922 E4.6534
G1 X198.361 Y31.814 E4.76831
G1 X198.461 Y31.812 E4.77163
G1 X238.491 Y31.81 E6.10304
G1 X238.995 Y31.85 E6.11985
G1 X239.486 Y31.969 E6.13665
G1 X239.953 Y32.163 E6.15347
G1 X240.383 Y32.429 E6.17029
G1 X240.766 Y32.759 E6.18711
G1 X241.092 Y33.146 E6.20394
G1 X241.353 Y33.579 E6.22075
G1 X241.543 Y34.047 E6.23755
G1 X241.656 Y34.54 E6.25437
G1 X241.691 Y35.01 E6.27005
G1 X241.7 Y103.575 E8.55053
G1 X241.699 Y103.635 E8.55253
G1 X241.561 Y111.072 E8.79992
G1 X241.688 Y114.891 E8.92701
G1 X241.665 Y115.396 E8.94383
G1 X241.563 Y115.891 E8.96064
G1 X241.388 Y116.354 E8.9771
G1 X240.29 Y118.701 E9.06328
G1 X238.173 Y123.761 E9.24571
G1 X236.345 Y128.945 E9.42854
G1 X234.815 Y134.213 E9.611
G1 X233.578 Y139.585 E9.79434
G1 X233.093 Y142.201 E9.88284
G1 X232.32 Y147.639 E10.06552
G1 X231.855 Y153.111 E10.24818
G1 X231.7 Y158.622 E10.43155
G1 X231.69 Y174.992 E10.97602
G1 X231.65 Y175.496 E10.99283
G1 X231.531 Y175.987 E11.00964
G1 X231.336 Y176.454 E11.02647
G1 X231.07 Y176.884 E11.04328
G1 X230.739 Y177.266 E11.0601
G1 X230.353 Y177.592 E11.0769
G1 X229.92 Y177.853 E11.09372
G1 X229.451 Y178.042 E11.11053
G1 X228.958 Y178.156 E11.12736
G1 X228.49 Y178.19 E11.14297
G1 X159.238 Y178.19 E13.4463
G1 X159.134 Y178.188 E13.44976
G1 X155.206 Y178.061 E13.58048
G1 X148.578 Y178.189 E13.80096
G1 X148.394 Y178.188 E13.80708
G1 X146.266 Y178.107 E13.87791
G1 X140.744 Y178.107 E14.06158
G1 X138.288 Y178.198 E14.14332
G1 X138.17 Y178.2 E14.14724
G1 X69.237 Y178.19 E16.43997
G1 X69.133 Y178.188 E16.44342
G1 X65.206 Y178.061 E16.57411
G1 X58.578 Y178.189 E16.79459
G1 X58.073 Y178.159 E16.81142
G1 X57.58 Y178.05 E16.82821
G1 X57.109 Y177.864 E16.84506
G1 X56.674 Y177.607 E16.86186
G1 X56.285 Y177.284 E16.87868
G1 X55.952 Y176.904 E16.89548
G1 X55.682 Y176.476 E16.91231
G1 X55.483 Y176.012 E16.92911
G1 X55.36 Y175.521 E16.94594
G1 X55.316 Y174.99 E16.96366
G1 X55.31 Y135.02 E18.29307
G1 X55.312 Y134.92 E18.2964
G1 X55.422 Y131.405 E18.41336
G1 X55.3 Y124.311 E18.64935
G1 X55.3 Y124.255 E18.65121
G1 X55.31 Y85.019 E19.9562
G1 X55.312 Y84.92 E19.9595
G1 X55.422 Y81.405 E20.07646
G1 X55.3 Y74.311 E20.31245
G1 X55.3 Y74.255 E20.31431
G1 X55.309 Y35.008 E21.61967
G1 X55.349 Y34.504 E21.63649
G1 X55.468 Y34.013 E21.65329
G1 X55.663 Y33.546 E21.67012
G1 F1500 E15.17012
G0 F3600 X57.835 Y35.614
G0 X59.114 Y35.614
G0 X59.35 Y73.702
G0 X59.399 Y73.789
;TYPE:WALL-INNER
G1 F1500 E21.67012
G1 F2400 X59.1 Y73.962 E21.68161
G1 X59.1 Y73.617 E21.68811
G1 X59.1 Y73.616 E21.68815
G1 X59.1 Y35.6 E22.95256
G1 X124.798 Y35.6 E25.13769
G1 X124.799 Y35.6 E25.13772
G1 X125.544 Y35.6 E25.1625
G1 X124.898 Y35.973 E25.17532
G1 X59.399 Y73.789 E27.69085
G0 F3600 X58.999 Y74.481
;TYPE:WALL-OUTER
G1 F2400 X58.7 Y74.654 E27.70233
G1 X58.7 Y74.309 E27.70884
G1 X58.7 Y74.308 E27.70887
G1 X58.7 Y35.2 E29.00961
G1 X126.29 Y35.2 E31.25766
G1 X126.291 Y35.2 E31.25769
G1 X127.036 Y35.2 E31.28247
G1 X126.39 Y35.573 E31.29529
G1 X58.999 Y74.481 E33.88348
G0 F3600 X58.826 Y74.581
G0 X59.15 Y73.876
G0 X59.49 Y73.286
;TYPE:SKIN
G1 F2400 X59.49 Y35.99 E35.12395
G1 X124.088 Y35.99 E37.27248
G1 X59.49 Y73.286 E39.75341
G0 F3600 X59.762 Y72.772
G1 F2400 X59.941 Y72.386 E39.77053
G0 F3600 X59.669 Y71.549
G1 F2400 X60.572 Y72.451 E39.81298
G1 X60.642 Y72.521
G0 F3600 X60.931 Y72.245
G1 F2400 X59.669 Y70.983 E39.87234
G1 X59.599 Y70.913
G0 F3600 X59.669 Y70.417
G1 F2400 X61.289 Y72.037 E39.94854
G1 X61.359 Y72.107
G0 F3600 X61.648 Y71.83
G1 F2400 X59.669 Y69.852 E40.0416
G1 X59.599 Y69.782
G0 F3600 X59.669 Y69.286
G1 F2400 X62.006 Y71.623 E40.15153
G1 X62.076 Y71.693
G0 F3600 X62.365 Y71.416
G1 F2400 X59.669 Y68.72 E40.27834
G1 X59.599 Y68.65
G0 F3600 X59.669 Y68.155
G1 F2400 X62.724 Y71.209 E40.42202
G1 X62.794 Y71.279
G0 F3600 X63.083 Y71.002
G1 F2400 X59.669 Y67.589 E40.58258
G1 X59.599 Y67.519
G0 F3600 X59.669 Y67.023
G1 F2400 X63.441 Y70.795 E40.76
G1 X63.511 Y70.865
G0 F3600 X63.8 Y70.588
G1 F2400 X59.669 Y66.458 E40.95429
G1 X59.599 Y66.388
G0 F3600 X59.669 Y65.892
G1 F2400 X64.158 Y70.381 E41.16543
G1 X64.228 Y70.451
G0 F3600 X64.517 Y70.173
G1 F2400 X59.669 Y65.326 E41.39345
G1 X59.599 Y65.256
G0 F3600 X59.669 Y64.761
G1 F2400 X64.876 Y69.967 E41.63834
G1 X64.946 Y70.037
G0 F3600 X65.234 Y69.76
G1 F2400 X59.669 Y64.195 E41.9001
G1 X59.599 Y64.125
G0 F3600 X59.669 Y63.629
G1 F2400 X65.593 Y69.553 E42.17875
G1 X65.663 Y69.623
G0 F3600 X65.951 Y69.345
G1 F2400 X59.669 Y63.064 E42.47421
G1 X59.599 Y62.994
G0 F3600 X59.669 Y62.498
G1 F2400 X66.31 Y69.138 E42.78656
G1 X66.38 Y69.208
G0 F3600 X66.669 Y68.932
G1 F2400 X59.669 Y61.932 E43.11582
G1 X59.599 Y61.862
G0 F3600 X59.669 Y61.366
G1 F2400 X67.028 Y68.725 E43.46197
G1 X67.098 Y68.795
G0 F3600 X67.386 Y68.517
G1 F2400 X59.669 Y60.801 E43.82493
G1 X59.599 Y60.731
G0 F3600 X59.669 Y60.235
G1 F2400 X67.745 Y68.31 E44.20477
G1 X67.815 Y68.38
G0 F3600 X68.103 Y68.103
G1 F2400 X59.669 Y59.669 E44.60148
G1 X59.599 Y59.599
G0 F3600 X59.669 Y59.104
G1 F2400 X68.462 Y67.896 E45.01505
G1 X68.532 Y67.966
G0 F3600 X68.821 Y67.689
G1 F2400 X59.669 Y58.538 E45.44551
G1 X59.599 Y58.468
G0 F3600 X59.669 Y57.972
G1 F2400 X69.179 Y67.482 E45.89283
G1 X69.249 Y67.552
G0 F3600 X69.538 Y67.275
G1 F2400 X59.669 Y57.407 E46.35702
G1 X59.599 Y57.337
G0 F3600 X59.669 Y56.841
G1 F2400 X69.896 Y67.068 E46.83807
G1 X69.966 Y67.138
G0 F3600 X70.255 Y66.861
G1 F2400 X59.669 Y56.275 E47.336
G1 X59.599 Y56.205
G0 F3600 X59.669 Y55.71
G1 F2400 X70.614 Y66.654 E47.85079
G1 X70.684 Y66.724
G0 F3600 X70.973 Y66.447
G1 F2400 X59.669 Y55.144 E48.38248
G1 X59.599 Y55.074
G0 F3600 X59.669 Y54.578
G1 F2400 X71.331 Y66.24 E48.93102
G1 X71.401 Y66.31
G0 F3600 X71.69 Y66.033
G1 F2400 X59.669 Y54.013 E49.49643
G1 X59.599 Y53.943
G0 F3600 X59.669 Y53.447
G1 F2400 X72.048 Y65.825 E50.07867
G1 X72.118 Y65.895
G0 F3600 X72.407 Y65.618
G1 F2400 X59.669 Y52.881 E50.67781
G1 X59.599 Y52.811
G0 F3600 X59.669 Y52.316
G1 F2400 X72.766 Y65.412 E51.29383
G1 X72.836 Y65.482
G0 F3600 X73.124 Y65.205
G1 F2400 X59.669 Y51.75 E51.92671
G1 X59.599 Y51.68
G0 F3600 X59.669 Y51.184
G1 F2400 X73.483 Y64.997 E52.57645
G1 X73.553 Y65.067
G0 F3600 X73.841 Y64.79
G1 F2400 X59.669 Y50.618 E53.24306
G1 X59.599 Y50.548
G0 F3600 X59.669 Y50.053
G1 F2400 X74.2 Y64.583 E53.92653
G1 X74.27 Y64.653
G0 F3600 X74.559 Y64.377
G1 F2400 X59.669 Y49.487 E54.62691
G1 X59.599 Y49.417
G0 F3600 X59.669 Y48.921
G1 F2400 X74.917 Y64.169 E55.34413
G1 X74.987 Y64.239
G0 F3600 X75.276 Y63.962
G1 F2400 X59.669 Y48.356 E56.07821
G1 X59.599 Y48.286
G0 F3600 X59.669 Y47.79
G1 F2400 X75.634 Y63.755 E56.82916
G1 X75.704 Y63.825
G0 F3600 X75.993 Y63.548
G1 F2400 X59.669 Y47.224 E57.59699
G1 X59.599 Y47.154
G0 F3600 X59.669 Y46.659
G1 F2400 X76.351 Y63.341 E58.38166
G1 X76.421 Y63.411
G0 F3600 X76.711 Y63.134
G1 F2400 X59.669 Y46.093 E59.18324
G1 X59.599 Y46.023
G0 F3600 X59.669 Y45.527
G1 F2400 X77.069 Y62.927 E60.00168
G1 X77.139 Y62.997
G0 F3600 X77.428 Y62.72
G1 F2400 X59.669 Y44.962 E60.83699
G1 X59.599 Y44.892
G0 F3600 X59.669 Y44.396
G1 F2400 X77.786 Y62.513 E61.68915
G1 X77.856 Y62.583
G0 F3600 X78.145 Y62.306
G1 F2400 X59.669 Y43.83 E62.55821
G1 X59.599 Y43.76
G0 F3600 X59.669 Y43.265
G1 F2400 X78.504 Y62.099 E63.44413
G1 X78.574 Y62.169
G0 F3600 X78.862 Y61.892
G1 F2400 X59.669 Y42.699 E64.34691
G1 X59.599 Y42.629
G0 F3600 X59.669 Y42.133
G1 F2400 X79.221 Y61.685 E65.26657
G1 X79.291 Y61.755
G0 F3600 X79.579 Y61.477
G1 F2400 X59.669 Y41.567 E66.20308
G1 X59.599 Y41.497
G0 F3600 X59.669 Y41.002
G1 F2400 X79.938 Y61.27 E67.15644
G1 X80.008 Y61.34
G0 F3600 X80.296 Y61.063
G1 F2400 X59.669 Y40.436 E68.12668
G1 X59.599 Y40.366
G0 F3600 X59.669 Y39.87
G1 F2400 X80.656 Y60.857 E69.11384
G1 X80.726 Y60.927
G0 F3600 X81.014 Y60.649
G1 F2400 X59.669 Y39.305 E70.11782
G1 X59.599 Y39.235
G0 F3600 X59.669 Y38.739
G1 F2400 X81.373 Y60.442 E71.13869
G1 X81.443 Y60.512
G0 F3600 X81.731 Y60.235
G1 F2400 X59.669 Y38.173 E72.17641
G1 X59.599 Y38.103
G0 F3600 X59.669 Y37.608
G1 F2400 X82.09 Y60.028 E73.23101
G1 X82.16 Y60.098
G0 F3600 X82.449 Y59.821
G1 F2400 X59.669 Y37.042 E74.30248
G1 X59.599 Y36.972
G0 F3600 X59.669 Y36.476
G1 F2400 X82.807 Y59.614 E75.39082
G1 X82.877 Y59.684
G0 F3600 X83.166 Y59.407
G1 F2400 X59.928 Y36.169 E76.48387
G1 X59.858 Y36.099
G0 F3600 X60.494 Y36.169
G1 F2400 X83.524 Y59.2 E77.56715
G1 X83.594 Y59.27
G0 F3600 X83.883 Y58.993
G1 F2400 X61.06 Y36.169 E78.6407
G1 X60.99 Y36.099
G0 F3600 X61.625 Y36.169
G1 F2400 X84.241 Y58.786 E79.70451
G1 X84.311 Y58.856
G0 F3600 X84.601 Y58.579
G1 F2400 X62.191 Y36.169 E80.75861
G1 X62.121 Y36.099
G0 F3600 X62.757 Y36.169
G1 F2400 X84.959 Y58.372 E81.80295
G1 X85.029 Y58.442
G0 F3600 X85.318 Y58.165
G1 F2400 X63.322 Y36.169 E82.83757
G1 X63.252 Y36.099
G0 F3600 X63.888 Y36.169
G1 F2400 X85.676 Y57.958 E83.86244
G1 X85.746 Y58.028
G0 F3600 X86.035 Y57.75
G1 F2400 X64.454 Y36.169 E84.87754
G1 X64.384 Y36.099
G0 F3600 X65.019 Y36.169
G1 F2400 X86.394 Y57.544 E85.88295
G1 X86.464 Y57.614
G0 F3600 X86.752 Y57.337
G1 F2400 X65.585 Y36.169 E86.87861
G1 X65.515 Y36.099
G0 F3600 X66.151 Y36.169
G1 F2400 X87.111 Y57.129 E87.8645
G1 X87.181 Y57.199
G0 F3600 X87.469 Y56.922
G1 F2400 X66.716 Y36.169 E88.84066
G1 X66.646 Y36.099
G0 F3600 X67.282 Y36.169
G1 F2400 X87.828 Y56.715 E89.80708
G1 X87.898 Y56.785
G0 F3600 X88.186 Y56.508
G1 F2400 X67.848 Y36.169 E90.76374
G1 X67.778 Y36.099
G0 F3600 X68.413 Y36.169
G1 F2400 X88.546 Y56.301 E91.71071
G1 X88.616 Y56.371
G0 F3600 X88.904 Y56.094
G1 F2400 X68.979 Y36.169 E92.64792
G1 X68.909 Y36.099
G0 F3600 X69.545 Y36.169
G1 F2400 X89.263 Y55.887 E93.5754
G1 X89.333 Y55.957
G0 F3600 X89.621 Y55.68
G1 F2400 X70.111 Y36.169 E94.49311
G1 X70.041 Y36.099
G0 F3600 X70.676 Y36.169
G1 F2400 X89.98 Y55.473 E95.40111
G1 X90.05 Y55.543
G0 F3600 X90.339 Y55.266
G1 F2400 X71.242 Y36.169 E96.29938
G1 X71.172 Y36.099
G0 F3600 X71.808 Y36.169
G1 F2400 X90.697 Y55.059 E97.18788
G1 X90.767 Y55.129
G0 F3600 X91.056 Y54.852
G1 F2400 X72.373 Y36.169 E98.06667
G1 X72.303 Y36.099
G0 F3600 X72.939 Y36.169
G1 F2400 X91.414 Y54.645 E98.9357
G1 X91.484 Y54.715
G0 F3600 X91.773 Y54.438
G1 F2400 X73.505 Y36.169 E99.795
G1 X73.435 Y36.099
G0 F3600 X74.07 Y36.169
G1 F2400 X92.132 Y54.231 E100.64458
G1 X92.202 Y54.301
G0 F3600 X92.49 Y54.024
G1 F2400 X74.636 Y36.169 E101.4844
G1 X74.566 Y36.099
G0 F3600 X75.202 Y36.169
G1 F2400 X92.849 Y53.817 E102.31448
G1 X92.919 Y53.887
G0 F3600 X93.207 Y53.61
G1 F2400 X75.767 Y36.169 E103.13483
G1 X75.697 Y36.099
G0 F3600 X76.333 Y36.169
G1 F2400 X93.566 Y53.402 E103.94542
G1 X93.636 Y53.472
G0 F3600 X93.924 Y53.195
G1 F2400 X76.899 Y36.169 E104.74625
G1 X76.829 Y36.099
G0 F3600 X77.464 Y36.169
G1 F2400 X94.284 Y52.989 E105.53741
G1 X94.354 Y53.059
G0 F3600 X94.642 Y52.781
G1 F2400 X78.03 Y36.169 E106.31878
G1 X77.96 Y36.099
G0 F3600 X78.596 Y36.169
G1 F2400 X95.001 Y52.574 E107.09043
G1 X95.071 Y52.644
G0 F3600 X95.359 Y52.367
G1 F2400 X79.162 Y36.169 E107.85231
G1 X79.092 Y36.099
G0 F3600 X79.727 Y36.169
G1 F2400 X95.718 Y52.16 E108.60447
G1 X95.788 Y52.23
G0 F3600 X96.077 Y51.953
G1 F2400 X80.293 Y36.169 E109.3469
G1 X80.223 Y36.099
G0 F3600 X80.859 Y36.169
G1 F2400 X96.435 Y51.746 E110.07958
G1 X96.505 Y51.816
G0 F3600 X96.794 Y51.539
G1 F2400 X81.424 Y36.169 E110.80253
G1 X81.354 Y36.099
G0 F3600 X81.99 Y36.169
G1 F2400 X97.152 Y51.332 E111.51573
G1 X97.222 Y51.402
G0 F3600 X97.511 Y51.125
G1 F2400 X82.556 Y36.169 E112.21919
G1 X82.486 Y36.099
G0 F3600 X83.121 Y36.169
G1 F2400 X97.869 Y50.918 E112.91292
G1 X97.939 Y50.988
G0 F3600 X98.229 Y50.711
G1 F2400 X83.687 Y36.169 E113.59693
G1 X83.617 Y36.099
G0 F3600 X84.253 Y36.169
G1 F2400 X98.587 Y50.504 E114.27118
G1 X98.657 Y50.574
G0 F3600 X98.946 Y50.297
G1 F2400 X84.818 Y36.169 E114.93572
G1 X84.748 Y36.099
G0 F3600 X85.384 Y36.169
G1 F2400 X99.304 Y50.09 E115.59049
G1 X99.374 Y50.16
G0 F3600 X99.663 Y49.882
G1 F2400 X85.95 Y36.169 E116.23551
G1 X85.88 Y36.099
G0 F3600 X86.515 Y36.169
G1 F2400 X100.022 Y49.676 E116.87084
G1 X100.092 Y49.746
G0 F3600 X100.38 Y49.469
G1 F2400 X87.081 Y36.169 E117.49641
G1 X87.011 Y36.099
G0 F3600 X87.647 Y36.169
G1 F2400 X100.739 Y49.262 E118.11224
G1 X100.809 Y49.332
G0 F3600 X101.097 Y49.054
G1 F2400 X88.212 Y36.169 E118.71831
G1 X88.142 Y36.099
G0 F3600 X88.778 Y36.169
G1 F2400 X101.456 Y48.847 E119.31464
G1 X101.526 Y48.917
G0 F3600 X101.814 Y48.64
G1 F2400 X89.344 Y36.169 E119.90122
G1 X89.274 Y36.099
G0 F3600 X89.91 Y36.169
G1 F2400 X102.174 Y48.433 E120.47808
G1 X102.244 Y48.503
G0 F3600 X102.532 Y48.226
G1 F2400 X90.475 Y36.169 E121.0452
G1 X90.405 Y36.099
G0 F3600 X91.041 Y36.169
G1 F2400 X102.891 Y48.019 E121.60259
G1 X102.961 Y48.089
G0 F3600 X103.249 Y47.812
G1 F2400 X91.607 Y36.169 E122.15022
G1 X91.537 Y36.099
G0 F3600 X92.172 Y36.169
G1 F2400 X103.608 Y47.605 E122.68813
G1 X103.678 Y47.675
G0 F3600 X103.967 Y47.398
G1 F2400 X92.738 Y36.169 E123.21631
G1 X92.668 Y36.099
G0 F3600 X93.304 Y36.169
G1 F2400 X104.325 Y47.191 E123.73473
G1 X104.395 Y47.261
G0 F3600 X104.684 Y46.984
G1 F2400 X93.869 Y36.169 E124.24343
G1 X93.799 Y36.099
G0 F3600 X94.435 Y36.169
G1 F2400 X105.042 Y46.777 E124.74238
G1 X105.112 Y46.847
G0 F3600 X105.401 Y46.57
G1 F2400 X95.001 Y36.169 E125.23158
G1 X94.931 Y36.099
G0 F3600 X95.566 Y36.169
G1 F2400 X105.759 Y46.362 E125.71103
G1 X105.829 Y46.432
G0 F3600 X106.119 Y46.156
G1 F2400 X96.132 Y36.169 E126.18079
G1 X96.062 Y36.099
G0 F3600 X96.698 Y36.169
G1 F2400 X106.477 Y45.949 E126.64079
G1 X106.547 Y46.019
G0 F3600 X106.836 Y45.742
G1 F2400 X97.263 Y36.169 E127.09107
G1 X97.193 Y36.099
G0 F3600 X97.829 Y36.169
G1 F2400 X107.194 Y45.534 E127.53157
G1 X107.264 Y45.604
G0 F3600 X107.553 Y45.327
G1 F2400 X98.395 Y36.169 E127.96234
G1 X98.325 Y36.099
G0 F3600 X98.961 Y36.169
G1 F2400 X107.912 Y45.121 E128.38339
G1 X107.982 Y45.191
G0 F3600 X108.27 Y44.914
G1 F2400 X99.526 Y36.169 E128.7947
G1 X99.456 Y36.099
G0 F3600 X100.092 Y36.169
G1 F2400 X108.629 Y44.706 E129.19626
G1 X108.699 Y44.776
G0 F3600 X108.987 Y44.499
G1 F2400 X100.658 Y36.169 E129.58805
G1 X100.588 Y36.099
G0 F3600 X101.223 Y36.169
G1 F2400 X109.346 Y44.292 E129.97013
G1 X109.416 Y44.362
G0 F3600 X109.704 Y44.085
G1 F2400 X101.789 Y36.169 E130.34245
G1 X101.719 Y36.099
G0 F3600 X102.355 Y36.169
G1 F2400 X110.063 Y43.878 E130.70504
G1 X110.133 Y43.948
G0 F3600 X110.422 Y43.671
G1 F2400 X102.92 Y36.169 E131.05791
G1 X102.85 Y36.099
G0 F3600 X103.486 Y36.169
G1 F2400 X110.781 Y43.464 E131.40104
G1 X110.851 Y43.534
G0 F3600 X111.139 Y43.257
G1 F2400 X104.052 Y36.169 E131.73442
G1 X103.982 Y36.099
G0 F3600 X104.617 Y36.169
G1 F2400 X111.498 Y43.05 E132.05808
G1 X111.568 Y43.12
G0 F3600 X111.857 Y42.843
G1 F2400 X105.183 Y36.169 E132.372
G1 X105.113 Y36.099
G0 F3600 X105.749 Y36.169
