;FLAVOR:Marlin
;TIME:1115
;Filament used: 0.764486m
;Layer height: 0.2
;Generated with Cura_SteamEngine 3.2.0
M104 S200
M109 S200
M82 ;absolute extrusion mode
; -- START GCODE --
G21                     ;set units to millimetres
G90                     ;set to absolute positioning
M106 S0                 ;set fan speed to zero (turned off)
G28 X0 Y0               ;move to the X/Y origin (Home)
G28 Z0                  ;move to the Z origin (Home)
G1 Z15.0 F1200          ;move Z to position 15.0 mm
G92 E0                  ;zero the extruded length
G1 E20 F200             ;extrude 20mm of feed stock
G92 E0                  ;zero the extruded length again
G1 F7200                ;set feedrate to 120 mm/s
; -- end of START GCODE --
;LAYER_COUNT:101
;LAYER:0
M107
G0 F3600 X132.097 Y90.546 Z0.2
;TYPE:SKIRT
G1 F1200 X132.58 Y89.922 E0.02625
G1 X133.123 Y89.349 E0.0525
G1 X133.722 Y88.834 E0.07878
G1 X134.37 Y88.383 E0.10503
G1 X135.061 Y87.999 E0.13133
G1 X135.786 Y87.687 E0.15758
G1 X136.539 Y87.45 E0.18383
G1 X137.313 Y87.291 E0.21012
G1 X138.098 Y87.21 E0.23636
G1 X138.5 Y87.2 E0.24974
G1 X158.5 Y87.2 E0.91494
G1 X159.289 Y87.24 E0.94122
G1 X160.069 Y87.359 E0.96746
G1 X160.834 Y87.557 E0.99374
G1 X161.574 Y87.831 E1.01999
G1 X162.283 Y88.179 E1.04626
G1 X162.954 Y88.597 E1.07255
G1 X163.578 Y89.08 E1.0988
G1 X164.151 Y89.623 E1.12505
G1 X164.666 Y90.222 E1.15133
G1 X165.117 Y90.87 E1.17758
G1 X165.501 Y91.561 E1.20388
G1 X165.813 Y92.286 E1.23013
G1 X166.05 Y93.039 E1.25639
G1 X166.209 Y93.813 E1.28267
G1 X166.29 Y94.598 E1.30891
G1 X166.3 Y95 E1.32229
G1 X166.3 Y115 E1.98749
G1 X166.26 Y115.789 E2.01377
G1 X166.141 Y116.569 E2.04001
G1 X165.943 Y117.334 E2.06629
G1 X165.669 Y118.074 E2.09254
G1 X165.321 Y118.783 E2.11881
G1 X164.903 Y119.454 E2.1451
G1 X164.42 Y120.078 E2.17135
G1 X163.877 Y120.651 E2.1976
G1 X163.278 Y121.166 E2.22388
G1 X162.63 Y121.617 E2.25014
G1 X161.939 Y122.001 E2.27643
G1 X161.214 Y122.313 E2.30268
G1 X160.461 Y122.55 E2.32894
G1 X159.687 Y122.709 E2.35522
G1 X158.902 Y122.79 E2.38147
G1 X158.5 Y122.8 E2.39484
G1 X138.5 Y122.8 E3.06004
G1 X137.711 Y122.76 E3.08632
G1 X136.931 Y122.641 E3.11256
G1 X136.166 Y122.443 E3.13884
G1 X135.426 Y122.169 E3.16509
G1 X134.717 Y121.821 E3.19136
G1 X134.046 Y121.403 E3.21765
G1 X133.422 Y120.92 E3.2439
G1 X132.849 Y120.377 E3.27015
G1 X132.334 Y119.778 E3.29643
G1 X131.883 Y119.13 E3.32269
G1 X131.499 Y118.439 E3.34898
G1 X131.187 Y117.714 E3.37523
G1 X130.95 Y116.961 E3.40149
G1 X130.791 Y116.187 E3.42777
G1 X130.71 Y115.402 E3.45402
G1 X130.7 Y115 E3.46739
G1 X130.7 Y95 E4.13259
G1 X130.74 Y94.211 E4.15887
G1 X130.859 Y93.431 E4.18511
G1 X131.057 Y92.666 E4.21139
G1 X131.331 Y91.926 E4.23764
G1 X131.679 Y91.217 E4.26391
G1 X132.097 Y90.546 E4.2902
G0 F3600 X132.494 Y90.677
G1 F1200 X132.975 Y90.077 E4.31578
G1 X133.516 Y89.53 E4.34137
G1 X134.111 Y89.042 E4.36696
G1 X134.753 Y88.619 E4.39253
G1 X135.436 Y88.264 E4.41814
G1 X136.151 Y87.983 E4.44369
G1 X136.893 Y87.777 E4.4693
G1 X137.651 Y87.649 E4.49487
G1 X138.5 Y87.6 E4.52315
G1 X158.5 Y87.6 E5.18836
G1 X159.268 Y87.64 E5.21393
G1 X160.028 Y87.759 E5.23952
G1 X160.771 Y87.957 E5.26509
G1 X161.49 Y88.231 E5.29069
G1 X162.176 Y88.578 E5.31626
G1 X162.823 Y88.994 E5.34184
G1 X163.423 Y89.475 E5.36742
G1 X163.97 Y90.016 E5.393
G1 X164.458 Y90.611 E5.4186
G1 X164.881 Y91.253 E5.44417
G1 X165.236 Y91.936 E5.46977
G1 X165.517 Y92.651 E5.49532
G1 X165.723 Y93.393 E5.52094
G1 X165.851 Y94.151 E5.5465
G1 X165.9 Y95 E5.57479
G1 X165.9 Y115 E6.23999
G1 X165.86 Y115.768 E6.26557
G1 X165.741 Y116.528 E6.29116
G1 X165.543 Y117.271 E6.31673
G1 X165.269 Y117.99 E6.34232
G1 X164.922 Y118.676 E6.36789
G1 X164.506 Y119.323 E6.39348
G1 X164.025 Y119.923 E6.41905
G1 X163.484 Y120.47 E6.44464
G1 X162.889 Y120.958 E6.47024
G1 X162.247 Y121.381 E6.49581
G1 X161.564 Y121.736 E6.52141
G1 X160.849 Y122.017 E6.54696
G1 X160.107 Y122.223 E6.57257
G1 X159.349 Y122.351 E6.59814
G1 X158.5 Y122.4 E6.62643
G1 X138.5 Y122.4 E7.29163
G1 X137.732 Y122.36 E7.31721
G1 X136.972 Y122.241 E7.34279
G1 X136.229 Y122.043 E7.36837
G1 X135.51 Y121.769 E7.39396
G1 X134.824 Y121.422 E7.41953
G1 X134.177 Y121.006 E7.44511
G1 X133.577 Y120.525 E7.47069
G1 X133.03 Y119.984 E7.49628
G1 X132.542 Y119.389 E7.52187
G1 X132.119 Y118.747 E7.54744
G1 X131.764 Y118.064 E7.57305
G1 X131.483 Y117.349 E7.5986
G1 X131.277 Y116.607 E7.62421
G1 X131.149 Y115.849 E7.64978
G1 X131.1 Y115 E7.67806
G1 X131.1 Y95 E8.34327
G1 X131.14 Y94.232 E8.36884
G1 X131.259 Y93.472 E8.39443
G1 X131.457 Y92.729 E8.42
G1 X131.731 Y92.01 E8.4456
G1 X132.078 Y91.324 E8.47116
G1 X132.494 Y90.677 E8.49675
G0 F3600 X132.892 Y90.811
G1 F1200 X133.371 Y90.237 E8.52161
G1 X133.908 Y89.716 E8.5465
G1 X134.498 Y89.257 E8.57136
G1 X135.134 Y88.862 E8.59626
G1 X135.808 Y88.538 E8.62114
G1 X136.513 Y88.288 E8.64602
G1 X137.241 Y88.114 E8.67091
G1 X137.983 Y88.019 E8.69579
G1 X138.5 Y88 E8.713
G1 X158.5 Y88 E9.3782
G1 X159.247 Y88.04 E9.40308
G1 X159.985 Y88.159 E9.42794
G1 X160.707 Y88.357 E9.45285
G1 X161.403 Y88.63 E9.47771
G1 X162.066 Y88.977 E9.5026
G1 X162.689 Y89.392 E9.5275
G1 X163.263 Y89.871 E9.55236
G1 X163.784 Y90.408 E9.57725
G1 X164.243 Y90.998 E9.60211
G1 X164.638 Y91.634 E9.62701
G1 X164.962 Y92.308 E9.65189
G1 X165.212 Y93.013 E9.67676
G1 X165.386 Y93.741 E9.70166
G1 X165.481 Y94.483 E9.72654
G1 X165.5 Y95 E9.74375
G1 X165.5 Y115 E10.40895
G1 X165.46 Y115.747 E10.43383
G1 X165.341 Y116.485 E10.45869
G1 X165.143 Y117.207 E10.48359
G1 X164.87 Y117.903 E10.50846
G1 X164.523 Y118.566 E10.53335
G1 X164.108 Y119.189 E10.55825
G1 X163.629 Y119.763 E10.58311
G1 X163.092 Y120.284 E10.608
G1 X162.502 Y120.743 E10.63286
G1 X161.866 Y121.138 E10.65776
G1 X161.192 Y121.462 E10.68263
G1 X160.487 Y121.712 E10.70751
G1 X159.759 Y121.886 E10.73241
G1 X159.017 Y121.981 E10.75729
G1 X158.5 Y122 E10.7745
G1 X138.5 Y122 E11.4397
G1 X137.753 Y121.96 E11.46458
G1 X137.015 Y121.841 E11.48944
G1 X136.293 Y121.643 E11.51434
G1 X135.597 Y121.37 E11.53921
G1 X134.934 Y121.023 E11.5641
G1 X134.311 Y120.608 E11.589
G1 X133.737 Y120.129 E11.61386
G1 X133.216 Y119.592 E11.63875
G1 X132.757 Y119.002 E11.66361
G1 X132.362 Y118.366 E11.68851
G1 X132.038 Y117.692 E11.71338
G1 X131.788 Y116.987 E11.73826
G1 X131.614 Y116.259 E11.76316
G1 X131.519 Y115.517 E11.78804
G1 X131.5 Y115 E11.80525
G1 X131.5 Y95 E12.47045
G1 X131.54 Y94.253 E12.49533
G1 X131.659 Y93.515 E12.52019
G1 X131.857 Y92.793 E12.54509
G1 X132.13 Y92.097 E12.56996
G1 X132.477 Y91.434 E12.59485
G1 X132.892 Y90.811 E12.61975
G0 F3600 X133.289 Y90.95
G1 F1200 X133.765 Y90.402 E12.64389
G1 X134.299 Y89.909 E12.66806
G1 X134.884 Y89.479 E12.69221
G1 X135.513 Y89.115 E12.71638
G1 X136.178 Y88.822 E12.74055
G1 X136.871 Y88.604 E12.76471
G1 X137.583 Y88.464 E12.78885
G1 X138.5 Y88.4 E12.81942
G1 X158.5 Y88.4 E13.48462
G1 X159.225 Y88.44 E13.50877
G1 X159.942 Y88.559 E13.53295
G1 X160.641 Y88.757 E13.55711
G1 X161.314 Y89.03 E13.58127
G1 X161.953 Y89.375 E13.60542
G1 X162.55 Y89.789 E13.62958
G1 X163.098 Y90.265 E13.65373
G1 X163.591 Y90.799 E13.6779
G1 X164.021 Y91.384 E13.70205
G1 X164.385 Y92.013 E13.72622
G1 X164.678 Y92.678 E13.75039
G1 X164.896 Y93.371 E13.77455
G1 X165.036 Y94.083 E13.79869
G1 X165.1 Y95 E13.82926
G1 X165.1 Y115 E14.49446
G1 X165.06 Y115.725 E14.51861
G1 X164.941 Y116.442 E14.54279
G1 X164.743 Y117.141 E14.56695
G1 X164.47 Y117.814 E14.5911
G1 X164.125 Y118.453 E14.61526
G1 X163.711 Y119.05 E14.63942
G1 X163.235 Y119.598 E14.66356
G1 X162.701 Y120.091 E14.68774
G1 X162.116 Y120.521 E14.71188
G1 X161.487 Y120.885 E14.73606
G1 X160.822 Y121.178 E14.76023
G1 X160.129 Y121.396 E14.78439
G1 X159.417 Y121.536 E14.80852
G1 X158.5 Y121.6 E14.8391
G1 X138.5 Y121.6 E15.5043
G1 X137.775 Y121.56 E15.52845
G1 X137.058 Y121.441 E15.55262
G1 X136.359 Y121.243 E15.57679
G1 X135.686 Y120.97 E15.60094
G1 X135.047 Y120.625 E15.6251
G1 X134.45 Y120.211 E15.64926
G1 X133.902 Y119.735 E15.6734
G1 X133.409 Y119.201 E15.69757
G1 X132.979 Y118.616 E15.72172
G1 X132.615 Y117.987 E15.74589
G1 X132.322 Y117.322 E15.77006
G1 X132.104 Y116.629 E15.79423
G1 X131.964 Y115.917 E15.81836
G1 X131.9 Y115 E15.84893
G1 X131.9 Y95 E16.51414
G1 X131.94 Y94.275 E16.53829
G1 X132.059 Y93.558 E16.56246
G1 X132.257 Y92.859 E16.58662
G1 X132.53 Y92.186 E16.61078
G1 X132.875 Y91.547 E16.63493
G1 X133.289 Y90.95 E16.6591
G0 F3600 X133.274 Y91.665
G1 F1200 X133.685 Y91.094 E16.6825
G1 X134.159 Y90.573 E16.70592
G1 X134.689 Y90.109 E16.72935
G1 X135.268 Y89.709 E16.75276
G1 X135.889 Y89.377 E16.77618
G1 X136.543 Y89.117 E16.79959
G1 X137.223 Y88.933 E16.82302
G1 X137.919 Y88.827 E16.84643
G1 X138.5 Y88.8 E16.86578
G1 X158.5 Y88.8 E17.53098
G1 X159.203 Y88.84 E17.5544
G1 X159.897 Y88.959 E17.57782
G1 X160.572 Y89.157 E17.60122
G1 X161.221 Y89.429 E17.62462
G1 X161.835 Y89.774 E17.64805
G1 X162.406 Y90.185 E17.67145
G1 X162.927 Y90.659 E17.69487
G1 X163.391 Y91.189 E17.7183
G1 X163.791 Y91.768 E17.74171
G1 X164.123 Y92.389 E17.76513
G1 X164.383 Y93.043 E17.78854
G1 X164.567 Y93.723 E17.81197
G1 X164.673 Y94.419 E17.83538
G1 X164.7 Y95 E17.85473
G1 X164.7 Y115 E18.51993
G1 X164.66 Y115.703 E18.54335
G1 X164.541 Y116.397 E18.56677
G1 X164.343 Y117.072 E18.59017
G1 X164.071 Y117.721 E18.61357
G1 X163.726 Y118.335 E18.637
G1 X163.315 Y118.906 E18.6604
G1 X162.841 Y119.427 E18.68382
G1 X162.311 Y119.891 E18.70725
G1 X161.732 Y120.291 E18.73066
G1 X161.111 Y120.623 E18.75408
G1 X160.457 Y120.883 E18.77749
G1 X159.777 Y121.067 E18.80092
G1 X159.081 Y121.173 E18.82433
G1 X158.5 Y121.2 E18.84368
G1 X138.5 Y121.2 E19.50888
G1 X137.797 Y121.16 E19.5323
G1 X137.103 Y121.041 E19.55572
G1 X136.428 Y120.843 E19.57912
G1 X135.779 Y120.571 E19.60252
G1 X135.165 Y120.226 E19.62595
G1 X134.594 Y119.815 E19.64935
G1 X134.073 Y119.341 E19.67277
G1 X133.609 Y118.811 E19.6962
G1 X133.209 Y118.232 E19.71961
G1 X132.877 Y117.611 E19.74303
G1 X132.617 Y116.957 E19.76644
G1 X132.433 Y116.277 E19.78987
G1 X132.327 Y115.581 E19.81328
G1 X132.3 Y115 E19.83263
G1 X132.3 Y95 E20.49783
G1 X132.34 Y94.297 E20.52125
G1 X132.459 Y93.603 E20.54467
G1 X132.657 Y92.928 E20.56807
G1 X132.929 Y92.279 E20.59147
G1 X133.274 Y91.665 E20.6149
G0 F3600 X133.672 Y91.786
G1 F1200 X134.082 Y91.242 E20.63755
G1 X134.553 Y90.751 E20.66018
G1 X135.078 Y90.317 E20.68284
G1 X135.65 Y89.948 E20.70548
G1 X136.262 Y89.649 E20.72813
G1 X136.904 Y89.424 E20.75076
G1 X137.569 Y89.275 E20.77343
G1 X138.5 Y89.2 E20.80449
G1 X158.5 Y89.2 E21.46969
G1 X159.18 Y89.24 E21.49235
G1 X159.85 Y89.359 E21.51498
G1 X160.502 Y89.556 E21.53764
G1 X161.126 Y89.828 E21.56028
G1 X161.714 Y90.172 E21.58294
G1 X162.258 Y90.582 E21.60559
G1 X162.749 Y91.053 E21.62822
G1 X163.183 Y91.578 E21.65088
G1 X163.552 Y92.15 E21.67352
G1 X163.851 Y92.762 E21.69617
G1 X164.076 Y93.404 E21.7188
G1 X164.225 Y94.069 E21.74147
G1 X164.3 Y95 E21.77253
G1 X164.3 Y115 E22.43773
G1 X164.26 Y115.68 E22.46039
G1 X164.141 Y116.35 E22.48302
G1 X163.944 Y117.002 E22.50568
G1 X163.672 Y117.626 E22.52832
G1 X163.328 Y118.214 E22.55097
G1 X162.918 Y118.758 E22.57363
G1 X162.447 Y119.249 E22.59626
G1 X161.922 Y119.683 E22.61892
G1 X161.35 Y120.052 E22.64156
G1 X160.738 Y120.351 E22.66421
G1 X160.096 Y120.576 E22.68684
G1 X159.431 Y120.725 E22.7095
G1 X158.5 Y120.8 E22.74057
G1 X138.5 Y120.8 E23.40577
G1 X137.82 Y120.76 E23.42843
G1 X137.15 Y120.641 E23.45106
G1 X136.498 Y120.444 E23.47372
G1 X135.874 Y120.172 E23.49636
G1 X135.286 Y119.828 E23.51901
G1 X134.742 Y119.418 E23.54167
G1 X134.251 Y118.947 E23.5643
G1 X133.817 Y118.422 E23.58696
G1 X133.448 Y117.85 E23.6096
G1 X133.149 Y117.238 E23.63225
G1 X132.924 Y116.596 E23.65488
G1 X132.775 Y115.931 E23.67754
G1 X132.7 Y115 E23.70861
G1 X132.7 Y95 E24.37381
G1 X132.74 Y94.32 E24.39647
G1 X132.859 Y93.65 E24.4191
G1 X133.056 Y92.998 E24.44175
G1 X133.328 Y92.374 E24.46439
G1 X133.672 Y91.786 E24.48705
G0 F3600 X134.07 Y91.912
G1 F1200 X134.478 Y91.397 E24.50891
G1 X134.945 Y90.935 E24.53075
G1 X135.465 Y90.534 E24.55259
G1 X136.029 Y90.198 E24.57443
G1 X136.631 Y89.934 E24.59629
G1 X137.26 Y89.744 E24.61815
G1 X137.907 Y89.633 E24.63998
G1 X138.5 Y89.6 E24.65973
G1 X158.5 Y89.6 E25.32494
G1 X159.156 Y89.64 E25.3468
G1 X159.802 Y89.759 E25.36864
G1 X160.429 Y89.956 E25.3905
G1 X161.027 Y90.228 E25.41235
G1 X161.588 Y90.57 E25.43421
G1 X162.103 Y90.978 E25.45606
G1 X162.565 Y91.445 E25.47791
G1 X162.966 Y91.965 E25.49975
G1 X163.302 Y92.529 E25.52158
G1 X163.566 Y93.131 E25.54345
G1 X163.756 Y93.76 E25.5653
G1 X163.867 Y94.407 E25.58714
G1 X163.9 Y95 E25.60689
G1 X163.9 Y115 E26.27209
G1 X163.86 Y115.656 E26.29395
G1 X163.741 Y116.302 E26.3158
G1 X163.544 Y116.929 E26.33766
G1 X163.272 Y117.527 E26.35951
G1 X162.93 Y118.088 E26.38136
G1 X162.522 Y118.603 E26.40321
G1 X162.055 Y119.065 E26.42506
G1 X161.535 Y119.466 E26.4469
G1 X160.971 Y119.802 E26.46874
G1 X160.369 Y120.066 E26.4906
G1 X159.74 Y120.256 E26.51246
G1 X159.093 Y120.367 E26.53429
G1 X158.5 Y120.4 E26.55404
G1 X138.5 Y120.4 E27.21925
G1 X137.844 Y120.36 E27.24111
G1 X137.198 Y120.241 E27.26295
G1 X136.571 Y120.044 E27.28481
G1 X135.973 Y119.772 E27.30666
G1 X135.412 Y119.43 E27.32852
G1 X134.897 Y119.022 E27.35037
G1 X134.435 Y118.555 E27.37222
G1 X134.034 Y118.035 E27.39406
G1 X133.698 Y117.471 E27.41589
G1 X133.434 Y116.869 E27.43776
G1 X133.244 Y116.24 E27.45961
G1 X133.133 Y115.593 E27.48144
G1 X133.1 Y115 E27.5012
G1 X133.1 Y95 E28.1664
G1 X133.14 Y94.344 E28.18826
G1 X133.259 Y93.698 E28.21011
G1 X133.456 Y93.071 E28.23197
G1 X133.728 Y92.473 E28.25382
G1 X134.07 Y91.912 E28.27567
G0 F3600 X134.467 Y92.044
G1 F1200 X134.873 Y91.559 E28.29671
G1 X135.336 Y91.129 E28.31772
G1 X135.85 Y90.76 E28.33877
G1 X136.406 Y90.46 E28.35978
G1 X136.995 Y90.232 E28.38079
G1 X137.609 Y90.08 E28.40183
G1 X138.5 Y90 E28.43158
G1 X158.5 Y90 E29.09678
G1 X159.131 Y90.04 E29.11781
G1 X159.752 Y90.159 E29.13884
G1 X160.352 Y90.356 E29.15985
G1 X160.924 Y90.627 E29.1809
G1 X161.456 Y90.967 E29.2019
G1 X161.941 Y91.373 E29.22294
G1 X162.371 Y91.836 E29.24395
G1 X162.74 Y92.35 E29.265
G1 X163.04 Y92.906 E29.28601
G1 X163.268 Y93.495 E29.30702
G1 X163.42 Y94.109 E29.32805
G1 X163.5 Y95 E29.35781
G1 X163.5 Y115 E30.02301
G1 X163.46 Y115.631 E30.04404
G1 X163.341 Y116.252 E30.06507
G1 X163.144 Y116.852 E30.08608
G1 X162.873 Y117.424 E30.10713
G1 X162.533 Y117.956 E30.12813
G1 X162.127 Y118.441 E30.14916
G1 X161.664 Y118.871 E30.17018
G1 X161.15 Y119.24 E30.19123
G1 X160.594 Y119.54 E30.21224
G1 X160.005 Y119.768 E30.23324
G1 X159.391 Y119.92 E30.25428
G1 X158.5 Y120 E30.28404
G1 X138.5 Y120 E30.94924
G1 X137.869 Y119.96 E30.97027
G1 X137.248 Y119.841 E30.9913
G1 X136.648 Y119.644 E31.0123
G1 X136.076 Y119.373 E31.03336
G1 X135.544 Y119.033 E31.05435
G1 X135.059 Y118.627 E31.07539
G1 X134.629 Y118.164 E31.09641
G1 X134.26 Y117.65 E31.11745
G1 X133.96 Y117.094 E31.13847
G1 X133.732 Y116.505 E31.15947
G1 X133.58 Y115.891 E31.18051
G1 X133.5 Y115 E31.21026
G1 X133.5 Y95 E31.87547
G1 X133.54 Y94.369 E31.8965
G1 X133.659 Y93.748 E31.91753
G1 X133.856 Y93.148 E31.93853
G1 X134.127 Y92.576 E31.95958
G1 X134.467 Y92.044 E31.98058
G0 F3600 X134.865 Y92.181
G1 F1200 X135.267 Y91.728 E32.00073
G1 X135.725 Y91.331 E32.02089
G1 X136.232 Y90.998 E32.04106
G1 X136.778 Y90.734 E32.06123
G1 X137.354 Y90.545 E32.0814
G1 X137.95 Y90.433 E32.10157
G1 X138.5 Y90.4 E32.11989
G1 X158.5 Y90.4 E32.78509
G1 X159.105 Y90.44 E32.80526
G1 X159.699 Y90.559 E32.82541
G1 X160.273 Y90.755 E32.84558
G1 X160.816 Y91.026 E32.86577
G1 X161.319 Y91.365 E32.88594
G1 X161.772 Y91.767 E32.90609
G1 X162.169 Y92.225 E32.92625
G1 X162.502 Y92.732 E32.94642
G1 X162.766 Y93.278 E32.96659
G1 X162.955 Y93.854 E32.98675
G1 X163.067 Y94.45 E33.00692
G1 X163.1 Y95 E33.02525
G1 X163.1 Y115 E33.69045
G1 X163.06 Y115.605 E33.71062
G1 X162.941 Y116.199 E33.73077
G1 X162.745 Y116.773 E33.75094
G1 X162.474 Y117.316 E33.77113
G1 X162.135 Y117.819 E33.7913
G1 X161.733 Y118.272 E33.81145
G1 X161.275 Y118.669 E33.83161
G1 X160.768 Y119.002 E33.85178
G1 X160.222 Y119.266 E33.87195
G1 X159.646 Y119.455 E33.89211
G1 X159.05 Y119.567 E33.91228
