;FLAVOR:RepRap
;TIME:1115
;Filament used: 1.12262m
;Layer height: 0.2
;Generated with Cura_SteamEngine 3.2.1
T0
M190 S60
M104 S200
M109 S200
M82 ;absolute extrusion mode
G28 ;Home
G1 Z15.0 F6000 ;Move the platform down 15mm
;Prime the extruder
G92 E0
G1 F200 E3
G92 E0
M83 ;relative extrusion mode
;LAYER_COUNT:57
;LAYER:0
M107
G0 F3600 X81.465 Y89.107 Z0.3
;TYPE:SKIRT
G1 F2400 X81.915 Y88.765 E0.0282
G1 X82.408 Y88.489 E0.02819
G1 X82.936 Y88.285 E0.02824
G1 X83.486 Y88.158 E0.02816
G1 X84.109 Y88.109 E0.03118
G1 X115.891 Y88.11 E1.58561
G1 X116.455 Y88.15 E0.02821
G1 X117.008 Y88.269 E0.02822
G1 X117.538 Y88.465 E0.02819
G1 X118.035 Y88.733 E0.02817
G1 X118.49 Y89.069 E0.02822
G1 X118.893 Y89.466 E0.02822
G1 X119.236 Y89.916 E0.02823
G1 X119.511 Y90.409 E0.02816
G1 X119.715 Y90.937 E0.02824
G1 X119.842 Y91.488 E0.02821
G1 X119.891 Y92.11 E0.03113
G1 X119.891 Y107.891 E0.78732
G1 X119.851 Y108.455 E0.02821
G1 X119.732 Y109.008 E0.02822
G1 X119.536 Y109.538 E0.02819
G1 X119.268 Y110.035 E0.02817
G1 X118.932 Y110.49 E0.02822
G1 X118.535 Y110.893 E0.02822
G1 X118.085 Y111.235 E0.0282
G1 X117.592 Y111.511 E0.02819
G1 X117.064 Y111.715 E0.02824
G1 X116.514 Y111.842 E0.02816
G1 X115.891 Y111.891 E0.03118
G1 X84.109 Y111.891 E1.58561
G1 X83.545 Y111.851 E0.02821
G1 X82.992 Y111.732 E0.02822
G1 X82.462 Y111.536 E0.02819
G1 X81.965 Y111.268 E0.02817
G1 X81.51 Y110.932 E0.02822
G1 X81.107 Y110.535 E0.02822
G1 X80.765 Y110.085 E0.0282
G1 X80.489 Y109.592 E0.02819
G1 X80.285 Y109.064 E0.02824
G1 X80.158 Y108.514 E0.02816
G1 X80.109 Y107.891 E0.03118
G1 X80.109 Y92.109 E0.78737
G1 X80.149 Y91.545 E0.02821
G1 X80.268 Y90.992 E0.02822
G1 X80.464 Y90.462 E0.02819
G1 X80.732 Y89.965 E0.02817
G1 X81.068 Y89.51 E0.02822
G1 X81.465 Y89.107 E0.02822
G0 F3600 X81.856 Y89.301
G1 F2400 X82.298 Y88.998 E0.02674
G1 X82.781 Y88.763 E0.0268
G1 X83.292 Y88.603 E0.02671
G1 X83.822 Y88.52 E0.02676
G1 X84.109 Y88.509 E0.01433
G1 X115.891 Y88.51 E1.58561
G1 X116.426 Y88.55 E0.02677
G1 X116.949 Y88.669 E0.02676
G1 X117.448 Y88.864 E0.02673
G1 X117.913 Y89.132 E0.02678
G1 X118.333 Y89.465 E0.02674
G1 X118.699 Y89.857 E0.02676
G1 X119.003 Y90.299 E0.02676
G1 X119.237 Y90.782 E0.02678
G1 X119.397 Y91.293 E0.02671
G1 X119.48 Y91.823 E0.02676
G1 X119.491 Y92.11 E0.01433
G1 X119.491 Y107.891 E0.78732
G1 X119.451 Y108.426 E0.02677
G1 X119.332 Y108.949 E0.02676
G1 X119.137 Y109.448 E0.02673
G1 X118.869 Y109.913 E0.02678
G1 X118.536 Y110.333 E0.02674
G1 X118.144 Y110.699 E0.02676
G1 X117.702 Y111.002 E0.02674
G1 X117.219 Y111.237 E0.0268
G1 X116.708 Y111.397 E0.02671
G1 X116.178 Y111.48 E0.02676
G1 X115.891 Y111.491 E0.01433
G1 X84.109 Y111.491 E1.58561
G1 X83.574 Y111.451 E0.02677
G1 X83.051 Y111.332 E0.02676
G1 X82.552 Y111.137 E0.02673
G1 X82.087 Y110.869 E0.02678
G1 X81.667 Y110.536 E0.02674
G1 X81.301 Y110.144 E0.02676
G1 X80.998 Y109.702 E0.02674
G1 X80.763 Y109.219 E0.0268
G1 X80.603 Y108.708 E0.02671
G1 X80.52 Y108.178 E0.02676
G1 X80.509 Y107.891 E0.01433
G1 X80.509 Y92.109 E0.78737
G1 X80.549 Y91.574 E0.02677
G1 X80.668 Y91.051 E0.02676
G1 X80.863 Y90.552 E0.02673
G1 X81.131 Y90.087 E0.02678
G1 X81.464 Y89.667 E0.02674
G1 X81.856 Y89.301 E0.02676
G0 F3600 X81.858 Y89.834
G1 F2400 X82.245 Y89.508 E0.02524
G1 X82.678 Y89.247 E0.02522
G1 X83.146 Y89.057 E0.0252
G1 X83.639 Y88.944 E0.02523
G1 X84.109 Y88.909 E0.02351
G1 X115.891 Y88.91 E1.58561
G1 X116.395 Y88.95 E0.02522
G1 X116.886 Y89.069 E0.02521
G1 X117.353 Y89.264 E0.02525
G1 X117.783 Y89.529 E0.0252
G1 X118.166 Y89.86 E0.02525
G1 X118.492 Y90.246 E0.02521
G1 X118.753 Y90.679 E0.02522
G1 X118.943 Y91.147 E0.0252
G1 X119.056 Y91.64 E0.02523
G1 X119.091 Y92.11 E0.02351
G1 X119.091 Y107.891 E0.78732
G1 X119.051 Y108.395 E0.02522
G1 X118.932 Y108.886 E0.02521
G1 X118.738 Y109.353 E0.02523
G1 X118.472 Y109.783 E0.02523
G1 X118.142 Y110.166 E0.02522
G1 X117.755 Y110.492 E0.02524
G1 X117.322 Y110.753 E0.02522
G1 X116.854 Y110.943 E0.0252
G1 X116.361 Y111.056 E0.02523
G1 X115.891 Y111.091 E0.02351
G1 X84.109 Y111.091 E1.58561
G1 X83.605 Y111.051 E0.02522
G1 X83.114 Y110.932 E0.02521
G1 X82.647 Y110.738 E0.02523
G1 X82.217 Y110.472 E0.02523
G1 X81.834 Y110.142 E0.02522
G1 X81.508 Y109.755 E0.02524
G1 X81.247 Y109.322 E0.02522
G1 X81.057 Y108.854 E0.0252
G1 X80.944 Y108.361 E0.02523
G1 X80.909 Y107.891 E0.02351
G1 X80.909 Y92.109 E0.78737
G1 X80.949 Y91.605 E0.02522
G1 X81.068 Y91.114 E0.02521
G1 X81.262 Y90.647 E0.02523
G1 X81.528 Y90.217 E0.02523
G1 X81.858 Y89.834 E0.02522
G1 F1500 E-6.5
G0 F3600 X83.72 Y91.706
G0 X83.751 Y91.737
G0 X85.898 Y93.896
G0 X85.929 Y93.927
G0 X86.2 Y94.2
;TYPE:SUPPORT
G1 F1500 E6.5
G1 F2400 X113.8 Y94.2 E1.37697
G1 X113.8 Y105.8 E0.57873
G1 X86.2 Y105.8 E1.37697
G1 X86.2 Y94.2 E0.57873
G0 F3600 X88.935 Y97.196
G1 F2400 X88.847 Y97.295 E0.00661
G1 X88.358 Y98.007 E0.04309
G1 X88.293 Y98.124 E0.00668
G1 X87.985 Y98.938 E0.04342
G1 X87.952 Y99.067 E0.00664
G1 X87.847 Y99.934 E0.04357
G1 X87.847 Y100.066 E0.00659
G1 X87.952 Y100.933 E0.04357
G1 X87.985 Y101.062 E0.00664
G1 X88.293 Y101.876 E0.04342
G1 X88.358 Y101.993 E0.00668
G1 X88.847 Y102.705 E0.04309
G1 X88.935 Y102.804 E0.00661
G1 X89.584 Y103.38 E0.04329
G1 X89.695 Y103.456 E0.00671
G1 X90.472 Y103.863 E0.04376
G1 X90.596 Y103.909 E0.0066
G1 X91.431 Y104.114 E0.0429
G1 X91.563 Y104.131 E0.00664
G1 X92.437 Y104.131 E0.0436
G1 X92.569 Y104.114 E0.00664
G1 X93.404 Y103.909 E0.0429
G1 X93.528 Y103.863 E0.0066
G1 X94.305 Y103.456 E0.04376
G1 X94.416 Y103.38 E0.00671
G1 X95.065 Y102.804 E0.04329
G1 X95.153 Y102.705 E0.00661
G1 X95.642 Y101.993 E0.04309
G1 X95.707 Y101.876 E0.00668
G1 X96 Y101.102 E0.04129
G1 X96.293 Y101.876 E0.04129
G1 X96.358 Y101.993 E0.00668
G1 X96.847 Y102.705 E0.04309
G1 X96.935 Y102.804 E0.00661
G1 X97.584 Y103.38 E0.04329
G1 X97.695 Y103.456 E0.00671
G1 X98.472 Y103.863 E0.04376
G1 X98.596 Y103.909 E0.0066
G1 X99.431 Y104.114 E0.0429
G1 X99.563 Y104.131 E0.00664
G1 X100.437 Y104.131 E0.0436
G1 X100.569 Y104.114 E0.00664
G1 X101.404 Y103.909 E0.0429
G1 X101.528 Y103.863 E0.0066
G1 X102.305 Y103.456 E0.04376
G1 X102.416 Y103.38 E0.00671
G1 X103.065 Y102.804 E0.04329
G1 X103.153 Y102.705 E0.00661
G1 X103.642 Y101.993 E0.04309
G1 X103.707 Y101.876 E0.00668
G1 X104 Y101.102 E0.04129
G1 X104.293 Y101.876 E0.04129
G1 X104.358 Y101.993 E0.00668
G1 X104.847 Y102.705 E0.04309
G1 X104.935 Y102.804 E0.00661
G1 X105.584 Y103.38 E0.04329
G1 X105.695 Y103.456 E0.00671
G1 X106.472 Y103.863 E0.04376
G1 X106.596 Y103.909 E0.0066
G1 X107.431 Y104.114 E0.0429
G1 X107.563 Y104.131 E0.00664
G1 X108.437 Y104.131 E0.0436
G1 X108.569 Y104.114 E0.00664
G1 X109.404 Y103.909 E0.0429
G1 X109.528 Y103.863 E0.0066
G1 X110.305 Y103.456 E0.04376
G1 X110.416 Y103.38 E0.00671
G1 X111.065 Y102.804 E0.04329
G1 X111.153 Y102.705 E0.00661
G1 X111.642 Y101.993 E0.04309
G1 X111.707 Y101.876 E0.00668
G1 X112.015 Y101.062 E0.04342
G1 X112.048 Y100.933 E0.00664
G1 X112.153 Y100.066 E0.04357
G1 X112.153 Y99.934 E0.00659
G1 X112.048 Y99.067 E0.04357
G1 X112.015 Y98.938 E0.00664
G1 X111.707 Y98.124 E0.04342
G1 X111.642 Y98.007 E0.00668
G1 X111.153 Y97.295 E0.04309
G1 X111.065 Y97.196 E0.00661
G1 X110.416 Y96.62 E0.04329
G1 X110.305 Y96.544 E0.00671
G1 X109.528 Y96.137 E0.04376
G1 X109.404 Y96.091 E0.0066
G1 X108.569 Y95.886 E0.0429
G1 X108.437 Y95.869 E0.00664
G1 X107.563 Y95.869 E0.0436
G1 X107.431 Y95.886 E0.00664
G1 X106.596 Y96.091 E0.0429
G1 X106.472 Y96.137 E0.0066
G1 X105.695 Y96.544 E0.04376
G1 X105.584 Y96.62 E0.00671
G1 X104.935 Y97.196 E0.04329
G1 X104.847 Y97.295 E0.00661
G1 X104.358 Y98.007 E0.04309
G1 X104.293 Y98.124 E0.00668
G1 X104 Y98.898 E0.04129
G1 X103.707 Y98.124 E0.04129
G1 X103.642 Y98.007 E0.00668
G1 X103.153 Y97.295 E0.04309
G1 X103.065 Y97.196 E0.00661
G1 X102.416 Y96.62 E0.04329
G1 X102.305 Y96.544 E0.00671
G1 X101.528 Y96.137 E0.04376
G1 X101.404 Y96.091 E0.0066
G1 X100.569 Y95.886 E0.0429
G1 X100.437 Y95.869 E0.00664
G1 X99.563 Y95.869 E0.0436
G1 X99.431 Y95.886 E0.00664
G1 X98.596 Y96.091 E0.0429
G1 X98.472 Y96.137 E0.0066
G1 X97.695 Y96.544 E0.04376
G1 X97.584 Y96.62 E0.00671
G1 X96.935 Y97.196 E0.04329
G1 X96.847 Y97.295 E0.00661
G1 X96.358 Y98.007 E0.04309
G1 X96.293 Y98.124 E0.00668
G1 X96 Y98.898 E0.04129
G1 X95.707 Y98.124 E0.04129
G1 X95.642 Y98.007 E0.00668
G1 X95.153 Y97.295 E0.04309
G1 X95.065 Y97.196 E0.00661
G1 X94.416 Y96.62 E0.04329
G1 X94.305 Y96.544 E0.00671
G1 X93.528 Y96.137 E0.04376
G1 X93.404 Y96.091 E0.0066
G1 X92.569 Y95.886 E0.0429
G1 X92.437 Y95.869 E0.00664
G1 X91.563 Y95.869 E0.0436
G1 X91.431 Y95.886 E0.00664
G1 X90.596 Y96.091 E0.0429
G1 X90.472 Y96.137 E0.0066
G1 X89.695 Y96.544 E0.04376
G1 X89.584 Y96.62 E0.00671
G1 X88.935 Y97.196 E0.04329
G0 F3600 X87.978 Y98.504
G1 F2400 X87.978 Y94.36 E0.20674
G0 F3600 X86.36 Y95.976
G1 F2400 X90.447 Y95.976 E0.2039
G0 F3600 X90.644 Y95.916
G1 F2400 X90.644 Y94.36 E0.07763
G0 F3600 X93.31 Y94.36
G1 F2400 X93.31 Y95.903 E0.07698
G0 F3600 X93.552 Y95.976
G1 F2400 X98.447 Y95.976 E0.24421
G0 F3600 X98.642 Y95.916
G1 F2400 X98.642 Y94.36 E0.07763
G0 F3600 X95.976 Y94.36
G1 F2400 X95.976 Y98.373 E0.20021
G0 F3600 X95.976 Y101.627
G1 F2400 X95.976 Y105.64 E0.20021
G0 F3600 X93.31 Y105.64
G1 F2400 X93.31 Y104.096 E0.07703
G0 F3600 X93.661 Y103.974
G1 F2400 X98.34 Y103.974 E0.23344
G0 F3600 X98.642 Y104.085
G1 F2400 X98.642 Y105.64 E0.07758
G0 F3600 X101.308 Y105.64
G1 F2400 X101.308 Y104.096 E0.07703
G0 F3600 X101.661 Y103.974
G1 F2400 X106.34 Y103.974 E0.23344
G0 F3600 X106.64 Y104.084
G1 F2400 X106.64 Y105.64 E0.07763
G0 F3600 X103.974 Y105.64
G1 F2400 X103.974 Y101.627 E0.20021
G0 F3600 X103.974 Y98.373
G1 F2400 X103.974 Y94.36 E0.20021
G0 F3600 X101.308 Y94.36
G1 F2400 X101.308 Y95.903 E0.07698
G0 F3600 X101.552 Y95.976
G1 F2400 X106.447 Y95.976 E0.24421
G0 F3600 X106.64 Y95.917
G1 F2400 X106.64 Y94.36 E0.07768
G0 F3600 X109.306 Y94.36
G1 F2400 X109.306 Y95.902 E0.07693
G0 F3600 X109.552 Y95.976
G1 F2400 X113.64 Y95.976 E0.20395
G0 F3600 X111.972 Y94.36
G1 F2400 X111.972 Y98.371 E0.20011
G0 F3600 X112.074 Y98.642
G1 F2400 X113.64 Y98.642 E0.07813
G0 F3600 X113.64 Y101.308
G1 F2400 X112.093 Y101.308 E0.07718
G0 F3600 X111.972 Y101.628
G1 F2400 X111.972 Y105.64 E0.20016
G0 F3600 X113.64 Y103.974
G1 F2400 X109.661 Y103.974 E0.19851
G0 F3600 X109.306 Y104.097
G1 F2400 X109.306 Y105.64 E0.07698
G0 F3600 X90.644 Y105.64
G1 F2400 X90.644 Y104.085 E0.07758
G0 F3600 X90.34 Y103.974
G1 F2400 X86.36 Y103.974 E0.19856
G0 F3600 X87.978 Y105.64
G1 F2400 X87.978 Y101.497 E0.2067
G0 F3600 X87.908 Y101.308
G1 F2400 X86.36 Y101.308 E0.07723
G0 F3600 X86.36 Y98.642
G1 F2400 X87.925 Y98.642 E0.07808
G1 F1500 E-6.5
G0 F3600 X88.328 Y98.795
G0 X88.37 Y98.81
G0 X90.256 Y99.527
G0 X90.298 Y99.542
G0 X90.551 Y99.64
G1 F1500 E6.5
G1 F2400 X90.676 Y99.31 E0.01761
G1 X90.882 Y99.012 E0.01807
G1 X91.157 Y98.768 E0.01834
G1 X91.47 Y98.604 E0.01763
G1 X91.822 Y98.517 E0.01809
G1 X92.178 Y98.517 E0.01776
G1 X92.53 Y98.604 E0.01809
G1 X92.843 Y98.768 E0.01763
G1 X93.118 Y99.012 E0.01834
G1 X93.324 Y99.31 E0.01807
G1 X93.449 Y99.64 E0.01761
G1 X93.492 Y100 E0.01809
G1 X93.449 Y100.36 E0.01809
G1 X93.324 Y100.69 E0.01761
G1 X93.118 Y100.988 E0.01807
G1 X92.843 Y101.232 E0.01834
G1 X92.53 Y101.396 E0.01763
G1 X92.178 Y101.483 E0.01809
G1 X91.822 Y101.483 E0.01776
G1 X91.47 Y101.396 E0.01809
G1 X91.157 Y101.232 E0.01763
G1 X90.882 Y100.988 E0.01834
G1 X90.676 Y100.69 E0.01807
G1 X90.551 Y100.36 E0.01761
G1 X90.508 Y100 E0.01809
G1 X90.551 Y99.64 E0.01809
G0 F3600 X91.78 Y101.308
G1 F2400 X92.219 Y101.308 E0.0219
G0 F3600 X93.31 Y100.171
G1 F2400 X93.31 Y99.83 E0.01701
G1 F1500 E-6.5
G0 F3600 X93.746 Y99.845
G0 X93.79 Y99.845
G0 X95.832 Y99.911
G0 X95.912 Y99.914
G0 X96.084 Y99.92
G0 X96.164 Y99.922
G0 X98.192 Y99.989
G0 X98.236 Y99.989
G0 X98.508 Y100
G1 F1500 E6.5
G1 F2400 X98.551 Y99.64 E0.01809
G1 X98.676 Y99.31 E0.01761
G1 X98.882 Y99.012 E0.01807
G1 X99.157 Y98.768 E0.01834
G1 X99.47 Y98.604 E0.01763
G1 X99.822 Y98.517 E0.01809
G1 X100.178 Y98.517 E0.01776
G1 X100.53 Y98.604 E0.01809
G1 X100.843 Y98.768 E0.01763
G1 X101.118 Y99.012 E0.01834
G1 X101.324 Y99.31 E0.01807
G1 X101.449 Y99.64 E0.01761
G1 X101.492 Y100 E0.01809
G1 X101.449 Y100.36 E0.01809
G1 X101.324 Y100.69 E0.01761
G1 X101.118 Y100.988 E0.01807
G1 X100.843 Y101.232 E0.01834
G1 X100.53 Y101.396 E0.01763
G1 X100.178 Y101.483 E0.01809
G1 X99.822 Y101.483 E0.01776
G1 X99.47 Y101.396 E0.01809
G1 X99.157 Y101.232 E0.01763
G1 X98.882 Y100.988 E0.01834
G1 X98.676 Y100.69 E0.01807
G1 X98.551 Y100.36 E0.01761
G1 X98.508 Y100 E0.01809
G0 F3600 X99.78 Y101.308
G1 F2400 X100.219 Y101.308 E0.0219
G0 F3600 X101.308 Y100.188
G1 F2400 X101.308 Y99.813 E0.01871
G1 F1500 E-6.5
G0 F3600 X101.745 Y99.829
G0 X101.789 Y99.829
G0 X103.83 Y99.903
G0 X103.91 Y99.905
G0 X104.085 Y99.912
G0 X104.165 Y99.915
G0 X106.192 Y99.987
G0 X106.236 Y99.987
G0 X106.508 Y100
G1 F1500 E6.5
G1 F2400 X106.551 Y99.64 E0.01809
G1 X106.676 Y99.31 E0.01761
G1 X106.882 Y99.012 E0.01807
G1 X107.157 Y98.768 E0.01834
G1 X107.47 Y98.604 E0.01763
G1 X107.822 Y98.517 E0.01809
G1 X108.178 Y98.517 E0.01776
G1 X108.53 Y98.604 E0.01809
G1 X108.843 Y98.768 E0.01763
G1 X109.118 Y99.012 E0.01834
G1 X109.324 Y99.31 E0.01807
G1 X109.449 Y99.64 E0.01761
G1 X109.492 Y100 E0.01809
G1 X109.449 Y100.36 E0.01809
G1 X109.324 Y100.69 E0.01761
G1 X109.118 Y100.988 E0.01807
G1 X108.843 Y101.232 E0.01834
G1 X108.53 Y101.396 E0.01763
G1 X108.178 Y101.483 E0.01809
G1 X107.822 Y101.483 E0.01776
G1 X107.47 Y101.396 E0.01809
G1 X107.157 Y101.232 E0.01763
G1 X106.882 Y100.988 E0.01834
G1 X106.676 Y100.69 E0.01807
G1 X106.551 Y100.36 E0.01761
G1 X106.508 Y100 E0.01809
G0 F3600 X107.78 Y101.308
G1 F2400 X108.219 Y101.308 E0.0219
G0 F3600 X109.306 Y100.205
G1 F2400 X109.306 Y99.796 E0.02041
G1 F1500 E-6.5
G0 F3600 X106.382 Y99.323
G0 X106.338 Y99.317
G0 X104.301 Y98.988
G0 X104.222 Y98.975
G0 X102.898 Y97.363
G0 X102.182 Y96.745
G0 X101.335 Y96.317
G0 X100.421 Y96.105
G0 X99.475 Y96.117
G0 X99.218 Y96.183
G0 X94.998 Y97.487
G0 X94.271 Y97.989
G0 X93.047 Y97.238
G0 X93.082 Y97.145
;TYPE:WALL-OUTER
G1 F1500 E6.5
G1 F2400 X93.733 Y97.486 E0.03666
G1 X94.285 Y97.976 E0.03682
G1 X94.704 Y98.583 E0.0368
G1 X94.964 Y99.268 E0.03655
G1 X95.053 Y100 E0.03679
G1 X94.964 Y100.732 E0.03679
G1 X94.704 Y101.417 E0.03655
G1 X94.285 Y102.024 E0.0368
G1 X93.733 Y102.514 E0.03682
G1 X93.082 Y102.855 E0.03666
G1 X92.368 Y103.031 E0.03669
G1 X91.632 Y103.031 E0.03672
G1 X90.918 Y102.855 E0.03669
G1 X90.267 Y102.514 E0.03666
G1 X89.715 Y102.024 E0.03682
G1 X89.296 Y101.417 E0.0368
G1 X89.036 Y100.732 E0.03655
G1 X88.947 Y100 E0.03679
G1 X89.036 Y99.268 E0.03679
G1 X89.296 Y98.583 E0.03655
G1 X89.715 Y97.976 E0.0368
G1 X90.267 Y97.486 E0.03682
G1 X90.918 Y97.145 E0.03666
G1 X91.632 Y96.969 E0.03669
G1 X92.368 Y96.969 E0.03672
G1 X93.082 Y97.145 E0.03669
G0 F3600 X93.259 Y97.237
G0 X93.212 Y97.325
G0 X91.683 Y97.378
G0 X91.063 Y97.531
G0 X90.5 Y97.827
G0 X90.024 Y98.249
G0 X89.82 Y98.545
G0 X89.377 Y99.355
G0 X89.474 Y99.378
G1 F2400 X89.399 Y100 E0.03126
G1 X89.474 Y100.622 E0.03126
G1 X89.697 Y101.209 E0.03133
G1 X90.053 Y101.725 E0.03128
G1 X90.522 Y102.141 E0.03128
G1 X91.077 Y102.432 E0.03126
G1 X91.687 Y102.583 E0.03135
G1 X92.313 Y102.583 E0.03123
G1 X92.923 Y102.432 E0.03135
G1 X93.478 Y102.141 E0.03126
G1 X93.947 Y101.725 E0.03128
G1 X94.303 Y101.209 E0.03128
G1 X94.526 Y100.622 E0.03133
G1 X94.601 Y100 E0.03126
G1 X94.526 Y99.378 E0.03126
G1 X94.303 Y98.791 E0.03133
G1 X93.947 Y98.275 E0.03128
G1 X93.478 Y97.859 E0.03128
G1 X92.923 Y97.568 E0.03126
G1 X92.313 Y97.417 E0.03135
G1 X91.687 Y97.417 E0.03123
G1 X91.077 Y97.568 E0.03135
G1 X90.522 Y97.859 E0.03126
G1 X90.053 Y98.275 E0.03128
G1 X89.697 Y98.791 E0.03128
G1 X89.474 Y99.378 E0.03133
G0 F3600 X89.451 Y99.576
G0 X89.241 Y99.424
G1 F2400 X89.3 Y99.2 E0.00176
G1 X89.379 Y98.995 E0.00162
G1 X89.457 Y98.79 E0.00161
G1 X89.553 Y98.604 E0.00154
G1 X89.668 Y98.436 E0.00147
G1 X89.783 Y98.268 E0.00145
G1 X89.904 Y98.106 E0.00141
G1 X90.054 Y97.973 E0.00138
G1 X90.203 Y97.84 E0.00137
G1 X90.354 Y97.708 E0.00138
G1 X90.529 Y97.6 E0.00144
