;FLAVOR:Marlin
;TIME:2575
;Filament used: 3.23336m
;Layer height: 0.2
;Generated with Cura_SteamEngine 3.3.1
M104 S200
M109 S200
M82 ;absolute extrusion mode
; -- START GCODE --
G21                     ;set units to millimetres
G90                     ;set to absolute positioning
M106 S0                 ;set fan speed to zero (turned off)
G28 X0 Y0               ;move to the X/Y origin (Home)
G28 Z0                  ;move to the Z origin (Home)
G1 Z15.0 F1200          ;move Z to position 15.0 mm
G92 E0                  ;zero the extruded length
G1 E20 F200             ;extrude 20mm of feed stock
G92 E0                  ;zero the extruded length again
G1 F7200                ;set feedrate to 120 mm/s
; -- end of START GCODE --
G92 E0
G1 F2700 E-6.5
;LAYER_COUNT:36
;LAYER:0
M107
G0 F3600 X115.631 Y73.087 Z0.2
;TYPE:SKIRT
G1 F2700 E0
G1 F2400 X115.964 Y72.667 E0.01783
G1 X116.356 Y72.301 E0.03566
G1 X116.798 Y71.998 E0.05349
G1 X117.281 Y71.763 E0.07135
G1 X117.792 Y71.603 E0.08916
G1 X118.322 Y71.52 E0.10701
G1 X118.609 Y71.509 E0.11656
G1 X178.391 Y71.51 E2.10492
G1 X178.926 Y71.55 E2.12276
G1 X179.449 Y71.669 E2.1406
G1 X179.948 Y71.864 E2.15842
G1 X180.413 Y72.132 E2.17627
G1 X180.833 Y72.465 E2.1941
G1 X181.199 Y72.857 E2.21193
G1 X181.502 Y73.299 E2.22976
G1 X181.737 Y73.782 E2.24762
G1 X181.897 Y74.293 E2.26543
G1 X181.98 Y74.823 E2.28327
G1 X181.991 Y75.11 E2.29283
G1 X181.991 Y134.891 E4.28115
G1 X181.951 Y135.426 E4.299
G1 X181.832 Y135.949 E4.31684
G1 X181.637 Y136.448 E4.33465
G1 X181.369 Y136.913 E4.35251
G1 X181.036 Y137.333 E4.37033
G1 X180.644 Y137.699 E4.38817
G1 X180.202 Y138.002 E4.40599
G1 X179.719 Y138.237 E4.42386
G1 X179.208 Y138.397 E4.44167
G1 X178.678 Y138.48 E4.45951
G1 X178.391 Y138.491 E4.46906
G1 X118.609 Y138.491 E6.45742
G1 X118.074 Y138.451 E6.47526
G1 X117.551 Y138.332 E6.4931
G1 X117.052 Y138.137 E6.51092
G1 X116.587 Y137.869 E6.52877
G1 X116.167 Y137.536 E6.5466
G1 X115.801 Y137.144 E6.56444
G1 X115.498 Y136.702 E6.58226
G1 X115.263 Y136.219 E6.60013
G1 X115.103 Y135.708 E6.61794
G1 X115.02 Y135.178 E6.63578
G1 X115.009 Y134.891 E6.64533
G1 X115.009 Y75.109 E8.63369
G1 X115.049 Y74.574 E8.65153
G1 X115.168 Y74.051 E8.66937
G1 X115.363 Y73.552 E8.68719
G1 X115.631 Y73.087 E8.70504
G0 F3600 X116.028 Y73.217
G1 F2400 X116.358 Y72.834 E8.72186
G1 X116.745 Y72.508 E8.73869
G1 X117.178 Y72.247 E8.7555
G1 X117.646 Y72.057 E8.7723
G1 X118.139 Y71.944 E8.78913
G1 X118.609 Y71.909 E8.8048
G1 X178.391 Y71.91 E10.79316
G1 X178.895 Y71.95 E10.80997
G1 X179.386 Y72.069 E10.82678
G1 X179.853 Y72.264 E10.84361
G1 X180.283 Y72.529 E10.86041
G1 X180.666 Y72.859 E10.87723
G1 X180.992 Y73.246 E10.89406
G1 X181.253 Y73.679 E10.91087
G1 X181.443 Y74.147 E10.92767
G1 X181.556 Y74.64 E10.94449
G1 X181.591 Y75.11 E10.96017
G1 X181.591 Y134.891 E12.94849
G1 X181.551 Y135.395 E12.96531
G1 X181.432 Y135.886 E12.98211
G1 X181.238 Y136.353 E12.99893
G1 X180.972 Y136.783 E13.01575
G1 X180.642 Y137.166 E13.03256
G1 X180.255 Y137.492 E13.04939
G1 X179.822 Y137.753 E13.06621
G1 X179.354 Y137.943 E13.08301
G1 X178.861 Y138.056 E13.09983
G1 X178.391 Y138.091 E13.11551
G1 X118.609 Y138.091 E15.10386
G1 X118.105 Y138.051 E15.12068
G1 X117.614 Y137.932 E15.13748
G1 X117.147 Y137.738 E15.1543
G1 X116.717 Y137.472 E15.17112
G1 X116.334 Y137.142 E15.18793
G1 X116.008 Y136.755 E15.20476
G1 X115.747 Y136.322 E15.22158
G1 X115.557 Y135.854 E15.23838
G1 X115.444 Y135.361 E15.2552
G1 X115.409 Y134.891 E15.27088
G1 X115.409 Y75.109 E17.25924
G1 X115.449 Y74.605 E17.27605
G1 X115.568 Y74.114 E17.29285
G1 X115.762 Y73.647 E17.30967
G1 X116.028 Y73.217 E17.32649
G1 F2700 E10.82649
G0 F3600 X117.935 Y75.714
G0 X119.214 Y75.714
G0 X127.156 Y80.861
G0 X127.23 Y80.928
;TYPE:WALL-INNER
G1 F2700 E17.32649
G1 F2400 X127.008 Y81.256 E17.33966
G1 X126.87 Y81.616 E17.35249
G1 X126.824 Y82 E17.36535
G1 X126.87 Y82.383 E17.37818
G1 X127.008 Y82.746 E17.3911
G1 X127.227 Y83.065 E17.40397
G1 X127.518 Y83.322 E17.41688
G1 X127.861 Y83.502 E17.42976
G1 X128.237 Y83.593 E17.44263
G1 X128.621 Y83.593 E17.4554
G1 X128.997 Y83.502 E17.46827
G1 X129.34 Y83.322 E17.48115
G1 X129.631 Y83.065 E17.49407
G1 X129.85 Y82.746 E17.50694
G1 X129.988 Y82.383 E17.51985
G1 X130.034 Y82 E17.53268
G1 X129.988 Y81.617 E17.54551
G1 X129.85 Y81.254 E17.55843
G1 X129.631 Y80.935 E17.5713
G1 X129.34 Y80.678 E17.58421
G1 X128.997 Y80.498 E17.59709
G1 X128.621 Y80.407 E17.60996
G1 X128.237 Y80.407 E17.62273
G1 X127.86 Y80.499 E17.63564
G1 X127.545 Y80.665 E17.64748
G1 X127.23 Y80.928 E17.66113
G0 F3600 X127.156 Y80.861
G0 X127.846 Y80.462
G0 X128.159 Y80.387
G0 X167.298 Y80.861
G0 X167.372 Y80.928
G1 F2400 X167.15 Y81.256 E17.67431
G1 X167.012 Y81.616 E17.68713
G1 X166.966 Y82 E17.69999
G1 X167.012 Y82.383 E17.71282
G1 X167.15 Y82.746 E17.72574
G1 X167.369 Y83.065 E17.73861
G1 X167.66 Y83.322 E17.75152
G1 X168.003 Y83.502 E17.7644
G1 X168.379 Y83.593 E17.77727
G1 X168.763 Y83.593 E17.79004
G1 X169.139 Y83.502 E17.80291
G1 X169.482 Y83.322 E17.81579
G1 X169.773 Y83.065 E17.82871
G1 X169.992 Y82.746 E17.84158
G1 X170.13 Y82.383 E17.85449
G1 X170.176 Y82 E17.86732
G1 X170.13 Y81.617 E17.88015
G1 X169.992 Y81.254 E17.89307
G1 X169.773 Y80.935 E17.90594
G1 X169.482 Y80.678 E17.91885
G1 X169.139 Y80.498 E17.93174
G1 X168.763 Y80.407 E17.9446
G1 X168.379 Y80.407 E17.95737
G1 X168.002 Y80.499 E17.97028
G1 X167.687 Y80.665 E17.98212
G1 X167.372 Y80.928 E17.99577
G0 F3600 X167.298 Y80.861
G0 X166.974 Y81.607
G0 X166.961 Y81.717
G0 X167.298 Y126.861
G0 X167.372 Y126.928
G1 F2400 X167.15 Y127.256 E18.00895
G1 X167.012 Y127.616 E18.02177
G1 X166.966 Y128 E18.03463
G1 X167.012 Y128.383 E18.04746
G1 X167.15 Y128.746 E18.06038
G1 X167.369 Y129.065 E18.07325
G1 X167.66 Y129.322 E18.08616
G1 X168.003 Y129.502 E18.09905
G1 X168.379 Y129.593 E18.11191
G1 X168.763 Y129.593 E18.12468
G1 X169.139 Y129.502 E18.13755
G1 X169.482 Y129.322 E18.15043
G1 X169.773 Y129.065 E18.16335
G1 X169.992 Y128.746 E18.17622
G1 X170.13 Y128.383 E18.18913
G1 X170.176 Y128 E18.20196
G1 X170.13 Y127.617 E18.21479
G1 X169.992 Y127.254 E18.22771
G1 X169.773 Y126.935 E18.24058
G1 X169.482 Y126.678 E18.25349
G1 X169.139 Y126.498 E18.26638
G1 X168.763 Y126.407 E18.27924
G1 X168.379 Y126.407 E18.29202
G1 X168.002 Y126.499 E18.30492
G1 X167.687 Y126.665 E18.31677
G1 X167.372 Y126.928 E18.33041
G0 F3600 X167.298 Y126.861
G0 X167.988 Y126.462
G0 X168.375 Y126.368
G0 X168.767 Y126.368
G0 X169.153 Y126.461
G0 X169.436 Y126.61
G0 X177.73 Y134.23
G0 X177.8 Y134.3
G1 F2400 X119.2 Y134.3 E20.27946
G1 X119.2 Y75.7 E22.2285
G1 X177.8 Y75.7 E24.17755
G1 X177.8 Y134.3 E26.12659
G0 F3600 X177.73 Y134.23
G0 X128.625 Y126.368
G0 X128.233 Y126.368
G0 X127.92 Y126.443
G0 X127.156 Y126.861
G0 X127.23 Y126.928
G1 F2400 X127.008 Y127.256 E26.13976
G1 X126.87 Y127.616 E26.15259
G1 X126.824 Y128 E26.16545
G1 X126.87 Y128.383 E26.17828
G1 X127.008 Y128.746 E26.1912
G1 X127.227 Y129.065 E26.20407
G1 X127.518 Y129.322 E26.21698
G1 X127.861 Y129.502 E26.22986
G1 X128.237 Y129.593 E26.24273
G1 X128.621 Y129.593 E26.2555
G1 X128.997 Y129.502 E26.26837
G1 X129.34 Y129.322 E26.28125
G1 X129.631 Y129.065 E26.29416
G1 X129.85 Y128.746 E26.30703
G1 X129.988 Y128.383 E26.31995
G1 X130.034 Y128 E26.33278
G1 X129.988 Y127.617 E26.34561
G1 X129.85 Y127.254 E26.35853
G1 X129.631 Y126.935 E26.3714
G1 X129.34 Y126.678 E26.38431
G1 X128.997 Y126.498 E26.39719
G1 X128.621 Y126.407 E26.41006
G1 X128.237 Y126.407 E26.42283
G1 X127.86 Y126.499 E26.43574
G1 X127.545 Y126.665 E26.44758
G1 X127.23 Y126.928 E26.46123
G0 F3600 X127.53 Y127.199
;TYPE:WALL-OUTER
G1 F2400 X127.365 Y127.442 E26.471
G1 X127.261 Y127.713 E26.48065
G1 X127.227 Y128 E26.49027
G1 X127.261 Y128.287 E26.49988
G1 X127.365 Y128.559 E26.50956
G1 X127.529 Y128.798 E26.51921
G1 X127.747 Y128.99 E26.52887
G1 X128.003 Y129.125 E26.53849
G1 X128.285 Y129.193 E26.54814
G1 X128.573 Y129.193 E26.55772
G1 X128.855 Y129.125 E26.56737
G1 X129.111 Y128.99 E26.57699
G1 X129.329 Y128.798 E26.58666
G1 X129.493 Y128.559 E26.5963
G1 X129.597 Y128.287 E26.60598
G1 X129.631 Y128 E26.6156
G1 X129.597 Y127.713 E26.62521
G1 X129.493 Y127.441 E26.63489
G1 X129.329 Y127.202 E26.64453
G1 X129.111 Y127.01 E26.6542
G1 X128.855 Y126.875 E26.66382
G1 X128.573 Y126.807 E26.67347
G1 X128.285 Y126.807 E26.68305
G1 X128.003 Y126.876 E26.6927
G1 X127.769 Y126.999 E26.7015
G1 X127.53 Y127.199 E26.71186
G0 F3600 X127.418 Y127.364
G0 X127.006 Y127.083
G0 X127.523 Y126.632
G0 X127.846 Y126.462
G0 X128.159 Y126.387
G0 X167.352 Y126.816
G0 X167.672 Y127.199
G1 F2400 X167.507 Y127.442 E26.72163
G1 X167.403 Y127.713 E26.73129
G1 X167.369 Y128 E26.7409
G1 X167.403 Y128.287 E26.75051
G1 X167.507 Y128.559 E26.7602
G1 X167.671 Y128.798 E26.76984
G1 X167.889 Y128.99 E26.7795
G1 X168.145 Y129.125 E26.78913
G1 X168.427 Y129.193 E26.79877
G1 X168.715 Y129.193 E26.80835
G1 X168.997 Y129.125 E26.818
G1 X169.253 Y128.99 E26.82763
G1 X169.471 Y128.798 E26.83729
G1 X169.635 Y128.559 E26.84693
G1 X169.739 Y128.287 E26.85661
G1 X169.773 Y128 E26.86623
G1 X169.739 Y127.713 E26.87584
G1 X169.635 Y127.441 E26.88553
G1 X169.471 Y127.202 E26.89517
G1 X169.253 Y127.01 E26.90483
G1 X168.997 Y126.875 E26.91445
G1 X168.715 Y126.807 E26.9241
G1 X168.427 Y126.807 E26.93368
G1 X168.145 Y126.876 E26.94334
G1 X167.911 Y126.999 E26.95213
G1 X167.672 Y127.199 E26.96249
G0 F3600 X167.56 Y127.364
G0 X167.148 Y127.083
G0 X167.665 Y126.632
G0 X167.988 Y126.462
G0 X168.375 Y126.368
G0 X168.767 Y126.368
G0 X169.153 Y126.461
G0 X169.436 Y126.61
G0 X177.73 Y134.23
G0 X178.2 Y134.7
G1 F2400 X118.8 Y134.7 E28.93815
G1 X118.8 Y75.3 E30.9138
G1 X178.2 Y75.3 E32.88945
G1 X178.2 Y134.7 E34.8651
G0 F3600 X178 Y134.7
G0 X177.73 Y134.23
G0 X166.926 Y82
G0 X166.969 Y81.647
G0 X167.352 Y80.816
G0 X167.672 Y81.199
G1 F2400 X167.507 Y81.442 E34.87487
G1 X167.403 Y81.713 E34.88453
G1 X167.369 Y82 E34.89414
G1 X167.403 Y82.287 E34.90375
G1 X167.507 Y82.559 E34.91344
G1 X167.671 Y82.798 E34.92308
G1 X167.889 Y82.99 E34.93274
G1 X168.145 Y83.125 E34.94237
G1 X168.427 Y83.193 E34.95201
G1 X168.715 Y83.193 E34.96159
G1 X168.997 Y83.125 E34.97124
G1 X169.253 Y82.99 E34.98087
G1 X169.471 Y82.798 E34.99053
G1 X169.635 Y82.559 E35.00017
G1 X169.739 Y82.287 E35.00985
G1 X169.773 Y82 E35.01947
G1 X169.739 Y81.713 E35.02908
G1 X169.635 Y81.441 E35.03877
G1 X169.471 Y81.202 E35.04841
G1 X169.253 Y81.01 E35.05807
G1 X168.997 Y80.875 E35.06769
G1 X168.715 Y80.807 E35.07734
G1 X168.427 Y80.807 E35.08692
G1 X168.145 Y80.876 E35.09658
G1 X167.911 Y80.999 E35.10537
G1 X167.672 Y81.199 E35.11573
G0 F3600 X167.56 Y81.364
G0 X167.148 Y81.083
G0 X128.233 Y80.368
G0 X128.014 Y80.42
G0 X127.21 Y80.816
G0 X127.53 Y81.199
G1 F2400 X127.365 Y81.442 E35.1255
G1 X127.261 Y81.713 E35.13516
G1 X127.227 Y82 E35.14477
G1 X127.261 Y82.287 E35.15438
G1 X127.365 Y82.559 E35.16407
G1 X127.529 Y82.798 E35.17371
G1 X127.747 Y82.99 E35.18337
G1 X128.003 Y83.125 E35.193
G1 X128.285 Y83.193 E35.20265
G1 X128.573 Y83.193 E35.21222
G1 X128.855 Y83.125 E35.22187
G1 X129.111 Y82.99 E35.2315
G1 X129.329 Y82.798 E35.24116
G1 X129.493 Y82.559 E35.2508
G1 X129.597 Y82.287 E35.26049
G1 X129.631 Y82 E35.2701
G1 X129.597 Y81.713 E35.27971
G1 X129.493 Y81.441 E35.2894
G1 X129.329 Y81.202 E35.29904
G1 X129.111 Y81.01 E35.3087
G1 X128.855 Y80.875 E35.31833
G1 X128.573 Y80.807 E35.32797
G1 X128.285 Y80.807 E35.33755
G1 X128.003 Y80.876 E35.34721
G1 X127.769 Y80.999 E35.356
G1 X127.53 Y81.199 E35.36637
G0 F3600 X127.418 Y81.364
G0 X127.006 Y81.083
G0 X126.659 Y81.075
;TYPE:SKIN
G1 F2400 X126.488 Y81.522 E35.38228
G1 X126.432 Y82 E35.39829
G1 X126.488 Y82.477 E35.41427
G1 X126.661 Y82.928 E35.43033
G1 X126.933 Y83.326 E35.44637
G1 X127.295 Y83.646 E35.46244
G1 X127.722 Y83.87 E35.47847
G1 X128.19 Y83.983 E35.49449
G1 X128.668 Y83.983 E35.51038
G1 X129.136 Y83.87 E35.5264
G1 X129.563 Y83.646 E35.54244
G1 X129.925 Y83.326 E35.55851
G1 X130.197 Y82.928 E35.57454
G1 X130.37 Y82.477 E35.5906
G1 X130.426 Y82 E35.60658
G1 X130.37 Y81.523 E35.62255
G1 X130.197 Y81.072 E35.63862
G1 X129.925 Y80.674 E35.65465
G1 X129.563 Y80.354 E35.67072
G1 X129.136 Y80.13 E35.68676
G1 X128.668 Y80.017 E35.70277
G1 X128.19 Y80.017 E35.71867
G1 X127.721 Y80.132 E35.73473
G1 X127.327 Y80.339 E35.74954
G1 X126.938 Y80.664 E35.7664
G1 X126.659 Y81.075 E35.78292
G0 F3600 X119.59 Y76.09
G1 F2400 X177.41 Y76.09 E37.70602
G1 X177.41 Y133.91 E39.62912
G1 X119.59 Y133.91 E41.55222
G1 X119.59 Y76.09 E43.47532
G0 F3600 X166.574 Y82
G1 F2400 X166.63 Y82.477 E43.4913
G1 X166.803 Y82.928 E43.50736
G1 X167.075 Y83.326 E43.52339
G1 X167.437 Y83.646 E43.53946
G1 X167.864 Y83.87 E43.5555
G1 X168.332 Y83.983 E43.57152
G1 X168.81 Y83.983 E43.58741
G1 X169.278 Y83.87 E43.60343
G1 X169.705 Y83.646 E43.61946
G1 X170.067 Y83.326 E43.63553
G1 X170.339 Y82.928 E43.65157
G1 X170.512 Y82.477 E43.66763
G1 X170.568 Y82 E43.68361
G1 X170.512 Y81.523 E43.69958
G1 X170.339 Y81.072 E43.71565
G1 X170.067 Y80.674 E43.73168
G1 X169.705 Y80.354 E43.74775
G1 X169.278 Y80.13 E43.76379
G1 X168.81 Y80.017 E43.7798
G1 X168.332 Y80.017 E43.7957
G1 X167.863 Y80.132 E43.81176
G1 X167.469 Y80.339 E43.82657
G1 X167.08 Y80.664 E43.84342
G1 X166.801 Y81.075 E43.85995
G1 X166.63 Y81.522 E43.87586
G1 X166.574 Y82 E43.89187
G0 F3600 X167.08 Y126.664
G1 F2400 X166.801 Y127.075 E43.90839
G1 X166.63 Y127.522 E43.92431
G1 X166.574 Y128 E43.94032
G1 X166.63 Y128.477 E43.95629
G1 X166.803 Y128.928 E43.97236
G1 X167.075 Y129.326 E43.98839
G1 X167.437 Y129.646 E44.00446
G1 X167.864 Y129.87 E44.0205
G1 X168.332 Y129.983 E44.03651
G1 X168.81 Y129.983 E44.05241
G1 X169.278 Y129.87 E44.06842
G1 X169.705 Y129.646 E44.08446
G1 X170.067 Y129.326 E44.10053
G1 X170.339 Y128.928 E44.11657
G1 X170.512 Y128.477 E44.13263
G1 X170.568 Y128 E44.14861
G1 X170.512 Y127.523 E44.16458
G1 X170.339 Y127.072 E44.18065
G1 X170.067 Y126.674 E44.19668
G1 X169.705 Y126.354 E44.21275
G1 X169.278 Y126.13 E44.22879
G1 X168.81 Y126.017 E44.2448
G1 X168.332 Y126.017 E44.2607
G1 X167.863 Y126.132 E44.27676
G1 X167.469 Y126.339 E44.29156
G1 X167.08 Y126.664 E44.30842
G0 F3600 X128.19 Y126.017
G1 F2400 X127.721 Y126.132 E44.32448
G1 X127.327 Y126.339 E44.33929
G1 X126.938 Y126.664 E44.35615
G1 X126.659 Y127.075 E44.37267
G1 X126.488 Y127.522 E44.38859
G1 X126.432 Y128 E44.40459
G1 X126.488 Y128.477 E44.42057
G1 X126.661 Y128.928 E44.43663
G1 X126.933 Y129.326 E44.45267
G1 X127.295 Y129.646 E44.46874
G1 X127.722 Y129.87 E44.48477
G1 X128.19 Y129.983 E44.50079
G1 X128.668 Y129.983 E44.51669
G1 X129.136 Y129.87 E44.5327
G1 X129.563 Y129.646 E44.54874
G1 X129.925 Y129.326 E44.56481
G1 X130.197 Y128.928 E44.58084
G1 X130.37 Y128.477 E44.59691
G1 X130.426 Y128 E44.61288
G1 X130.37 Y127.523 E44.62885
G1 X130.197 Y127.072 E44.64492
G1 X129.925 Y126.674 E44.66095
G1 X129.563 Y126.354 E44.67702
G1 X129.136 Y126.13 E44.69306
G1 X128.668 Y126.017 E44.70907
G1 X128.19 Y126.017 E44.72497
G0 F3600 X127.91 Y126.267
G0 X120.152 Y133.729
G1 F2400 X119.769 Y133.346 E44.74299
G0 F3600 X119.769 Y132.78
G1 F2400 X120.718 Y133.729 E44.78763
G1 X120.788 Y133.799
G0 F3600 X121.284 Y133.729
G1 F2400 X119.769 Y132.214 E44.85889
G1 X119.699 Y132.144
G0 F3600 X119.769 Y131.649
G1 F2400 X121.85 Y133.729 E44.95675
G1 X121.92 Y133.799
G0 F3600 X122.415 Y133.729
G1 F2400 X119.769 Y131.083 E45.08121
G1 X119.699 Y131.013
G0 F3600 X119.769 Y130.517
G1 F2400 X122.981 Y133.729 E45.23229
G1 X123.051 Y133.799
G0 F3600 X123.547 Y133.729
G1 F2400 X119.769 Y129.952 E45.40997
G1 X119.699 Y129.882
G0 F3600 X119.769 Y129.386
G1 F2400 X124.112 Y133.729 E45.61425
G1 X124.182 Y133.799
G0 F3600 X124.678 Y133.729
G1 F2400 X119.769 Y128.82 E45.84516
G1 X119.699 Y128.75
G0 F3600 X119.769 Y128.255
G1 F2400 X125.244 Y133.729 E46.10266
G1 X125.314 Y133.799
G0 F3600 X125.809 Y133.729
G1 F2400 X119.769 Y127.689 E46.38676
G1 X119.699 Y127.619
G0 F3600 X119.769 Y127.123
G1 F2400 X126.375 Y133.729 E46.69749
G1 X126.445 Y133.799
G0 F3600 X126.941 Y133.729
G1 F2400 X119.769 Y126.557 E47.03484
G1 X119.699 Y126.487
G0 F3600 X119.769 Y125.992
G1 F2400 X127.506 Y133.729 E47.39876
G1 X127.576 Y133.799
