;FLAVOR:Marlin
;TIME:673
;Filament used: 0.732217m
;Layer height: 0.2
;Generated with Cura_SteamEngine 3.3.0-BETA
M104 S200
M109 S200
M82 ;absolute extrusion mode
; -- START GCODE --
G21                     ;set units to millimetres
G90                     ;set to absolute positioning
M106 S0                 ;set fan speed to zero (turned off)
G28 X0 Y0               ;move to the X/Y origin (Home)
G28 Z0                  ;move to the Z origin (Home)
G1 Z15.0 F1200          ;move Z to position 15.0 mm
G92 E0                  ;zero the extruded length
G1 E20 F200             ;extrude 20mm of feed stock
G92 E0                  ;zero the extruded length again
G1 F7200                ;set feedrate to 120 mm/s
; -- end of START GCODE --
G92 E0
G1 F2700 E-6.5
;LAYER_COUNT:71
;LAYER:0
M107
G0 F3600 X133.865 Y98.058 Z0.2
;TYPE:SKIRT
G1 F2700 E0
G1 F2400 X134.2 Y97.603 E0.01879
G1 X134.421 Y97.363 E0.02964
G1 X134.875 Y96.91 E0.05098
G1 X135.302 Y96.54 E0.06977
G1 X135.578 Y96.351 E0.08089
G1 X136.131 Y96.005 E0.10259
G1 X136.631 Y95.74 E0.12141
G1 X136.941 Y95.617 E0.1325
G1 X137.56 Y95.402 E0.1543
G1 X138.105 Y95.255 E0.17307
G1 X138.43 Y95.205 E0.18401
G1 X139.051 Y95.136 E0.20479
G1 X139.493 Y95.112 E0.21951
G1 X157.51 Y95.111 E0.81876
G1 X158.031 Y95.145 E0.83613
G1 X158.732 Y95.237 E0.85964
G1 X159.549 Y95.433 E0.88759
G1 X160.09 Y95.625 E0.90668
G1 X160.608 Y95.852 E0.92549
G1 X160.885 Y96.011 E0.93611
G1 X161.429 Y96.354 E0.9575
G1 X161.885 Y96.689 E0.97632
G1 X162.195 Y96.982 E0.99051
G1 X162.716 Y97.53 E1.01566
G1 X163.214 Y98.174 E1.04274
G1 X163.5 Y98.634 E1.06075
G1 X163.764 Y99.134 E1.07956
G1 X163.882 Y99.436 E1.09034
G1 X164.099 Y100.062 E1.11238
G1 X164.246 Y100.608 E1.13118
G1 X164.296 Y100.938 E1.14229
G1 X164.366 Y101.58 E1.16377
G1 X164.39 Y102.015 E1.17826
G1 X164.388 Y108.021 E1.37802
G1 X164.357 Y108.514 E1.39445
G1 X164.274 Y109.181 E1.4168
G1 X164.165 Y109.736 E1.43561
G1 X163.964 Y110.304 E1.45565
G1 X163.588 Y111.155 E1.4866
G1 X163.323 Y111.654 E1.50539
G1 X162.876 Y112.243 E1.52998
G1 X162.161 Y113.022 E1.56515
G1 X161.75 Y113.41 E1.58395
G1 X161.325 Y113.715 E1.60135
G1 X160.863 Y114.002 E1.61944
G1 X160.363 Y114.265 E1.63823
G1 X160.022 Y114.397 E1.65039
G1 X159.362 Y114.618 E1.67354
G1 X158.815 Y114.759 E1.69233
G1 X158.514 Y114.803 E1.70245
G1 X157.892 Y114.869 E1.72325
G1 X157.47 Y114.891 E1.7373
G1 X139.491 Y114.889 E2.33529
G1 X138.971 Y114.855 E2.35262
G1 X138.269 Y114.763 E2.37617
G1 X137.451 Y114.567 E2.40415
G1 X136.91 Y114.375 E2.42324
G1 X136.392 Y114.148 E2.44205
G1 X136.018 Y113.926 E2.45652
G1 X135.388 Y113.503 E2.48175
G1 X134.767 Y112.988 E2.50859
G1 X134.39 Y112.605 E2.52646
G1 X134.023 Y112.175 E2.54526
G1 X133.856 Y111.93 E2.55513
G1 X133.513 Y111.385 E2.57654
G1 X133.246 Y110.886 E2.59537
G1 X133.115 Y110.554 E2.60724
G1 X132.895 Y109.914 E2.62975
G1 X132.75 Y109.368 E2.64854
G1 X132.701 Y109.042 E2.6595
G1 X132.633 Y108.41 E2.68064
G1 X132.61 Y107.972 E2.69523
G1 X132.626 Y101.811 E2.90015
G1 X132.667 Y101.247 E2.91896
G1 X132.749 Y100.838 E2.93283
G1 X133.022 Y99.761 E2.96978
G1 X133.199 Y99.224 E2.98859
G1 X133.518 Y98.607 E3.01169
G1 X133.865 Y98.058 E3.03329
G0 F3600 X134.203 Y98.272
G1 F2400 X134.703 Y97.647 E3.05991
G1 X135.157 Y97.194 E3.08125
G1 X135.564 Y96.844 E3.0991
G1 X135.791 Y96.69 E3.10822
G1 X136.344 Y96.344 E3.12992
G1 X136.818 Y96.094 E3.14774
G1 X137.072 Y95.995 E3.15681
G1 X137.691 Y95.78 E3.1786
G1 X138.474 Y95.603 E3.2053
G1 X139.095 Y95.534 E3.22609
G1 X139.493 Y95.512 E3.23934
G1 X157.51 Y95.511 E3.83859
G1 X157.978 Y95.542 E3.85419
G1 X158.679 Y95.634 E3.87771
G1 X159.415 Y95.81 E3.90288
G1 X159.956 Y96.002 E3.92197
G1 X160.672 Y96.35 E3.94845
G1 X161.216 Y96.693 E3.96984
G1 X161.647 Y97.012 E3.98767
G1 X161.905 Y97.258 E3.99953
G1 X162.426 Y97.806 E4.02468
G1 X162.874 Y98.385 E4.04903
G1 X163.16 Y98.845 E4.06704
G1 X163.504 Y99.567 E4.09364
G1 X163.721 Y100.193 E4.11568
G1 X163.859 Y100.711 E4.13351
G1 X163.899 Y100.982 E4.14262
G1 X163.969 Y101.624 E4.1641
G1 X163.99 Y102.015 E4.17712
G1 X163.988 Y108.021 E4.37688
G1 X163.96 Y108.465 E4.39168
G1 X163.877 Y109.132 E4.41404
G1 X163.772 Y109.657 E4.43184
G1 X163.598 Y110.142 E4.44898
G1 X163.222 Y110.993 E4.47993
G1 X162.969 Y111.466 E4.49777
G1 X162.581 Y111.972 E4.51897
G1 X161.866 Y112.751 E4.55414
G1 X161.475 Y113.118 E4.57198
G1 X161.114 Y113.375 E4.58672
G1 X160.652 Y113.662 E4.60481
G1 X160.176 Y113.91 E4.62266
G1 X159.895 Y114.018 E4.63267
G1 X159.235 Y114.239 E4.65582
G1 X158.472 Y114.405 E4.68179
G1 X157.85 Y114.471 E4.7026
G1 X157.47 Y114.491 E4.71525
G1 X139.491 Y114.489 E5.31324
G1 X139.023 Y114.458 E5.32884
G1 X138.321 Y114.366 E5.35239
G1 X137.585 Y114.19 E5.37755
G1 X137.044 Y113.998 E5.39665
G1 X136.553 Y113.781 E5.4145
G1 X136.241 Y113.594 E5.4266
G1 X135.611 Y113.171 E5.45184
G1 X135.052 Y112.707 E5.476
G1 X134.675 Y112.324 E5.49388
G1 X134.194 Y111.717 E5.51964
G1 X133.851 Y111.172 E5.54105
G1 X133.6 Y110.698 E5.55889
G1 X133.494 Y110.424 E5.56867
G1 X133.274 Y109.784 E5.59117
G1 X133.137 Y109.266 E5.609
G1 X133.099 Y108.999 E5.61797
G1 X133.031 Y108.367 E5.63911
G1 X133.01 Y107.973 E5.65223
G1 X133.026 Y101.812 E5.85715
G1 X133.067 Y101.277 E5.87499
G1 X133.136 Y100.936 E5.88656
G1 X133.409 Y99.859 E5.92352
G1 X133.579 Y99.351 E5.94134
G1 X133.856 Y98.821 E5.96123
G1 X134.203 Y98.272 E5.98283
G0 F3600 X134.541 Y98.485
G1 F2400 X134.986 Y97.93 E6.00649
G1 X135.44 Y97.477 E6.02782
G1 X136.003 Y97.029 E6.05175
G1 X136.556 Y96.683 E6.07345
G1 X137.203 Y96.373 E6.09731
G1 X137.822 Y96.158 E6.1191
G1 X138.519 Y96.001 E6.14287
G1 X139.14 Y95.932 E6.16365
G1 X139.493 Y95.912 E6.17541
G1 X157.51 Y95.911 E6.77465
G1 X157.926 Y95.938 E6.78852
G1 X158.627 Y96.03 E6.81204
G1 X159.281 Y96.187 E6.83441
G1 X159.822 Y96.379 E6.8535
G1 X160.459 Y96.688 E6.87705
G1 X161.003 Y97.031 E6.89844
G1 X161.408 Y97.334 E6.91526
G1 X161.615 Y97.533 E6.92481
G1 X162.136 Y98.081 E6.94996
G1 X162.535 Y98.596 E6.97163
G1 X162.821 Y99.056 E6.98964
G1 X163.126 Y99.698 E7.01328
G1 X163.343 Y100.324 E7.03532
G1 X163.501 Y101.025 E7.05922
G1 X163.571 Y101.667 E7.0807
G1 X163.59 Y102.015 E7.09229
G1 X163.588 Y108.021 E7.29205
G1 X163.564 Y108.415 E7.30518
G1 X163.481 Y109.082 E7.32754
G1 X163.379 Y109.577 E7.34435
G1 X163.232 Y109.98 E7.35861
G1 X162.856 Y110.831 E7.38956
G1 X162.616 Y111.276 E7.40637
G1 X162.287 Y111.702 E7.42428
G1 X161.572 Y112.481 E7.45944
G1 X161.201 Y112.825 E7.47627
G1 X160.903 Y113.035 E7.4884
G1 X160.441 Y113.322 E7.50649
G1 X159.768 Y113.638 E7.53122
G1 X159.108 Y113.859 E7.55437
G1 X158.43 Y114.007 E7.57745
G1 X157.808 Y114.073 E7.59825
G1 X157.47 Y114.091 E7.60951
G1 X139.491 Y114.089 E8.20749
G1 X139.075 Y114.062 E8.22136
G1 X138.373 Y113.97 E8.24491
G1 X137.719 Y113.813 E8.26728
G1 X137.178 Y113.621 E8.28637
G1 X136.716 Y113.415 E8.30319
G1 X136.464 Y113.262 E8.313
G1 X135.834 Y112.839 E8.33824
G1 X135.337 Y112.427 E8.35971
G1 X134.96 Y112.044 E8.37758
G1 X134.533 Y111.503 E8.40051
G1 X134.19 Y110.958 E8.42193
G1 X133.872 Y110.294 E8.44641
G1 X133.652 Y109.654 E8.46892
G1 X133.496 Y108.956 E8.49271
G1 X133.428 Y108.324 E8.51385
G1 X133.41 Y107.974 E8.52551
G1 X133.426 Y101.813 E8.73042
G1 X133.467 Y101.309 E8.74724
G1 X133.524 Y101.035 E8.75655
G1 X133.797 Y99.958 E8.79351
G1 X133.96 Y99.479 E8.81033
G1 X134.194 Y99.034 E8.82706
G1 X134.541 Y98.485 E8.84866
G1 F2700 E2.34866
G0 F3600 X139.386 Y98.446
G0 X139.531 Y99.721
G0 X157.99 Y99.859
G0 X158.012 Y99.762
;TYPE:WALL-INNER
G1 F2700 E8.84866
G1 F2400 X158.498 Y99.932 E8.86578
G1 X158.929 Y100.204 E8.88273
G1 X159.296 Y100.571 E8.9
G1 X159.568 Y101.002 E8.91695
G1 X159.739 Y101.492 E8.93421
G1 X159.8 Y102.031 E8.95225
G1 X159.8 Y107.969 E9.14975
G1 X159.739 Y108.508 E9.16779
G1 X159.568 Y108.998 E9.18505
G1 X159.296 Y109.429 E9.202
G1 X158.929 Y109.796 E9.21927
G1 X158.498 Y110.068 E9.23622
G1 X158.012 Y110.238 E9.25334
G1 X157.458 Y110.3 E9.27188
G1 X139.542 Y110.3 E9.86777
G1 X138.988 Y110.238 E9.88631
G1 X138.502 Y110.068 E9.90344
G1 X138.071 Y109.796 E9.92039
G1 X137.704 Y109.429 E9.93765
G1 X137.432 Y108.998 E9.9546
G1 X137.261 Y108.508 E9.97186
G1 X137.2 Y107.969 E9.98991
G1 X137.2 Y105.888 E10.05912
G1 X137.2 Y105.477 E10.07279
G1 X137.2 Y104.523 E10.10452
G1 X137.2 Y104.112 E10.11819
G1 X137.2 Y102.077 E10.18587
G1 X137.261 Y101.491 E10.20547
G1 X137.428 Y101.011 E10.22237
G1 X137.701 Y100.576 E10.23945
G1 X138.068 Y100.208 E10.25674
G1 X138.5 Y99.935 E10.27374
G1 X138.987 Y99.765 E10.29089
G1 X139.53 Y99.702 E10.30908
G1 X157.458 Y99.7 E10.90536
G1 X158.012 Y99.762 E10.9239
G0 F3600 X157.99 Y99.859
G0 X158.834 Y104.64
G0 X158.834 Y105.36
G0 X158.661 Y106.062
G0 X158.326 Y106.7
G0 X157.847 Y107.241
G0 X157.512 Y107.473
G0 X156.592 Y107.967
G0 X156.569 Y107.87
G1 F2400 X157.236 Y107.616 E10.94764
G1 X157.821 Y107.212 E10.97129
G1 X158.294 Y106.678 E10.99502
G1 X158.624 Y106.048 E11.01867
G1 X158.795 Y105.356 E11.04238
G1 X158.795 Y104.644 E11.06606
G1 X158.624 Y103.952 E11.08977
G1 X158.294 Y103.322 E11.11342
G1 X157.821 Y102.788 E11.13715
G1 X157.236 Y102.384 E11.16079
G1 X156.569 Y102.13 E11.18453
G1 X155.927 Y102.053 E11.20604
G1 X141.408 Y101.047 E11.6901
G1 X140.48 Y101.159 E11.72119
G1 X139.588 Y101.498 E11.75293
G1 X138.803 Y102.039 E11.78464
G1 X138.17 Y102.754 E11.8164
G1 X137.728 Y103.598 E11.84809
G1 X137.598 Y104.124 E11.86611
G1 X137.5 Y104.523 E11.87808
G1 X137.5 Y105.477 E11.90187
G1 X137.598 Y105.876 E11.91384
G1 X137.728 Y106.402 E11.93186
G1 X138.17 Y107.246 E11.96355
G1 X138.803 Y107.961 E11.99531
G1 X139.588 Y108.502 E12.02702
G1 X140.48 Y108.841 E12.05876
G1 X141.408 Y108.953 E12.08985
G1 X155.927 Y107.947 E12.57391
G1 X156.569 Y107.87 E12.59542
G0 F3600 X156.472 Y107.479
;TYPE:WALL-OUTER
G1 F2400 X157.048 Y107.259 E12.61592
G1 X157.554 Y106.91 E12.63637
G1 X157.962 Y106.449 E12.65684
G1 X158.247 Y105.905 E12.67727
G1 X158.395 Y105.307 E12.69776
G1 X158.395 Y104.693 E12.71818
G1 X158.247 Y104.095 E12.73867
G1 X157.962 Y103.551 E12.7591
G1 X157.554 Y103.09 E12.77957
G1 X157.048 Y102.741 E12.80002
G1 X156.472 Y102.521 E12.82053
G1 X155.889 Y102.451 E12.84006
G1 X141.418 Y101.449 E13.32252
G1 X140.576 Y101.55 E13.35072
G1 X139.775 Y101.855 E13.37923
G1 X139.07 Y102.341 E13.40771
G1 X138.502 Y102.983 E13.43622
G1 X138.105 Y103.741 E13.46468
G1 X137.9 Y104.572 E13.49315
G1 X137.9 Y105.428 E13.52162
G1 X138.105 Y106.259 E13.55008
G1 X138.502 Y107.017 E13.57854
G1 X139.07 Y107.659 E13.60706
G1 X139.775 Y108.145 E13.63554
G1 X140.576 Y108.45 E13.66404
G1 X141.418 Y108.551 E13.69225
G1 X155.889 Y107.549 E14.17471
G1 X156.472 Y107.479 E14.19424
G0 F3600 X156.659 Y107.408
G0 X156.836 Y107.875
G0 X157.847 Y107.241
G0 X158.326 Y106.7
G0 X158.661 Y106.062
G0 X158.834 Y105.36
G0 X158.834 Y104.777
G0 X157.99 Y99.859
G0 X158.101 Y99.369
G1 F2400 X158.669 Y99.568 E14.21426
G1 X159.183 Y99.892 E14.23446
G1 X159.608 Y100.317 E14.25446
G1 X159.932 Y100.831 E14.27466
G1 X160.131 Y101.399 E14.29468
G1 X160.2 Y102.013 E14.31523
G1 X160.2 Y107.987 E14.51393
G1 X160.131 Y108.601 E14.53448
G1 X159.932 Y109.169 E14.5545
G1 X159.608 Y109.683 E14.5747
G1 X159.183 Y110.108 E14.5947
G1 X158.669 Y110.432 E14.6149
G1 X158.101 Y110.631 E14.63492
G1 X157.485 Y110.7 E14.65554
G1 X139.515 Y110.7 E15.25322
G1 X138.899 Y110.631 E15.27384
G1 X138.331 Y110.432 E15.29386
G1 X137.817 Y110.108 E15.31407
G1 X137.392 Y109.683 E15.33406
G1 X137.068 Y109.169 E15.35426
G1 X136.869 Y108.601 E15.37428
G1 X136.8 Y107.987 E15.39483
G1 X136.8 Y102.054 E15.59216
G1 X136.868 Y101.404 E15.6139
G1 X137.065 Y100.838 E15.63383
G1 X137.387 Y100.324 E15.65401
G1 X137.816 Y99.894 E15.67421
G1 X138.326 Y99.572 E15.69427
G1 X138.894 Y99.373 E15.71429
G1 X139.51 Y99.302 E15.73491
G1 X157.485 Y99.3 E16.33276
G1 X158.101 Y99.369 E16.35338
G0 F3600 X158.29 Y99.435
G0 X157.926 Y100.145
;TYPE:SKIN
G1 F2400 X158.327 Y100.286 E16.36752
G1 X158.689 Y100.514 E16.38175
G1 X158.986 Y100.811 E16.39572
G1 X159.214 Y101.173 E16.40995
G1 X159.356 Y101.578 E16.42422
G1 X159.41 Y102.056 E16.44022
G1 X159.41 Y107.944 E16.63606
G1 X159.356 Y108.422 E16.65206
G1 X159.214 Y108.827 E16.66633
G1 X158.986 Y109.189 E16.68056
G1 X158.689 Y109.486 E16.69453
G1 X158.327 Y109.714 E16.70876
G1 X157.926 Y109.855 E16.7229
G1 X157.433 Y109.91 E16.7394
G1 X139.567 Y109.91 E17.33362
G1 X139.074 Y109.855 E17.35012
G1 X138.673 Y109.714 E17.36426
G1 X138.311 Y109.486 E17.37849
G1 X138.014 Y109.189 E17.39246
G1 X137.786 Y108.827 E17.40669
G1 X137.644 Y108.422 E17.42096
G1 X137.59 Y107.944 E17.43696
G1 X137.59 Y106.979 E17.46906
G1 X137.846 Y107.469 E17.48744
G1 X138.542 Y108.255 E17.52236
G1 X139.405 Y108.849 E17.55721
G1 X140.386 Y109.223 E17.59213
G1 X141.398 Y109.345 E17.62603
G1 X155.964 Y108.335 E18.11166
G1 X156.663 Y108.252 E18.13507
G1 X157.419 Y107.963 E18.16199
G1 X158.082 Y107.506 E18.18877
G1 X158.618 Y106.901 E18.21566
G1 X158.991 Y106.187 E18.24245
G1 X159.185 Y105.403 E18.26931
G1 X159.185 Y104.597 E18.29612
G1 X158.991 Y103.813 E18.32298
G1 X158.618 Y103.099 E18.34978
G1 X158.082 Y102.494 E18.37666
G1 X157.419 Y102.037 E18.40344
G1 X156.663 Y101.748 E18.43036
G1 X155.964 Y101.665 E18.45377
G1 X141.398 Y100.655 E18.9394
G1 X140.386 Y100.777 E18.97331
G1 X139.405 Y101.151 E19.00823
G1 X138.542 Y101.745 E19.04307
G1 X137.846 Y102.531 E19.07799
G1 X137.59 Y103.021 E19.09638
G1 X137.59 Y102.098 E19.12708
G1 X137.645 Y101.574 E19.1446
G1 X137.782 Y101.18 E19.15847
G1 X138.006 Y100.823 E19.17249
G1 X138.314 Y100.514 E19.187
G1 X138.671 Y100.289 E19.20104
G1 X139.072 Y100.149 E19.21517
G1 X139.557 Y100.092 E19.23141
G1 X157.433 Y100.09 E19.82597
G1 X157.926 Y100.145 E19.84246
G0 F3600 X158.096 Y100.396
G1 F2400 X159.103 Y101.403 E19.88983
G1 X159.173 Y101.473
G0 F3600 X159.229 Y102.094
G1 F2400 X157.405 Y100.271 E19.9756
G1 X157.335 Y100.201
G0 F3600 X156.839 Y100.271
G1 F2400 X159.229 Y102.66 E20.088
G1 X159.299 Y102.73
G0 F3600 X159.229 Y103.226
G1 F2400 X156.274 Y100.271 E20.22699
G1 X156.204 Y100.201
G0 F3600 X155.708 Y100.271
G1 F2400 X157.197 Y101.76 E20.29703
G1 X157.267 Y101.83
G0 F3600 X156.408 Y101.536
G1 F2400 X155.142 Y100.271 E20.35656
G1 X155.072 Y100.201
G0 F3600 X154.577 Y100.271
G1 F2400 X155.777 Y101.471 E20.413
G1 X155.847 Y101.541
G0 F3600 X155.169 Y101.429
G1 F2400 X154.011 Y100.271 E20.46747
G1 X153.941 Y100.201
G0 F3600 X153.445 Y100.271
G1 F2400 X154.561 Y101.387 E20.51996
G1 X154.631 Y101.457
G0 F3600 X153.954 Y101.345
G1 F2400 X152.88 Y100.271 E20.57048
G1 X152.81 Y100.201
G0 F3600 X152.314 Y100.271
G1 F2400 X153.346 Y101.302 E20.619
G1 X153.416 Y101.372
G0 F3600 X152.738 Y101.261
G1 F2400 X151.748 Y100.271 E20.66556
G1 X151.678 Y100.201
G0 F3600 X151.182 Y100.271
G1 F2400 X152.13 Y101.218 E20.71013
G1 X152.2 Y101.288
G0 F3600 X151.522 Y101.176
G1 F2400 X150.617 Y100.271 E20.7527
G1 X150.547 Y100.201
G0 F3600 X150.051 Y100.271
G1 F2400 X150.914 Y101.134 E20.79329
G1 X150.984 Y101.204
G0 F3600 X150.306 Y101.092
G1 F2400 X149.485 Y100.271 E20.83191
G1 X149.415 Y100.201
G0 F3600 X148.92 Y100.271
G1 F2400 X149.698 Y101.049 E20.86851
G1 X149.768 Y101.119
G0 F3600 X149.091 Y101.008
G1 F2400 X148.355 Y100.271 E20.90315
G1 X148.285 Y100.201
G0 F3600 X147.789 Y100.271
G1 F2400 X148.483 Y100.965 E20.93579
G1 X148.553 Y101.035
G0 F3600 X147.875 Y100.923
G1 F2400 X147.223 Y100.271 E20.96646
G1 X147.153 Y100.201
G0 F3600 X146.658 Y100.271
G1 F2400 X147.267 Y100.881 E20.99513
G1 X147.337 Y100.951
G0 F3600 X146.659 Y100.839
G1 F2400 X146.092 Y100.271 E21.02182
G1 X146.022 Y100.201
G0 F3600 X145.789 Y100.534
G1 F2400 X145.202 Y100.512 E21.04551
G1 X144.615 Y100.491 E21.06725
G1 X144.028 Y100.47 E21.08703
G1 X143.442 Y100.449 E21.10477
G1 X142.855 Y100.428 E21.12055
G1 X142.268 Y100.407 E21.13432
G1 X141.681 Y100.386 E21.14614
G1 X141.112 Y100.382 E21.15674
G1 X140.577 Y100.413 E21.16864
G1 X140.053 Y100.455 E21.18398
G1 X139.579 Y100.547 E21.20437
G0 F3600 X138.875 Y100.408
G1 F2400 X139.418 Y100.952 E21.22994
G0 F3600 X139.065 Y101.164
G1 F2400 X138.506 Y100.605 E21.25623
G0 F3600 X138.208 Y100.873
G1 F2400 X138.73 Y101.394 E21.28076
G0 F3600 X138.188 Y101.418
