;FLAVOR:Marlin
;TIME:448
;Filament used: 0.421557m
;Layer height: 0.2
;Generated with Cura_SteamEngine 3.3.0-BETA
M104 S200
M109 S200
M82 ;absolute extrusion mode
; -- START GCODE --
G21                     ;set units to millimetres
G90                     ;set to absolute positioning
M106 S0                 ;set fan speed to zero (turned off)
G28 X0 Y0               ;move to the X/Y origin (Home)
G28 Z0                  ;move to the Z origin (Home)
G1 Z15.0 F1200          ;move Z to position 15.0 mm
G92 E0                  ;zero the extruded length
G1 E20 F200             ;extrude 20mm of feed stock
G92 E0                  ;zero the extruded length again
G1 F7200                ;set feedrate to 120 mm/s
; -- end of START GCODE --
G92 E0
G1 F2700 E-6.5
;LAYER_COUNT:37
;LAYER:0
M107
G0 F3600 X126.431 Y96.087 Z0.2
;TYPE:SKIRT
G1 F2700 E0
G1 F2400 X126.764 Y95.667 E0.01783
G1 X127.156 Y95.301 E0.03566
G1 X127.598 Y94.998 E0.05349
G1 X128.081 Y94.763 E0.07135
G1 X128.592 Y94.603 E0.08916
G1 X129.122 Y94.52 E0.10701
G1 X129.407 Y94.509 E0.11649
G1 X143.991 Y94.5 E0.60156
G1 X144.034 Y94.5 E0.60299
G1 X149.89 Y94.567 E0.79777
G1 X152.514 Y94.501 E0.88507
G1 X152.607 Y94.5 E0.88817
G1 X167.593 Y94.51 E1.3866
G1 X168.128 Y94.55 E1.40445
G1 X168.651 Y94.67 E1.4223
G1 X169.15 Y94.865 E1.44011
G1 X169.615 Y95.133 E1.45796
G1 X170.035 Y95.467 E1.47581
G1 X170.4 Y95.859 E1.49363
G1 X170.704 Y96.301 E1.51147
G1 X170.938 Y96.784 E1.52932
G1 X171.098 Y97.296 E1.54716
G1 X171.18 Y97.826 E1.565
G1 X171.191 Y98.11 E1.57445
G1 X171.191 Y111.891 E2.03281
G1 X171.151 Y112.426 E2.05065
G1 X171.032 Y112.949 E2.06849
G1 X170.837 Y113.448 E2.08631
G1 X170.569 Y113.913 E2.10416
G1 X170.236 Y114.333 E2.12199
G1 X169.844 Y114.699 E2.13983
G1 X169.402 Y115.002 E2.15765
G1 X168.919 Y115.237 E2.17552
G1 X168.408 Y115.397 E2.19333
G1 X167.878 Y115.48 E2.21117
G1 X167.593 Y115.491 E2.22066
G1 X153.009 Y115.5 E2.70572
G1 X152.925 Y115.499 E2.70852
G1 X149.884 Y115.43 E2.80969
G1 X129.42 Y115.491 E3.49032
G1 X128.885 Y115.453 E3.50816
G1 X128.362 Y115.335 E3.526
G1 X127.861 Y115.141 E3.54386
G1 X127.396 Y114.875 E3.56168
G1 X126.975 Y114.543 E3.57952
G1 X126.608 Y114.152 E3.59735
G1 X126.303 Y113.711 E3.61518
G1 X126.067 Y113.229 E3.63303
G1 X125.905 Y112.718 E3.65086
G1 X125.821 Y112.188 E3.66871
G1 X125.809 Y111.891 E3.6786
G1 X125.809 Y98.109 E4.13699
G1 X125.849 Y97.574 E4.15483
G1 X125.968 Y97.051 E4.17267
G1 X126.163 Y96.552 E4.19049
G1 X126.431 Y96.087 E4.20834
G0 F3600 X126.828 Y96.217
G1 F2400 X127.158 Y95.834 E4.22516
G1 X127.545 Y95.508 E4.24199
G1 X127.978 Y95.247 E4.2588
G1 X128.446 Y95.057 E4.2756
G1 X128.939 Y94.944 E4.29243
G1 X129.407 Y94.909 E4.30803
G1 X143.991 Y94.9 E4.7931
G1 X144.03 Y94.9 E4.7944
G1 X149.896 Y94.967 E4.98951
G1 X152.524 Y94.901 E5.07695
G1 X152.607 Y94.9 E5.07971
G1 X167.593 Y94.91 E5.57815
G1 X168.097 Y94.95 E5.59496
G1 X168.588 Y95.069 E5.61177
G1 X169.055 Y95.264 E5.6286
G1 X169.485 Y95.531 E5.64543
G1 X169.867 Y95.861 E5.66222
G1 X170.193 Y96.248 E5.67905
G1 X170.454 Y96.681 E5.69587
G1 X170.643 Y97.149 E5.71266
G1 X170.757 Y97.642 E5.72949
G1 X170.791 Y98.11 E5.74509
G1 X170.791 Y111.891 E6.20345
G1 X170.751 Y112.395 E6.22027
G1 X170.632 Y112.886 E6.23707
G1 X170.438 Y113.353 E6.25389
G1 X170.172 Y113.783 E6.27071
G1 X169.842 Y114.166 E6.28752
G1 X169.455 Y114.492 E6.30435
G1 X169.022 Y114.753 E6.32117
G1 X168.554 Y114.943 E6.33797
G1 X168.061 Y115.056 E6.35479
G1 X167.593 Y115.091 E6.3704
G1 X153.009 Y115.1 E6.85546
G1 X152.935 Y115.099 E6.85793
G1 X149.893 Y115.03 E6.95913
G1 X129.419 Y115.091 E7.6401
G1 X128.914 Y115.053 E7.65694
G1 X128.423 Y114.935 E7.67374
G1 X127.956 Y114.742 E7.69055
G1 X127.525 Y114.477 E7.70737
G1 X127.141 Y114.148 E7.72419
G1 X126.814 Y113.763 E7.74099
G1 X126.551 Y113.331 E7.75781
G1 X126.36 Y112.863 E7.77463
G1 X126.245 Y112.37 E7.79146
G1 X126.209 Y111.891 E7.80744
G1 X126.209 Y98.109 E8.26583
G1 X126.249 Y97.605 E8.28265
G1 X126.368 Y97.114 E8.29945
G1 X126.562 Y96.647 E8.31627
G1 X126.828 Y96.217 E8.33309
G1 F2700 E1.83309
G0 F3600 X128.735 Y98.714
G0 X130.014 Y98.714
G0 X135.027 Y103.861
G0 X135.101 Y103.928
;TYPE:WALL-INNER
G1 F2700 E8.33309
G1 F2400 X134.879 Y104.256 E8.34626
G1 X134.741 Y104.616 E8.35908
G1 X134.695 Y105 E8.37195
G1 X134.741 Y105.383 E8.38478
G1 X134.879 Y105.746 E8.39769
G1 X135.098 Y106.065 E8.41056
G1 X135.389 Y106.322 E8.42348
G1 X135.732 Y106.502 E8.43636
G1 X136.108 Y106.593 E8.44923
G1 X136.492 Y106.593 E8.462
G1 X136.868 Y106.502 E8.47487
G1 X137.211 Y106.322 E8.48775
G1 X137.502 Y106.065 E8.50066
G1 X137.721 Y105.746 E8.51353
G1 X137.859 Y105.383 E8.52645
G1 X137.905 Y105 E8.53928
G1 X137.859 Y104.617 E8.55211
G1 X137.721 Y104.254 E8.56503
G1 X137.502 Y103.935 E8.5779
G1 X137.211 Y103.678 E8.59081
G1 X136.868 Y103.498 E8.60369
G1 X136.492 Y103.407 E8.61656
G1 X136.108 Y103.407 E8.62933
G1 X135.731 Y103.499 E8.64224
G1 X135.416 Y103.665 E8.65408
G1 X135.101 Y103.928 E8.66773
G0 F3600 X135.027 Y103.861
G0 X135.717 Y103.462
G0 X136.104 Y103.368
G0 X136.496 Y103.368
G0 X136.882 Y103.461
G0 X137.233 Y103.646
G0 X137.317 Y103.72
G0 X144.03 Y111.23
G0 X144.1 Y111.3
G1 F2400 X130 Y111.3 E9.1367
G1 X130 Y98.7 E9.55577
G1 X144.1 Y98.7 E10.02474
G1 X144.1 Y111.3 E10.44382
G0 F3600 X144.5 Y111.7
;TYPE:WALL-OUTER
G1 F2400 X129.6 Y111.7 E10.9394
G1 X129.6 Y98.3 E11.38508
G1 X144.5 Y98.3 E11.88066
G1 X144.5 Y111.7 E12.32634
G0 F3600 X144.3 Y111.7
G0 X144.03 Y111.23
G0 X137.531 Y103.909
G0 X137.233 Y103.646
G0 X136.882 Y103.461
G0 X136.496 Y103.368
G0 X136.104 Y103.368
G0 X135.885 Y103.42
G0 X135.081 Y103.816
G0 X135.401 Y104.199
G1 F2400 X135.236 Y104.442 E12.33611
G1 X135.132 Y104.713 E12.34577
G1 X135.098 Y105 E12.35538
G1 X135.132 Y105.287 E12.36499
G1 X135.236 Y105.559 E12.37468
G1 X135.4 Y105.798 E12.38432
G1 X135.618 Y105.99 E12.39398
G1 X135.874 Y106.125 E12.40361
G1 X136.156 Y106.193 E12.41325
G1 X136.444 Y106.193 E12.42283
G1 X136.726 Y106.125 E12.43248
G1 X136.982 Y105.99 E12.44211
G1 X137.2 Y105.798 E12.45177
G1 X137.364 Y105.559 E12.46141
G1 X137.468 Y105.287 E12.4711
G1 X137.502 Y105 E12.48071
G1 X137.468 Y104.713 E12.49032
G1 X137.364 Y104.441 E12.50001
G1 X137.2 Y104.202 E12.50965
G1 X136.982 Y104.01 E12.51931
G1 X136.726 Y103.875 E12.52893
G1 X136.444 Y103.807 E12.53858
G1 X136.156 Y103.807 E12.54816
G1 X135.874 Y103.876 E12.55782
G1 X135.64 Y103.999 E12.56661
G1 X135.401 Y104.199 E12.57698
G0 F3600 X135.289 Y104.364
G0 X134.877 Y104.083
G0 X134.53 Y104.075
;TYPE:SKIN
G1 F2400 X134.359 Y104.522 E12.59289
G1 X134.303 Y105 E12.6089
G1 X134.359 Y105.477 E12.62487
G1 X134.532 Y105.928 E12.64094
G1 X134.804 Y106.326 E12.65697
G1 X135.166 Y106.646 E12.67304
G1 X135.593 Y106.87 E12.68908
G1 X136.061 Y106.983 E12.7051
G1 X136.539 Y106.983 E12.72099
G1 X137.007 Y106.87 E12.73701
G1 X137.434 Y106.646 E12.75304
G1 X137.796 Y106.326 E12.76911
G1 X138.068 Y105.928 E12.78515
G1 X138.241 Y105.477 E12.80121
G1 X138.297 Y105 E12.81719
G1 X138.241 Y104.523 E12.83316
G1 X138.068 Y104.072 E12.84923
G1 X137.796 Y103.674 E12.86526
G1 X137.434 Y103.354 E12.88133
G1 X137.007 Y103.13 E12.89737
G1 X136.539 Y103.017 E12.91338
G1 X136.061 Y103.017 E12.92928
G1 X135.592 Y103.132 E12.94534
G1 X135.198 Y103.339 E12.96014
G1 X134.809 Y103.664 E12.977
G1 X134.53 Y104.075 E12.99353
G0 F3600 X130.39 Y99.09
G1 F2400 X143.71 Y99.09 E13.43655
G1 X143.71 Y110.91 E13.82969
G1 X130.39 Y110.91 E14.27271
G1 X130.39 Y99.09 E14.66585
G0 F3600 X131.094 Y110.729
G1 F2400 X130.568 Y110.204 E14.69056
G0 F3600 X130.568 Y109.638
G1 F2400 X131.659 Y110.729 E14.74188
G1 X131.729 Y110.799
G0 F3600 X132.225 Y110.729
G1 F2400 X130.568 Y109.072 E14.81982
G1 X130.498 Y109.002
G0 F3600 X130.568 Y108.506
G1 F2400 X132.791 Y110.729 E14.92438
G1 X132.861 Y110.799
G0 F3600 X133.356 Y110.729
G1 F2400 X130.568 Y107.941 E15.05552
G1 X130.498 Y107.871
G0 F3600 X130.568 Y107.375
G1 F2400 X133.922 Y110.729 E15.21329
G1 X133.992 Y110.799
G0 F3600 X134.488 Y110.729
G1 F2400 X130.568 Y106.809 E15.39767
G1 X130.498 Y106.739
G0 F3600 X130.568 Y106.244
G1 F2400 X135.053 Y110.729 E15.60863
G1 X135.123 Y110.799
G0 F3600 X135.619 Y110.729
G1 F2400 X130.568 Y105.678 E15.84621
G1 X130.498 Y105.608
G0 F3600 X130.568 Y105.112
G1 F2400 X136.185 Y110.729 E16.11042
G1 X136.255 Y110.799
G0 F3600 X136.75 Y110.729
G1 F2400 X130.568 Y104.547 E16.4012
G1 X130.498 Y104.477
G0 F3600 X130.568 Y103.981
G1 F2400 X137.316 Y110.729 E16.71861
G1 X137.386 Y110.799
G0 F3600 X137.882 Y110.729
G1 F2400 X130.568 Y103.415 E17.06264
G1 X130.498 Y103.345
G0 F3600 X130.568 Y102.85
G1 F2400 X138.447 Y110.729 E17.43324
G1 X138.517 Y110.799
G0 F3600 X139.013 Y110.729
G1 F2400 X135.098 Y106.814 E17.61739
G1 X135.028 Y106.744
G0 F3600 X134.531 Y106.247
G1 F2400 X130.568 Y102.284 E17.8038
G1 X130.498 Y102.214
G0 F3600 X130.568 Y101.718
G1 F2400 X134.157 Y105.307 E17.97261
G1 X134.227 Y105.377
G0 F3600 X134.152 Y104.736
G1 F2400 X130.568 Y101.153 E18.14117
G1 X130.498 Y101.083
G0 F3600 X130.568 Y100.587
G1 F2400 X134.259 Y104.277 E18.31476
G1 X134.329 Y104.347
G0 F3600 X134.437 Y103.89
G1 F2400 X130.568 Y100.021 E18.49675
G1 X130.498 Y99.951
G0 F3600 X130.568 Y99.455
G1 F2400 X134.666 Y103.553 E18.6895
G1 X134.736 Y103.623
G0 F3600 X134.97 Y103.292
G1 F2400 X130.948 Y99.27 E18.87869
G1 X130.878 Y99.2
G0 F3600 X131.514 Y99.27
G1 F2400 X135.316 Y103.072 E19.05752
G1 X135.386 Y103.142
G0 F3600 X135.723 Y102.913
G1 F2400 X132.079 Y99.27 E19.2289
G1 X132.009 Y99.2
G0 F3600 X132.645 Y99.27
G1 F2400 X136.212 Y102.836 E19.39666
G1 X136.282 Y102.906
G0 F3600 X136.846 Y102.905
G1 F2400 X133.211 Y99.27 E19.56764
G1 X133.141 Y99.2
G0 F3600 X133.776 Y99.27
G1 F2400 X143.529 Y109.022 E20.02636
G1 X143.599 Y109.092
G0 F3600 X143.529 Y109.588
G1 F2400 X138.414 Y104.472 E20.26698
G1 X138.344 Y104.402
G0 F3600 X138.465 Y105.09
G1 F2400 X143.529 Y110.153 E20.50515
G1 X143.599 Y110.223
G0 F3600 X143.529 Y110.719
G1 F2400 X138.392 Y105.582 E20.74678
G1 X138.322 Y105.512
G0 F3600 X138.235 Y105.991
G1 F2400 X142.973 Y110.729 E20.96964
G1 X143.043 Y110.799
G0 F3600 X142.407 Y110.729
G1 F2400 X138.008 Y106.33 E21.17656
G1 X137.938 Y106.26
G0 F3600 X137.733 Y106.621
G1 F2400 X141.842 Y110.729 E21.36981
G1 X141.912 Y110.799
G0 F3600 X141.276 Y110.729
G1 F2400 X137.409 Y106.862 E21.5517
G1 X137.339 Y106.792
G0 F3600 X137.03 Y107.049
G1 F2400 X140.71 Y110.729 E21.7248
G1 X140.78 Y110.799
G0 F3600 X140.145 Y110.729
G1 F2400 X136.575 Y107.159 E21.89272
G1 X136.505 Y107.089
G0 F3600 X136.006 Y107.156
G1 F2400 X139.579 Y110.729 E22.06078
G1 X139.649 Y110.799
G0 F3600 X143.529 Y108.456
G1 F2400 X134.342 Y99.27 E22.49289
G1 X134.272 Y99.2
G0 F3600 X134.908 Y99.27
G1 F2400 X143.529 Y107.891 E22.89839
G1 X143.599 Y107.961
G0 F3600 X143.529 Y107.325
G1 F2400 X135.473 Y99.27 E23.2773
G1 X135.403 Y99.2
G0 F3600 X136.039 Y99.27
G1 F2400 X143.529 Y106.759 E23.62958
G1 X143.599 Y106.829
G0 F3600 X143.529 Y106.194
G1 F2400 X136.605 Y99.27 E23.95526
G1 X136.535 Y99.2
G0 F3600 X137.17 Y99.27
G1 F2400 X143.529 Y105.628 E24.25435
G1 X143.599 Y105.698
G0 F3600 X143.529 Y105.062
G1 F2400 X137.736 Y99.27 E24.52681
G1 X137.666 Y99.2
G0 F3600 X138.302 Y99.27
G1 F2400 X143.529 Y104.496 E24.77265
G1 X143.599 Y104.566
G0 F3600 X143.529 Y103.931
G1 F2400 X138.867 Y99.27 E24.99191
G1 X138.797 Y99.2
G0 F3600 X139.433 Y99.27
G1 F2400 X143.529 Y103.365 E25.18455
G1 X143.599 Y103.435
G0 F3600 X143.529 Y102.799
G1 F2400 X139.999 Y99.27 E25.35057
G1 X139.929 Y99.2
G0 F3600 X140.565 Y99.27
G1 F2400 X143.529 Y102.234 E25.48999
G1 X143.599 Y102.304
G0 F3600 X143.529 Y101.668
G1 F2400 X141.13 Y99.27 E25.6028
G1 X141.06 Y99.2
G0 F3600 X141.696 Y99.27
G1 F2400 X143.529 Y101.102 E25.689
G1 X143.599 Y101.172
G0 F3600 X143.529 Y100.537
G1 F2400 X142.262 Y99.27 E25.74859
G1 X142.192 Y99.2
G0 F3600 X142.827 Y99.27
G1 F2400 X143.529 Y99.971 E25.78159
G1 X143.599 Y100.041
G0 F3600 X143.529 Y99.405
G1 F2400 X143.393 Y99.27 E25.78796
G1 F2700 E19.28796
G0 F3600 X144.08 Y103.861
G0 X145.365 Y103.861
G0 X151.635 Y103.861
G0 X152.92 Y103.861
G0 X159.427 Y103.861
G0 X159.501 Y103.928
;TYPE:WALL-INNER
G1 F2700 E25.78796
G1 F2400 X159.279 Y104.256 E25.80114
G1 X159.141 Y104.616 E25.81396
G1 X159.095 Y105 E25.82682
G1 X159.141 Y105.383 E25.83965
G1 X159.279 Y105.746 E25.85257
G1 X159.498 Y106.065 E25.86544
G1 X159.789 Y106.322 E25.87835
G1 X160.132 Y106.502 E25.89124
G1 X160.508 Y106.593 E25.9041
G1 X160.892 Y106.593 E25.91688
G1 X161.268 Y106.502 E25.92974
G1 X161.611 Y106.322 E25.94263
G1 X161.902 Y106.065 E25.95554
G1 X162.121 Y105.746 E25.96841
G1 X162.259 Y105.383 E25.98132
G1 X162.305 Y105 E25.99416
G1 X162.259 Y104.617 E26.00699
G1 X162.121 Y104.254 E26.0199
G1 X161.902 Y103.935 E26.03277
G1 X161.611 Y103.678 E26.04568
G1 X161.268 Y103.498 E26.05857
G1 X160.892 Y103.407 E26.07143
G1 X160.508 Y103.407 E26.08421
G1 X160.131 Y103.499 E26.09711
G1 X159.816 Y103.665 E26.10896
G1 X159.501 Y103.928 E26.12261
G0 F3600 X159.427 Y103.861
G0 X159.103 Y104.607
G0 X159.055 Y105
G0 X159.103 Y105.392
G0 X159.244 Y105.764
G0 X159.469 Y106.091
G0 X159.553 Y106.165
G0 X166.93 Y111.23
G0 X167 Y111.3
G1 F2400 X152.9 Y111.3 E26.59157
G1 X152.9 Y98.7 E27.01065
G1 X167 Y98.7 E27.47962
G1 X167 Y111.3 E27.8987
G0 F3600 X167.4 Y111.7
;TYPE:WALL-OUTER
G1 F2400 X152.5 Y111.7 E28.39427
G1 X152.5 Y98.3 E28.83996
G1 X167.4 Y98.3 E29.33553
G1 X167.4 Y111.7 E29.78122
G0 F3600 X167.2 Y111.7
G0 X166.93 Y111.23
G0 X161.931 Y103.909
G0 X161.633 Y103.646
G0 X161.282 Y103.461
G0 X160.896 Y103.368
G0 X160.504 Y103.368
G0 X160.285 Y103.42
G0 X159.481 Y103.816
G0 X159.801 Y104.199
G1 F2400 X159.636 Y104.442 E29.79099
G1 X159.532 Y104.713 E29.80064
G1 X159.498 Y105 E29.81026
G1 X159.532 Y105.287 E29.81987
G1 X159.636 Y105.559 E29.82955
G1 X159.8 Y105.798 E29.83919
G1 X160.018 Y105.99 E29.84886
G1 X160.274 Y106.125 E29.85848
G1 X160.556 Y106.193 E29.86813
G1 X160.844 Y106.193 E29.87771
G1 X161.126 Y106.125 E29.88736
G1 X161.382 Y105.99 E29.89698
G1 X161.6 Y105.798 E29.90665
G1 X161.764 Y105.559 E29.91629
G1 X161.868 Y105.287 E29.92597
G1 X161.902 Y105 E29.93558
G1 X161.868 Y104.713 E29.9452
G1 X161.764 Y104.441 E29.95488
G1 X161.6 Y104.202 E29.96452
G1 X161.382 Y104.01 E29.97418
G1 X161.126 Y103.875 E29.98381
G1 X160.844 Y103.807 E29.99346
G1 X160.556 Y103.807 E30.00304
G1 X160.274 Y103.876 E30.01269
G1 X160.04 Y103.999 E30.02149
G1 X159.801 Y104.199 E30.03185
G0 F3600 X159.689 Y104.364
G0 X159.277 Y104.083
G0 X158.93 Y104.075
;TYPE:SKIN
G1 F2400 X158.759 Y104.522 E30.04777
G1 X158.703 Y105 E30.06378
G1 X158.759 Y105.477 E30.07975
G1 X158.932 Y105.928 E30.09582
G1 X159.204 Y106.326 E30.11185
G1 X159.566 Y106.646 E30.12792
G1 X159.993 Y106.87 E30.14396
G1 X160.461 Y106.983 E30.15997
G1 X160.939 Y106.983 E30.17587
G1 X161.407 Y106.87 E30.19188
G1 X161.834 Y106.646 E30.20792
G1 X162.196 Y106.326 E30.22399
G1 X162.468 Y105.928 E30.24002
G1 X162.641 Y105.477 E30.25609
G1 X162.697 Y105 E30.27206
G1 X162.641 Y104.523 E30.28804
G1 X162.468 Y104.072 E30.3041
G1 X162.196 Y103.674 E30.32014
G1 X161.834 Y103.354 E30.33621
G1 X161.407 Y103.13 E30.35225
G1 X160.939 Y103.017 E30.36826
G1 X160.461 Y103.017 E30.38416
G1 X159.992 Y103.132 E30.40022
G1 X159.598 Y103.339 E30.41502
G1 X159.209 Y103.664 E30.43188
G1 X158.93 Y104.075 E30.4484
G0 F3600 X153.29 Y99.09
G1 F2400 X166.61 Y99.09 E30.89143
G1 X166.61 Y110.91 E31.28456
G1 X153.29 Y110.91 E31.72759
G1 X153.29 Y99.09 E32.12072
G0 F3600 X153.722 Y110.73
G1 F2400 X153.469 Y110.476 E32.13265
G0 F3600 X153.469 Y109.911
G1 F2400 X154.287 Y110.73 E32.17115
G1 X154.357 Y110.8
G0 F3600 X154.853 Y110.73
G1 F2400 X153.469 Y109.345 E32.23627
G1 X153.399 Y109.275
G0 F3600 X153.469 Y108.779
G1 F2400 X155.419 Y110.73 E32.32801
G1 X155.489 Y110.8
G0 F3600 X155.984 Y110.73
G1 F2400 X153.469 Y108.214 E32.44634
G1 X153.399 Y108.144
G0 F3600 X153.469 Y107.648
G1 F2400 X156.55 Y110.73 E32.59128
G1 X156.62 Y110.8
G0 F3600 X157.116 Y110.73
G1 F2400 X153.469 Y107.082 E32.76285
G1 X153.399 Y107.012
G0 F3600 X153.469 Y106.517
G1 F2400 X157.681 Y110.73 E32.96099
G1 X157.751 Y110.8
G0 F3600 X158.247 Y110.73
G1 F2400 X153.469 Y105.951 E33.18576
