;FLAVOR:Marlin
;TIME:9737
;Filament used: 10.6969m
;Layer height: 0.2
;Generated with Cura_SteamEngine 3.3.1
M104 S200
M109 S200
M82 ;absolute extrusion mode
; -- START GCODE --
G21                     ;set units to millimetres
G90                     ;set to absolute positioning
M106 S0                 ;set fan speed to zero (turned off)
G28 X0 Y0               ;move to the X/Y origin (Home)
G28 Z0                  ;move to the Z origin (Home)
G1 Z15.0 F1200          ;move Z to position 15.0 mm
G92 E0                  ;zero the extruded length
G1 E20 F200             ;extrude 20mm of feed stock
G92 E0                  ;zero the extruded length again
G1 F7200                ;set feedrate to 120 mm/s
; -- end of START GCODE --
G92 E0
G1 F2700 E-6.5
;LAYER_COUNT:38
;LAYER:0
M107
G0 F3600 X50.273 Y55.189 Z0.2
;TYPE:SKIRT
G1 F2700 E0
G1 F2400 X50.716 Y54.888 E0.01781
G1 X51.2 Y54.656 E0.03567
G1 X51.712 Y54.499 E0.05348
G1 X52.506 Y54.409 E0.08005
G1 X58.442 Y54.4 E0.27749
G1 X63.971 Y54.244 E0.46146
G1 X69.394 Y53.783 E0.64248
G1 X74.788 Y53.014 E0.8237
G1 X80.177 Y51.934 E1.0065
G1 X82.765 Y51.298 E1.09514
G1 X85.39 Y50.577 E1.18568
G1 X90.609 Y48.898 E1.36802
G1 X95.686 Y46.943 E1.54897
G1 X100.698 Y44.678 E1.7319
G1 X103.083 Y43.477 E1.82072
G1 X107.854 Y40.814 E2.00245
G1 X112.47 Y37.884 E2.1843
G1 X116.427 Y35.074 E2.34571
G1 X116.886 Y34.797 E2.36355
G1 X117.381 Y34.591 E2.38138
G1 X117.901 Y34.461 E2.39921
G1 X118.511 Y34.409 E2.41957
G1 X178.491 Y34.41 E4.41451
G1 X179.026 Y34.45 E4.43235
G1 X179.549 Y34.569 E4.45019
G1 X180.048 Y34.764 E4.46801
G1 X180.513 Y35.032 E4.48586
G1 X180.933 Y35.365 E4.50369
G1 X181.299 Y35.757 E4.52153
G1 X181.602 Y36.199 E4.53935
G1 X181.837 Y36.682 E4.55722
G1 X182.005 Y37.227 E4.57619
G1 X183.525 Y44.053 E4.80878
G1 X184.233 Y46.635 E4.89783
G1 X185.907 Y51.852 E5.08006
G1 X187.864 Y56.948 E5.26162
G1 X190.109 Y61.927 E5.44328
G1 X192.621 Y66.751 E5.62418
G1 X195.413 Y71.447 E5.80589
G1 X198.613 Y76.236 E5.99746
G1 X198.711 Y76.39 E6.00353
G1 X201.563 Y81.164 E6.18849
G1 X204.616 Y85.675 E6.36966
G1 X207.916 Y90.006 E6.55076
G1 X211.466 Y94.151 E6.73227
G1 X215.248 Y98.096 E6.91404
G1 X217.2 Y99.965 E7.00392
G1 X221.289 Y103.561 E7.18504
G1 X225.61 Y106.947 E7.36762
G1 X230.063 Y110.048 E7.5481
G1 X234.732 Y112.922 E7.73046
G1 X238.213 Y114.845 E7.86273
G1 X238.662 Y115.139 E7.88058
G1 X239.062 Y115.496 E7.89841
G1 X239.405 Y115.908 E7.91624
G1 X239.682 Y116.367 E7.93407
G1 X239.889 Y116.862 E7.95192
G1 X240.019 Y117.382 E7.96974
G1 X240.072 Y117.991 E7.99008
G1 X240.09 Y131.986 E8.45555
G1 X240.051 Y132.521 E8.47339
G1 X239.932 Y133.044 E8.49123
G1 X239.738 Y133.544 E8.50907
G1 X239.471 Y134.009 E8.5269
G1 X239.138 Y134.43 E8.54476
G1 X238.747 Y134.796 E8.56257
G1 X238.305 Y135.1 E8.58041
G1 X237.823 Y135.335 E8.59825
G1 X237.437 Y135.464 E8.61179
G1 X233.63 Y136.502 E8.74303
G1 X228.424 Y138.182 E8.92497
G1 X223.324 Y140.155 E9.10685
G1 X218.369 Y142.399 E9.28777
G1 X213.53 Y144.931 E9.46942
G1 X208.842 Y147.734 E9.65108
G1 X206.602 Y149.202 E9.74016
G1 X202.143 Y152.409 E9.92284
G1 X197.906 Y155.836 E10.10409
G1 X193.869 Y159.497 E10.28535
G1 X190.047 Y163.379 E10.46654
G1 X186.415 Y167.51 E10.64949
G1 X184.754 Y169.573 E10.73759
G1 X181.388 Y174.13 E10.92602
G1 X181.038 Y174.536 E10.94385
G1 X180.632 Y174.886 E10.96167
G1 X180.178 Y175.172 E10.97952
G1 X179.687 Y175.387 E10.99735
G1 X179.169 Y175.527 E11.0152
G1 X178.492 Y175.591 E11.03781
G1 X118.505 Y175.59 E13.03299
G1 X117.97 Y175.55 E13.05083
G1 X117.447 Y175.431 E13.06867
G1 X116.948 Y175.236 E13.08649
G1 X116.483 Y174.968 E13.10434
G1 X116.063 Y174.635 E13.12217
G1 X115.698 Y174.244 E13.13996
G1 X111.712 Y169.279 E13.35173
G1 X108.055 Y165.245 E13.53283
G1 X104.173 Y161.423 E13.71402
G1 X100.061 Y157.807 E13.89614
G1 X96.275 Y154.816 E14.05662
G1 X95.88 Y154.453 E14.07446
G1 X95.612 Y154.131 E14.0884
G1 X93.84 Y151.734 E14.18754
G1 X90.413 Y147.496 E14.36882
G1 X86.727 Y143.431 E14.55133
G1 X84.859 Y141.537 E14.6398
G1 X80.83 Y137.787 E14.82287
G1 X76.652 Y134.317 E15.00351
G1 X72.25 Y131.066 E15.18552
G1 X67.7 Y128.086 E15.36642
G1 X62.973 Y125.36 E15.54791
G1 X58.099 Y122.905 E15.72943
G1 X53.116 Y120.738 E15.91016
G1 X47.982 Y118.843 E16.09218
G1 X43.44 Y117.429 E16.25039
G1 X42.941 Y117.232 E16.26824
G1 X42.477 Y116.963 E16.28608
G1 X42.058 Y116.628 E16.30392
G1 X41.694 Y116.235 E16.32174
G1 X41.392 Y115.791 E16.33959
G1 X41.159 Y115.308 E16.35743
G1 X41.001 Y114.796 E16.37525
G1 X40.92 Y114.266 E16.39309
G1 X40.91 Y113.992 E16.4022
G1 X40.91 Y100.01 E16.86725
G1 X40.95 Y99.475 E16.88509
G1 X41.069 Y98.952 E16.90293
G1 X41.179 Y98.644 E16.91381
G1 X41.929 Y96.816 E16.97953
G1 X43.834 Y91.662 E17.16228
G1 X45.431 Y86.45 E17.34359
G1 X46.743 Y81.111 E17.52645
G1 X47.265 Y78.501 E17.61498
G1 X48.114 Y73.101 E17.79679
G1 X48.655 Y67.679 E17.97802
G1 X48.889 Y62.186 E18.16089
G1 X48.911 Y57.99 E18.30045
G1 X48.954 Y57.456 E18.31826
G1 X49.075 Y56.934 E18.33609
G1 X49.273 Y56.435 E18.35394
G1 X49.543 Y55.972 E18.37177
G1 X49.879 Y55.553 E18.38963
G1 X50.273 Y55.189 E18.40747
G0 F3600 X50.66 Y55.398
G1 F2400 X51.095 Y55.14 E18.4243
G1 X51.564 Y54.952 E18.4411
G1 X52.057 Y54.841 E18.45791
G1 X52.506 Y54.809 E18.47288
G1 X58.454 Y54.8 E18.67071
G1 X63.982 Y54.644 E18.85465
G1 X69.448 Y54.179 E19.0371
G1 X74.854 Y53.408 E19.21873
G1 X80.259 Y52.325 E19.40207
G1 X82.853 Y51.689 E19.4909
G1 X85.52 Y50.955 E19.58291
G1 X90.739 Y49.277 E19.76524
G1 X95.845 Y47.31 E19.94723
G1 X100.863 Y45.043 E20.13038
G1 X103.27 Y43.831 E20.22001
G1 X108.05 Y41.163 E20.40208
G1 X112.698 Y38.212 E20.5852
G1 X116.658 Y35.4 E20.74674
G1 X117.092 Y35.141 E20.76355
G1 X117.562 Y34.953 E20.78039
G1 X118.055 Y34.842 E20.79719
G1 X118.511 Y34.809 E20.8124
G1 X178.491 Y34.81 E22.80734
G1 X178.995 Y34.85 E22.82416
G1 X179.486 Y34.969 E22.84096
G1 X179.953 Y35.164 E22.85779
G1 X180.383 Y35.429 E22.87459
G1 X180.766 Y35.759 E22.89141
G1 X181.092 Y36.146 E22.90824
G1 X181.353 Y36.579 E22.92505
G1 X181.543 Y37.047 E22.94185
G1 X181.614 Y37.314 E22.95104
G1 X183.134 Y44.139 E23.1836
G1 X183.849 Y46.749 E23.27361
G1 X185.531 Y51.991 E23.45672
G1 X187.496 Y57.105 E23.63893
G1 X189.743 Y62.09 E23.8208
G1 X192.272 Y66.947 E24.00293
G1 X195.069 Y71.651 E24.18496
G1 X198.281 Y76.458 E24.37725
G1 X198.367 Y76.595 E24.38263
G1 X201.218 Y81.368 E24.56754
G1 X204.29 Y85.908 E24.74986
G1 X207.61 Y90.263 E24.932
G1 X211.165 Y94.415 E25.1138
G1 X214.977 Y98.39 E25.29698
G1 X216.917 Y100.248 E25.38632
G1 X221.042 Y103.876 E25.56903
G1 X225.368 Y107.266 E25.75183
G1 X229.85 Y110.387 E25.93349
G1 X234.516 Y113.259 E26.11572
G1 X238.02 Y115.195 E26.24887
G1 X238.441 Y115.474 E26.26567
G1 X238.814 Y115.816 E26.2825
G1 X239.128 Y116.212 E26.29931
G1 X239.376 Y116.652 E26.31611
G1 X239.552 Y117.126 E26.33292
G1 X239.65 Y117.622 E26.34974
G1 X239.672 Y117.992 E26.36207
G1 X239.69 Y131.987 E26.82754
G1 X239.651 Y132.491 E26.84436
G1 X239.533 Y132.982 E26.86115
G1 X239.338 Y133.449 E26.87799
G1 X239.073 Y133.88 E26.89481
G1 X238.743 Y134.263 E26.91163
G1 X238.358 Y134.59 E26.92843
G1 X237.925 Y134.851 E26.94524
G1 X237.331 Y135.078 E26.96639
G1 X233.514 Y136.118 E27.09798
G1 X228.293 Y137.804 E27.28046
G1 X223.178 Y139.782 E27.46286
G1 X218.176 Y142.048 E27.6455
G1 X213.352 Y144.572 E27.82658
G1 X208.605 Y147.41 E28.01054
G1 X206.381 Y148.868 E28.09898
G1 X201.903 Y152.088 E28.28243
G1 X197.649 Y155.529 E28.46441
G1 X193.59 Y159.21 E28.64666
G1 X189.752 Y163.108 E28.82861
G1 X186.12 Y167.24 E29.01158
G1 X184.426 Y169.343 E29.1014
G1 X181.066 Y173.892 E29.2895
G1 X180.735 Y174.274 E29.30631
G1 X180.347 Y174.598 E29.32312
G1 X179.913 Y174.858 E29.33995
G1 X179.444 Y175.046 E29.35675
G1 X178.951 Y175.158 E29.37357
G1 X178.492 Y175.191 E29.38887
G1 X118.505 Y175.19 E31.38405
G1 X118.001 Y175.15 E31.40087
G1 X117.51 Y175.031 E31.41767
G1 X117.043 Y174.836 E31.4345
G1 X116.613 Y174.571 E31.4513
G1 X116.23 Y174.241 E31.46812
G1 X116.01 Y173.993 E31.47914
G1 X112.022 Y169.025 E31.69103
G1 X108.341 Y164.965 E31.87331
G1 X104.444 Y161.128 E32.0552
G1 X100.321 Y157.503 E32.2378
G1 X96.523 Y154.502 E32.3988
G1 X96.152 Y154.158 E32.41562
G1 X95.934 Y153.893 E32.42704
G1 X94.167 Y151.503 E32.5259
G1 X90.713 Y147.232 E32.70859
G1 X87.014 Y143.151 E32.89178
G1 X85.146 Y141.258 E32.98024
G1 X81.103 Y137.495 E33.16394
G1 X76.88 Y133.988 E33.34652
G1 X72.486 Y130.743 E33.5282
G1 X67.909 Y127.745 E33.71018
G1 X63.166 Y125.01 E33.89228
G1 X58.26 Y122.538 E34.075
G1 X53.278 Y120.371 E34.2557
G1 X48.101 Y118.461 E34.43923
G1 X43.559 Y117.047 E34.59745
G1 X43.089 Y116.859 E34.61428
G1 X42.655 Y116.6 E34.63109
G1 X42.268 Y116.275 E34.6479
G1 X41.936 Y115.894 E34.66471
G1 X41.669 Y115.464 E34.68154
G1 X41.472 Y114.999 E34.69834
G1 X41.352 Y114.508 E34.71515
G1 X41.31 Y113.992 E34.73237
G1 X41.31 Y100.01 E35.19741
G1 X41.35 Y99.506 E35.21423
G1 X41.549 Y98.796 E35.23876
G1 X42.301 Y96.963 E35.30465
G1 X44.212 Y91.792 E35.48801
G1 X45.814 Y86.562 E35.66994
G1 X47.135 Y81.189 E35.85397
G1 X47.659 Y78.572 E35.94274
G1 X48.511 Y73.149 E36.12532
G1 X49.055 Y67.702 E36.30739
G1 X49.289 Y62.205 E36.49038
G1 X49.311 Y57.993 E36.63048
G1 X49.354 Y57.489 E36.6473
G1 X49.475 Y56.998 E36.66412
G1 X49.672 Y56.532 E36.68095
G1 X49.94 Y56.104 E36.69774
G1 X50.272 Y55.723 E36.71455
G1 X50.66 Y55.398 E36.73139
G1 F2700 E30.23139
G1 F300 Z1.2
G0 F3600 X58.373 Y64.002 Z1.2
;TYPE:WALL-INNER
G1 F300 Z0.2
G1 F2700 E36.73139
G1 F2400 X58.168 Y64.302 E36.74347
G1 X58.039 Y64.641 E36.75553
G1 X57.996 Y65 E36.76756
G1 X58.039 Y65.359 E36.77959
G1 X58.168 Y65.698 E36.79165
G1 X58.373 Y65.998 E36.80374
G1 X58.646 Y66.239 E36.81585
G1 X58.968 Y66.408 E36.82794
G1 X59.321 Y66.493 E36.84002
G1 X59.679 Y66.493 E36.85193
G1 X60.032 Y66.408 E36.864
G1 X60.354 Y66.239 E36.8761
G1 X60.627 Y65.998 E36.88821
G1 X60.832 Y65.698 E36.90029
G1 X60.961 Y65.359 E36.91236
G1 X61.004 Y65 E36.92438
G1 X60.961 Y64.641 E36.93641
G1 X60.832 Y64.302 E36.94847
G1 X60.627 Y64.002 E36.96056
G1 X60.354 Y63.761 E36.97267
G1 X60.032 Y63.592 E36.98477
G1 X59.679 Y63.507 E36.99684
G1 X59.321 Y63.507 E37.00875
G1 X58.968 Y63.592 E37.02083
G1 X58.646 Y63.761 E37.03292
G1 X58.373 Y64.002 E37.04503
G0 F3600 X58.299 Y63.936
G0 X58.954 Y63.555
G0 X59.247 Y63.485
G0 X104.299 Y63.936
G0 X104.373 Y64.002
G1 F2400 X104.168 Y64.302 E37.05712
G1 X104.039 Y64.641 E37.06918
G1 X103.996 Y65 E37.08121
G1 X104.039 Y65.359 E37.09323
G1 X104.168 Y65.698 E37.1053
G1 X104.373 Y65.998 E37.11738
G1 X104.646 Y66.239 E37.12949
G1 X104.968 Y66.408 E37.14159
G1 X105.321 Y66.493 E37.15367
G1 X105.679 Y66.493 E37.16557
G1 X106.032 Y66.408 E37.17765
G1 X106.354 Y66.239 E37.18975
G1 X106.627 Y65.998 E37.20186
G1 X106.832 Y65.698 E37.21394
G1 X106.961 Y65.359 E37.22601
G1 X107.004 Y65 E37.23803
G1 X106.961 Y64.641 E37.25006
G1 X106.832 Y64.302 E37.26212
G1 X106.627 Y64.002 E37.27421
G1 X106.354 Y63.761 E37.28632
G1 X106.032 Y63.592 E37.29841
G1 X105.679 Y63.507 E37.31049
G1 X105.321 Y63.507 E37.3224
G1 X104.968 Y63.592 E37.33447
G1 X104.646 Y63.761 E37.34657
G1 X104.373 Y64.002 E37.35868
G0 F3600 X104.299 Y63.936
G0 X104.001 Y64.632
G0 X103.956 Y65
G0 X104.001 Y65.368
G0 X104.133 Y65.716
G0 X104.344 Y66.024
G0 X104.423 Y66.093
G0 X111.83 Y71.33
G0 X111.9 Y71.4
G1 F2400 X53.1 Y71.4 E39.31438
G1 X53.1 Y58.6 E39.74011
G1 X111.9 Y58.6 E41.6958
G1 X111.9 Y71.4 E42.12153
G0 F3600 X112.3 Y71.8
;TYPE:WALL-OUTER
G1 F2400 X52.7 Y71.8 E44.10384
G1 X52.7 Y58.2 E44.55617
G1 X112.3 Y58.2 E46.53848
G1 X112.3 Y71.8 E46.99082
G0 F3600 X112.1 Y71.8
G0 X111.83 Y71.33
G0 X106.656 Y63.976
G0 X106.376 Y63.729
G0 X106.046 Y63.555
G0 X105.683 Y63.468
G0 X105.317 Y63.468
G0 X104.991 Y63.546
G0 X104.263 Y63.987
G0 X104.675 Y64.269
G1 F2400 X104.525 Y64.489 E46.99967
G1 X104.43 Y64.737 E47.00851
G1 X104.399 Y65 E47.01731
G1 X104.43 Y65.263 E47.02612
G1 X104.525 Y65.511 E47.03495
G1 X104.675 Y65.731 E47.04381
G1 X104.875 Y65.907 E47.05267
G1 X105.11 Y66.031 E47.06151
G1 X105.368 Y66.093 E47.07033
G1 X105.632 Y66.093 E47.07911
G1 X105.89 Y66.031 E47.08794
G1 X106.125 Y65.907 E47.09678
G1 X106.325 Y65.731 E47.10564
G1 X106.475 Y65.511 E47.1145
G1 X106.57 Y65.263 E47.12333
G1 X106.601 Y65 E47.13214
G1 X106.57 Y64.737 E47.14094
G1 X106.475 Y64.489 E47.14978
G1 X106.325 Y64.269 E47.15863
G1 X106.125 Y64.093 E47.16749
G1 X105.89 Y63.969 E47.17633
G1 X105.632 Y63.907 E47.18516
G1 X105.368 Y63.907 E47.19394
G1 X105.11 Y63.969 E47.20276
G1 X104.875 Y64.093 E47.2116
G1 X104.675 Y64.269 E47.22046
G0 F3600 X104.563 Y64.434
G0 X104.151 Y64.151
G0 X59.317 Y63.468
G0 X58.991 Y63.546
G0 X58.263 Y63.987
G0 X58.675 Y64.269
G1 F2400 X58.525 Y64.489 E47.22932
G1 X58.43 Y64.737 E47.23815
G1 X58.399 Y65 E47.24696
G1 X58.43 Y65.263 E47.25577
G1 X58.525 Y65.511 E47.2646
G1 X58.675 Y65.731 E47.27346
G1 X58.875 Y65.907 E47.28232
G1 X59.11 Y66.031 E47.29115
G1 X59.368 Y66.093 E47.29998
G1 X59.632 Y66.093 E47.30876
G1 X59.89 Y66.031 E47.31759
G1 X60.125 Y65.907 E47.32642
G1 X60.325 Y65.731 E47.33528
G1 X60.475 Y65.511 E47.34414
G1 X60.57 Y65.263 E47.35297
G1 X60.601 Y65 E47.36178
G1 X60.57 Y64.737 E47.37059
G1 X60.475 Y64.489 E47.37942
G1 X60.325 Y64.269 E47.38828
G1 X60.125 Y64.093 E47.39714
G1 X59.89 Y63.969 E47.40598
G1 X59.632 Y63.907 E47.4148
G1 X59.368 Y63.907 E47.42358
G1 X59.11 Y63.969 E47.43241
G1 X58.875 Y64.093 E47.44125
G1 X58.675 Y64.269 E47.45011
G0 F3600 X58.563 Y64.434
G0 X58.151 Y64.151
G0 X57.821 Y64.12
;TYPE:SKIN
G1 F2400 X57.657 Y64.547 E47.46532
G1 X57.604 Y65 E47.48049
G1 X57.657 Y65.453 E47.49566
G1 X57.821 Y65.88 E47.51087
G1 X58.078 Y66.258 E47.52608
G1 X58.423 Y66.563 E47.54139
G1 X58.83 Y66.776 E47.55667
G1 X59.275 Y66.883 E47.57189
G1 X59.725 Y66.883 E47.58686
G1 X60.17 Y66.776 E47.60208
G1 X60.577 Y66.563 E47.61736
G1 X60.922 Y66.258 E47.63268
G1 X61.179 Y65.88 E47.64788
G1 X61.343 Y65.453 E47.66309
G1 X61.396 Y65 E47.67826
G1 X61.343 Y64.547 E47.69343
G1 X61.179 Y64.12 E47.70865
G1 X60.922 Y63.742 E47.72385
G1 X60.577 Y63.437 E47.73917
G1 X60.17 Y63.224 E47.75444
G1 X59.725 Y63.117 E47.76967
G1 X59.275 Y63.117 E47.78463
G1 X58.83 Y63.224 E47.79986
G1 X58.423 Y63.437 E47.81514
G1 X58.078 Y63.742 E47.83045
G1 X57.821 Y64.12 E47.84565
G0 F3600 X53.49 Y58.99
G1 F2400 X111.51 Y58.99 E49.77541
G1 X111.51 Y71.01 E50.17519
G1 X53.49 Y71.01 E52.10495
G1 X53.49 Y58.99 E52.50473
G0 F3600 X103.604 Y65
G1 F2400 X103.657 Y65.453 E52.5199
G1 X103.821 Y65.88 E52.53512
G1 X104.078 Y66.258 E52.55032
G1 X104.423 Y66.563 E52.56564
G1 X104.83 Y66.776 E52.58091
G1 X105.275 Y66.883 E52.59614
G1 X105.725 Y66.883 E52.6111
G1 X106.17 Y66.776 E52.62633
G1 X106.577 Y66.563 E52.64161
G1 X106.922 Y66.258 E52.65692
G1 X107.179 Y65.88 E52.67212
G1 X107.343 Y65.453 E52.68734
G1 X107.396 Y65 E52.70251
G1 X107.343 Y64.547 E52.71768
G1 X107.179 Y64.12 E52.73289
G1 X106.922 Y63.742 E52.74809
G1 X106.577 Y63.437 E52.76341
G1 X106.17 Y63.224 E52.77869
G1 X105.725 Y63.117 E52.79391
G1 X105.275 Y63.117 E52.80888
G1 X104.83 Y63.224 E52.8241
G1 X104.423 Y63.437 E52.83938
G1 X104.078 Y63.742 E52.85469
G1 X103.821 Y64.12 E52.8699
G1 X103.657 Y64.547 E52.88511
G1 X103.604 Y65 E52.90028
G0 F3600 X104.344 Y63.976
G0 X104.423 Y63.907
G0 X111.329 Y59.285
G0 X111.271 Y59.227
G1 F2400 X110.988 Y59.51 E52.91905
G1 X111.399 Y59.921
G0 F3600 X111.329 Y60.417
G1 F2400 X110.081 Y59.169 E52.97775
G1 X110.011 Y59.099
G0 F3600 X109.515 Y59.169
G1 F2400 X111.329 Y60.983 E53.06308
G1 X111.399 Y61.053
G0 F3600 X111.329 Y61.548
G1 F2400 X108.95 Y59.169 E53.17498
G1 X108.88 Y59.099
G0 F3600 X108.384 Y59.169
G1 F2400 X111.329 Y62.114 E53.3135
G1 X111.399 Y62.184
G0 F3600 X111.329 Y62.68
G1 F2400 X107.818 Y59.169 E53.47865
G1 X107.748 Y59.099
G0 F3600 X107.253 Y59.169
G1 F2400 X111.329 Y63.245 E53.67037
G1 X111.399 Y63.315
G0 F3600 X111.329 Y63.811
G1 F2400 X106.687 Y59.169 E53.88872
G1 X106.617 Y59.099
G0 F3600 X106.121 Y59.169
G1 F2400 X111.329 Y64.377 E54.13368
G1 X111.399 Y64.447
G0 F3600 X111.329 Y64.942
G1 F2400 X105.556 Y59.169 E54.40523
G1 X105.486 Y59.099
G0 F3600 X104.99 Y59.169
G1 F2400 X111.329 Y65.508 E54.7034
G1 X111.399 Y65.578
