;FLAVOR:RepRap
;TIME:1395
;Filament used: 1.91621m
;Layer height: 0.2
;Generated with Cura_SteamEngine 3.2.1
T0
M190 S60
M104 S200
M109 S200
M82 ;absolute extrusion mode
G28 ;Home
G1 Z15.0 F6000 ;Move the platform down 15mm
;Prime the extruder
G92 E0
G1 F200 E3
G92 E0
M83 ;relative extrusion mode
;LAYER_COUNT:70
;LAYER:0
M107
G0 F3600 X70.721 Y85.093 Z0.3
;TYPE:SKIRT
G1 F2400 X72.218 Y83.877 E0.09622
G1 X72.801 Y83.491 E0.03488
G1 X74.516 Y82.581 E0.09686
G1 X75.162 Y82.315 E0.03485
G1 X77.02 Y81.754 E0.09683
G1 X77.705 Y81.618 E0.03484
G1 X79.456 Y81.444 E0.08779
G1 X79.811 Y81.426 E0.01773
G1 X127.092 Y81.417 E2.35886
G1 X127.508 Y81.441 E0.02079
G1 X128.059 Y81.505 E0.02767
G1 X128.841 Y81.686 E0.04005
G1 X129.516 Y81.924 E0.03571
G1 X130.007 Y82.139 E0.02674
G1 X130.415 Y82.392 E0.02395
G1 X131.148 Y82.917 E0.04498
G1 X131.696 Y83.401 E0.03648
G1 X132.025 Y83.757 E0.02418
G1 X132.44 Y84.301 E0.03414
G1 X132.751 Y84.802 E0.02942
G1 X132.999 Y85.278 E0.02678
G1 X133.121 Y85.603 E0.01732
G1 X133.363 Y86.359 E0.0396
G1 X133.515 Y87.087 E0.0371
G1 X133.572 Y87.638 E0.02764
G1 X133.591 Y88.009 E0.01853
G1 X133.586 Y112.048 E1.19931
G1 X133.527 Y112.696 E0.03246
G1 X133.361 Y113.602 E0.04595
G1 X133.225 Y114.121 E0.02677
G1 X132.97 Y114.697 E0.03143
G1 X132.433 Y115.667 E0.05531
G1 X132.139 Y116.115 E0.02673
G1 X131.635 Y116.648 E0.0366
G1 X130.97 Y117.222 E0.04383
G1 X130.539 Y117.541 E0.02675
G1 X130.208 Y117.727 E0.01894
G1 X129.568 Y118.042 E0.03559
G1 X129.07 Y118.242 E0.02677
G1 X128.754 Y118.327 E0.01633
G1 X128.079 Y118.476 E0.03449
G1 X127.305 Y118.561 E0.03885
G1 X80.192 Y118.593 E2.35048
G1 X79.86 Y118.578 E0.01658
G1 X77.71 Y118.38 E0.10772
G1 X76.997 Y118.241 E0.03624
G1 X75.137 Y117.678 E0.09695
G1 X74.481 Y117.406 E0.03543
G1 X72.76 Y116.485 E0.09738
G1 X72.159 Y116.081 E0.03613
G1 X70.58 Y114.77 E0.10239
G1 X70.086 Y114.27 E0.03507
G1 X68.877 Y112.782 E0.09565
G1 X68.491 Y112.199 E0.03488
G1 X67.581 Y110.484 E0.09686
G1 X67.315 Y109.837 E0.0349
G1 X66.754 Y107.978 E0.09688
G1 X66.618 Y107.295 E0.03474
G1 X66.444 Y105.547 E0.08764
G1 X66.426 Y105.2 E0.01734
G1 X66.4 Y95.717 E0.47311
G1 X66.41 Y95.433 E0.01418
G1 X66.613 Y92.776 E0.13294
G1 X66.758 Y92.005 E0.03914
G1 X67.327 Y90.13 E0.09776
G1 X67.597 Y89.478 E0.03521
G1 X68.522 Y87.747 E0.09792
G1 X68.928 Y87.143 E0.03631
G1 X70.222 Y85.586 E0.101
G1 X70.721 Y85.093 E0.035
G0 F3600 X70.973 Y85.403
G1 F2400 X72.47 Y84.187 E0.09622
G1 X72.988 Y83.844 E0.031
G1 X74.703 Y82.934 E0.09686
G1 X75.278 Y82.698 E0.03101
G1 X77.136 Y82.137 E0.09683
G1 X77.745 Y82.016 E0.03098
G1 X79.496 Y81.842 E0.08779
G1 X79.811 Y81.826 E0.01574
G1 X127.092 Y81.817 E2.35886
G1 X127.462 Y81.838 E0.01849
G1 X128.013 Y81.902 E0.02767
G1 X128.708 Y82.063 E0.03559
G1 X129.383 Y82.301 E0.03571
G1 X129.845 Y82.506 E0.02522
G1 X130.182 Y82.717 E0.01984
G1 X130.915 Y83.242 E0.04498
G1 X131.402 Y83.672 E0.03241
G1 X131.731 Y84.028 E0.02418
G1 X132.1 Y84.512 E0.03036
G1 X132.411 Y85.013 E0.02942
G1 X132.643 Y85.463 E0.02526
G1 X132.74 Y85.725 E0.01394
G1 X132.982 Y86.481 E0.0396
G1 X133.117 Y87.128 E0.03297
G1 X133.174 Y87.679 E0.02764
G1 X133.191 Y88.009 E0.01649
G1 X133.186 Y112.048 E1.19931
G1 X133.134 Y112.624 E0.02885
G1 X132.968 Y113.53 E0.04595
G1 X132.837 Y114.018 E0.02521
G1 X132.62 Y114.503 E0.02651
G1 X132.083 Y115.473 E0.05531
G1 X131.804 Y115.894 E0.0252
G1 X131.374 Y116.345 E0.03109
G1 X130.709 Y116.919 E0.04383
G1 X130.301 Y117.218 E0.02524
G1 X130.031 Y117.368 E0.01541
G1 X129.391 Y117.683 E0.03559
G1 X128.921 Y117.87 E0.02524
G1 X128.668 Y117.937 E0.01306
G1 X127.993 Y118.086 E0.03449
G1 X127.305 Y118.161 E0.03453
G1 X80.192 Y118.193 E2.35048
G1 X79.897 Y118.18 E0.01473
G1 X77.747 Y117.982 E0.10772
G1 X77.113 Y117.858 E0.03223
G1 X75.253 Y117.295 E0.09695
G1 X74.67 Y117.053 E0.03149
G1 X72.949 Y116.132 E0.09738
G1 X72.415 Y115.773 E0.0321
G1 X70.836 Y114.462 E0.10239
G1 X70.396 Y114.018 E0.03119
G1 X69.187 Y112.53 E0.09565
G1 X68.844 Y112.012 E0.031
G1 X67.934 Y110.297 E0.09686
G1 X67.697 Y109.722 E0.03103
G1 X67.136 Y107.863 E0.09688
G1 X67.016 Y107.255 E0.03092
G1 X66.842 Y105.507 E0.08764
G1 X66.826 Y105.199 E0.01539
G1 X66.8 Y95.716 E0.47311
G1 X66.809 Y95.463 E0.01263
G1 X67.012 Y92.806 E0.13294
G1 X67.141 Y92.121 E0.03478
G1 X67.71 Y90.246 E0.09776
G1 X67.95 Y89.667 E0.03127
G1 X68.875 Y87.936 E0.09792
G1 X69.236 Y87.399 E0.03228
G1 X70.53 Y85.842 E0.101
G1 X70.973 Y85.403 E0.03112
G1 F1500 E-6.5
G0 F3600 X72.554 Y87.378
G0 X73.369 Y88.369
G0 X77.524 Y94.784
G0 X77.613 Y94.828
;TYPE:WALL-INNER
G1 F1500 E6.5
G1 F2400 X76.841 Y96.825 E0.10682
G1 X76.447 Y98.929 E0.10679
G1 X76.447 Y101.071 E0.10686
G1 X76.841 Y103.175 E0.10679
G1 X77.613 Y105.172 E0.10682
G1 X78.741 Y106.992 E0.10683
G1 X80.183 Y108.574 E0.10679
G1 X81.891 Y109.865 E0.10682
G1 X83.808 Y110.819 E0.10683
G1 X85.868 Y111.405 E0.10685
G1 X87.972 Y111.6 E0.10542
G1 X89.028 Y111.6 E0.05268
G1 X91.132 Y111.405 E0.10542
G1 X93.192 Y110.819 E0.10685
G1 X95.109 Y109.865 E0.10683
G1 X96.817 Y108.574 E0.10682
G1 X98.259 Y106.992 E0.10679
G1 X99.387 Y105.172 E0.10683
G1 X100.159 Y103.175 E0.10682
G1 X100.553 Y101.071 E0.10679
G1 X100.553 Y98.929 E0.10686
G1 X100.159 Y96.825 E0.10679
G1 X99.387 Y94.828 E0.10682
G1 X98.259 Y93.008 E0.10683
G1 X96.817 Y91.426 E0.10679
G1 X95.109 Y90.135 E0.10682
G1 X93.192 Y89.181 E0.10683
G1 X91.132 Y88.595 E0.10685
G1 X89.028 Y88.4 E0.10542
G1 X87.972 Y88.4 E0.05268
G1 X85.868 Y88.595 E0.10542
G1 X83.808 Y89.181 E0.10685
G1 X81.891 Y90.135 E0.10683
G1 X80.183 Y91.426 E0.10682
G1 X78.741 Y93.008 E0.10679
G1 X77.613 Y94.828 E0.10683
G0 F3600 X77.524 Y94.784
G0 X78.71 Y92.984
G0 X80.157 Y91.397
G0 X81.87 Y90.101
G0 X83.794 Y89.144
G0 X85.861 Y88.556
G0 X87.057 Y88.447
G0 X127.51 Y85.76
G0 X127.532 Y85.663
G1 F2400 X128.048 Y85.846 E0.02731
G1 X128.491 Y86.125 E0.02612
G1 X128.875 Y86.509 E0.02709
G1 X129.161 Y86.965 E0.02685
G1 X129.337 Y87.476 E0.02696
G1 X129.4 Y88.032 E0.02792
G1 X129.4 Y111.961 E1.19382
G1 X129.336 Y112.536 E0.02886
G1 X129.16 Y113.038 E0.02654
G1 X128.872 Y113.495 E0.02695
G1 X128.5 Y113.867 E0.02625
G1 X128.032 Y114.162 E0.0276
G1 X127.533 Y114.337 E0.02638
G1 X126.961 Y114.4 E0.02871
G1 X80.029 Y114.4 E2.34145
G1 X78.166 Y114.217 E0.09339
G1 X76.404 Y113.683 E0.09185
G1 X74.781 Y112.814 E0.09185
G1 X73.355 Y111.645 E0.09199
G1 X72.186 Y110.219 E0.09199
G1 X71.317 Y108.596 E0.09185
G1 X70.783 Y106.834 E0.09185
G1 X70.6 Y104.971 E0.09339
G1 X70.6 Y95.026 E0.49616
G1 X70.783 Y93.166 E0.09324
G1 X71.317 Y91.404 E0.09185
G1 X72.186 Y89.781 E0.09185
G1 X73.355 Y88.355 E0.09199
G1 X74.781 Y87.186 E0.09199
G1 X76.404 Y86.317 E0.09185
G1 X78.166 Y85.783 E0.09185
G1 X80.029 Y85.6 E0.09339
G1 X126.961 Y85.6 E2.34145
G1 X127.532 Y85.663 E0.02866
G0 F3600 X127.621 Y85.27
;TYPE:WALL-OUTER
G1 F2400 X128.221 Y85.483 E0.03176
G1 X128.745 Y85.813 E0.03089
G1 X129.19 Y86.259 E0.03143
G1 X129.523 Y86.789 E0.03123
G1 X129.729 Y87.387 E0.03155
G1 X129.8 Y88.013 E0.03143
G1 X129.8 Y111.987 E1.19607
G1 X129.729 Y112.623 E0.03193
G1 X129.521 Y113.215 E0.0313
G1 X129.187 Y113.746 E0.0313
G1 X128.751 Y114.182 E0.03076
G1 X128.209 Y114.523 E0.03195
G1 X127.62 Y114.73 E0.03115
G1 X126.987 Y114.8 E0.03177
G1 X80.01 Y114.8 E2.34369
G1 X78.086 Y114.611 E0.09645
G1 X76.249 Y114.054 E0.09577
G1 X74.559 Y113.15 E0.09562
G1 X73.071 Y111.929 E0.09603
G1 X71.85 Y110.441 E0.09603
G1 X70.946 Y108.751 E0.09562
G1 X70.389 Y106.914 E0.09577
G1 X70.2 Y104.99 E0.09645
G1 X70.2 Y95.007 E0.49805
G1 X70.389 Y93.086 E0.0963
G1 X70.946 Y91.249 E0.09577
G1 X71.85 Y89.559 E0.09562
G1 X73.071 Y88.071 E0.09603
G1 X74.559 Y86.85 E0.09603
G1 X76.249 Y85.946 E0.09562
G1 X78.086 Y85.389 E0.09577
G1 X80.01 Y85.2 E0.09645
G1 X126.987 Y85.2 E2.34369
G1 X127.621 Y85.27 E0.03182
G0 F3600 X127.809 Y85.336
G0 X127.641 Y85.807
G0 X87.971 Y88.361
G0 X85.861 Y88.556
G0 X83.794 Y89.144
G0 X81.87 Y90.101
G0 X80.157 Y91.397
G0 X78.855 Y92.825
G0 X77.549 Y94.743
G0 X77.973 Y95.007
G1 F2400 X77.227 Y96.935 E0.10314
G1 X76.847 Y98.966 E0.10309
G1 X76.847 Y101.034 E0.10317
G1 X77.227 Y103.065 E0.10309
G1 X77.973 Y104.993 E0.10314
G1 X79.062 Y106.75 E0.10313
G1 X80.454 Y108.277 E0.10309
G1 X82.103 Y109.523 E0.10311
G1 X83.953 Y110.444 E0.1031
G1 X85.942 Y111.01 E0.10317
G1 X87.991 Y111.2 E0.10266
G1 X89.009 Y111.2 E0.05079
G1 X91.058 Y111.01 E0.10266
G1 X93.047 Y110.444 E0.10317
G1 X94.897 Y109.523 E0.1031
G1 X96.546 Y108.277 E0.10311
G1 X97.938 Y106.75 E0.10309
G1 X99.027 Y104.993 E0.10313
G1 X99.773 Y103.065 E0.10314
G1 X100.153 Y101.034 E0.10309
G1 X100.153 Y98.966 E0.10317
G1 X99.773 Y96.935 E0.10309
G1 X99.027 Y95.007 E0.10314
G1 X97.938 Y93.25 E0.10313
G1 X96.546 Y91.723 E0.10309
G1 X94.897 Y90.477 E0.10311
G1 X93.047 Y89.556 E0.1031
G1 X91.058 Y88.99 E0.10317
G1 X89.009 Y88.8 E0.10266
G1 X87.991 Y88.8 E0.05079
G1 X85.942 Y88.99 E0.10266
G1 X83.953 Y89.556 E0.10317
G1 X82.103 Y90.477 E0.1031
G1 X80.454 Y91.723 E0.10311
G1 X79.062 Y93.25 E0.10309
G1 X77.973 Y95.007 E0.10313
G0 F3600 X77.901 Y95.193
G0 X77.435 Y95.012
G0 X77.262 Y94.653
;TYPE:SKIN
G1 F2400 X76.464 Y96.718 E0.11045
G1 X76.057 Y98.892 E0.11035
G1 X76.057 Y101.108 E0.11056
G1 X76.464 Y103.282 E0.11035
G1 X77.262 Y105.347 E0.11045
G1 X78.429 Y107.228 E0.11044
G1 X79.919 Y108.863 E0.11036
G1 X81.685 Y110.198 E0.11045
G1 X83.666 Y111.184 E0.1104
G1 X85.796 Y111.79 E0.11048
G1 X87.954 Y111.99 E0.10812
G1 X89.046 Y111.99 E0.05448
G1 X91.204 Y111.79 E0.10812
G1 X93.334 Y111.184 E0.11048
G1 X95.315 Y110.198 E0.1104
G1 X97.081 Y108.863 E0.11045
G1 X98.571 Y107.228 E0.11036
G1 X99.738 Y105.347 E0.11044
G1 X100.536 Y103.282 E0.11045
G1 X100.943 Y101.108 E0.11035
G1 X100.943 Y98.892 E0.11056
G1 X100.536 Y96.718 E0.11035
G1 X99.738 Y94.653 E0.11045
G1 X98.571 Y92.772 E0.11044
G1 X97.081 Y91.137 E0.11036
G1 X95.315 Y89.802 E0.11045
G1 X93.334 Y88.816 E0.1104
G1 X91.204 Y88.21 E0.11048
G1 X89.046 Y88.01 E0.10812
G1 X87.954 Y88.01 E0.05448
G1 X85.796 Y88.21 E0.10812
G1 X83.666 Y88.816 E0.11048
G1 X81.685 Y89.802 E0.1104
G1 X79.919 Y91.137 E0.11045
G1 X78.429 Y92.772 E0.11036
G1 X77.262 Y94.653 E0.11044
G0 F3600 X70.99 Y95.045
G1 F2400 X71.167 Y93.241 E0.09043
G1 X71.679 Y91.551 E0.0881
G1 X72.509 Y90.002 E0.08767
G1 X73.632 Y88.632 E0.08838
G1 X75.002 Y87.509 E0.08838
G1 X76.551 Y86.679 E0.08767
G1 X78.241 Y86.167 E0.0881
G1 X80.048 Y85.99 E0.09058
G1 X126.936 Y85.99 E2.33925
G1 X127.447 Y86.047 E0.02565
G1 X127.875 Y86.198 E0.02264
G1 X128.251 Y86.435 E0.02217
G1 X128.567 Y86.751 E0.0223
G1 X128.806 Y87.131 E0.0224
G1 X128.954 Y87.561 E0.02269
G1 X129.01 Y88.058 E0.02495
G1 X129.01 Y111.936 E1.19128
G1 X128.953 Y112.45 E0.0258
G1 X128.807 Y112.867 E0.02204
G1 X128.562 Y113.255 E0.02289
G1 X128.26 Y113.557 E0.02131
G1 X127.861 Y113.808 E0.02352
G1 X127.447 Y113.953 E0.02188
G1 X126.936 Y114.01 E0.02565
G1 X80.048 Y114.01 E2.33925
G1 X78.241 Y113.833 E0.09058
G1 X76.551 Y113.321 E0.0881
G1 X75.002 Y112.491 E0.08767
G1 X73.632 Y111.368 E0.08838
G1 X72.509 Y109.998 E0.08838
G1 X71.679 Y108.449 E0.08767
G1 X71.167 Y106.759 E0.0881
G1 X70.99 Y104.952 E0.09058
G1 X70.99 Y95.045 E0.49426
G0 F3600 X74.558 Y111.893
G1 F2400 X73.105 Y110.44 E0.10252
G1 X73.035 Y110.37
G0 F3600 X72.117 Y108.886
G1 F2400 X76.112 Y112.881 E0.28187
G1 X76.182 Y112.951
G0 F3600 X77.093 Y113.297
G1 F2400 X71.701 Y107.905 E0.38043
G1 X71.631 Y107.835
G0 F3600 X71.455 Y107.093
G1 F2400 X77.904 Y113.542 E0.45501
G1 X77.974 Y113.612
G0 F3600 X78.616 Y113.688
G1 F2400 X71.31 Y106.382 E0.51548
G1 X71.24 Y106.312
G0 F3600 X71.248 Y105.755
G1 F2400 X79.242 Y113.749 E0.56402
G1 X79.312 Y113.819
G0 F3600 X79.869 Y113.81
G1 F2400 X71.187 Y105.129 E0.61253
G1 X71.117 Y105.059
G0 F3600 X71.17 Y104.545
G1 F2400 X80.453 Y113.829 E0.655
G1 X80.523 Y113.899
G0 F3600 X81.019 Y113.829
G1 F2400 X71.17 Y103.98 E0.6949
G1 X71.1 Y103.91
G0 F3600 X71.17 Y103.414
G1 F2400 X81.585 Y113.829 E0.73483
G1 X81.655 Y113.899
G0 F3600 X82.15 Y113.829
G1 F2400 X71.17 Y102.848 E0.77473
G1 X71.1 Y102.778
G0 F3600 X71.17 Y102.282
G1 F2400 X82.716 Y113.829 E0.81467
G1 X82.786 Y113.899
G0 F3600 X83.282 Y113.829
G1 F2400 X71.17 Y101.717 E0.85457
G1 X71.1 Y101.647
G0 F3600 X71.17 Y101.151
G1 F2400 X83.848 Y113.829 E0.8945
G1 X83.918 Y113.899
G0 F3600 X84.413 Y113.829
G1 F2400 X71.17 Y100.585 E0.9344
G1 X71.1 Y100.515
G0 F3600 X71.17 Y100.02
G1 F2400 X77.957 Y106.807 E0.47886
G1 X78.027 Y106.877
G0 F3600 X77.072 Y105.356
G1 F2400 X71.17 Y99.454 E0.41642
G1 X71.1 Y99.384
G0 F3600 X71.17 Y98.888
G1 F2400 X76.716 Y104.435 E0.39134
G1 X76.786 Y104.505
G0 F3600 X76.361 Y103.514
G1 F2400 X71.17 Y98.323 E0.36625
G1 X71.1 Y98.253
G0 F3600 X71.17 Y97.757
G1 F2400 X76.185 Y102.773 E0.35387
G1 X76.255 Y102.843
G0 F3600 X76.055 Y102.077
G1 F2400 X71.17 Y97.191 E0.3447
G1 X71.1 Y97.121
G0 F3600 X71.17 Y96.626
G1 F2400 X75.925 Y101.381 E0.33549
G1 X75.995 Y101.451
G0 F3600 X75.876 Y100.766
G1 F2400 X71.17 Y96.06 E0.33203
G1 X71.1 Y95.99
G0 F3600 X71.17 Y95.494
G1 F2400 X75.876 Y100.201 E0.33207
G1 X75.946 Y100.271
G0 F3600 X75.876 Y99.635
G1 F2400 X71.18 Y94.939 E0.33133
G1 X71.11 Y94.869
G0 F3600 X71.231 Y94.424
G1 F2400 X75.876 Y99.069 E0.32773
G1 X75.946 Y99.139
G0 F3600 X75.936 Y98.563
G1 F2400 X71.282 Y93.909 E0.32836
G1 X71.212 Y93.839
G0 F3600 X71.332 Y93.393
G1 F2400 X76.025 Y98.087 E0.33115
G1 X76.095 Y98.157
G0 F3600 X76.114 Y97.61
G1 F2400 X71.444 Y92.94 E0.32949
G1 X71.374 Y92.87
G0 F3600 X71.575 Y92.505
G1 F2400 X76.203 Y97.133 E0.32653
G1 X76.273 Y97.203
G0 F3600 X76.294 Y96.659
G1 F2400 X71.706 Y92.071 E0.32371
G1 X71.636 Y92.001
G0 F3600 X71.838 Y91.637
G1 F2400 X76.452 Y96.251 E0.32554
G1 X76.522 Y96.321
G0 F3600 X76.61 Y95.843
G1 F2400 X72.032 Y91.266 E0.32297
G1 X71.962 Y91.196
G0 F3600 X72.23 Y90.898
G1 F2400 X76.767 Y95.434 E0.32007
G1 X76.837 Y95.504
G0 F3600 X76.924 Y95.026
G1 F2400 X72.428 Y90.53 E0.31722
G1 X72.358 Y90.46
G0 F3600 X72.625 Y90.161
G1 F2400 X77.082 Y94.618 E0.31447
G1 X77.152 Y94.688
G0 F3600 X77.292 Y94.262
G1 F2400 X72.871 Y89.842 E0.31189
G1 X72.801 Y89.772
G0 F3600 X73.126 Y89.531
G1 F2400 X77.508 Y93.913 E0.30917
G1 X77.578 Y93.983
G0 F3600 X77.725 Y93.565
G1 F2400 X73.38 Y89.219 E0.3066
G1 X73.31 Y89.149
G0 F3600 X73.635 Y88.909
G1 F2400 X77.942 Y93.215 E0.30385
G1 X78.012 Y93.285
G0 F3600 X78.159 Y92.867
G1 F2400 X73.92 Y88.628 E0.29908
G1 X73.85 Y88.558
G0 F3600 X74.231 Y88.373
G1 F2400 X78.397 Y92.539 E0.29393
G1 X78.467 Y92.609
G0 F3600 X78.667 Y92.243
G1 F2400 X74.541 Y88.118 E0.29108
G1 X74.471 Y88.048
G0 F3600 X74.852 Y87.863
G1 F2400 X78.937 Y91.947 E0.28818
G1 X79.007 Y92.017
G0 F3600 X79.206 Y91.651
G1 F2400 X75.174 Y87.619 E0.28448
G1 X75.104 Y87.549
G0 F3600 X75.543 Y87.422
G1 F2400 X79.476 Y91.356 E0.27753
G1 X79.546 Y91.426
G0 F3600 X79.746 Y91.059
G1 F2400 X75.91 Y87.224 E0.27062
G1 X75.84 Y87.154
G0 F3600 X76.279 Y87.027
G1 F2400 X80.057 Y90.805 E0.26656
G1 X80.127 Y90.875
G0 F3600 X80.379 Y90.561
G1 F2400 X76.652 Y86.834 E0.26296
G1 X76.582 Y86.764
G0 F3600 X77.086 Y86.703
G1 F2400 X80.701 Y90.318 E0.25506
G1 X80.771 Y90.388
G0 F3600 X81.023 Y90.074
G1 F2400 X77.52 Y86.571 E0.24716
G1 X77.45 Y86.501
G0 F3600 X77.954 Y86.44
G1 F2400 X81.345 Y89.83 E0.23922
G1 X81.415 Y89.9
G0 F3600 X81.681 Y89.601
G1 F2400 X78.411 Y86.33 E0.23075
G1 X78.341 Y86.26
G0 F3600 X78.926 Y86.28
G1 F2400 X82.059 Y89.412 E0.22101
G1 X82.129 Y89.482
G0 F3600 X82.436 Y89.224
G1 F2400 X79.441 Y86.229 E0.21131
G1 X79.371 Y86.159
G0 F3600 X79.956 Y86.179
G1 F2400 X82.814 Y89.037 E0.20165
G1 X82.884 Y89.107
G0 F3600 X83.192 Y88.849
G1 F2400 X80.513 Y86.17 E0.18902
G1 X80.443 Y86.1
G0 F3600 X81.078 Y86.17
G1 F2400 X83.57 Y88.661 E0.17579
G1 X83.64 Y88.731
G0 F3600 X84.005 Y88.531
G1 F2400 X81.644 Y86.17 E0.16658
G1 X81.574 Y86.1
G0 F3600 X82.21 Y86.17
G1 F2400 X84.446 Y88.406 E0.15776
G1 X84.516 Y88.476
G0 F3600 X84.886 Y88.28
G1 F2400 X82.776 Y86.17 E0.14887
G1 X82.706 Y86.1
G0 F3600 X83.341 Y86.17
G1 F2400 X85.326 Y88.155 E0.14005
G1 X85.396 Y88.225
G0 F3600 X85.767 Y88.03
G1 F2400 X83.907 Y86.17 E0.13123
G1 X83.837 Y86.1
G0 F3600 X84.473 Y86.17
G1 F2400 X86.286 Y87.983 E0.12792
G1 X86.356 Y88.053
