;FLAVOR:Marlin
;TIME:5880
;Filament used: 9.05141m
;Layer height: 0.2
;Generated with Cura_SteamEngine 3.3.1
M104 S200
M109 S200
M82 ;absolute extrusion mode
; -- START GCODE --
G21                     ;set units to millimetres
G90                     ;set to absolute positioning
M106 S0                 ;set fan speed to zero (turned off)
G28 X0 Y0               ;move to the X/Y origin (Home)
G28 Z0                  ;move to the Z origin (Home)
G1 Z15.0 F1200          ;move Z to position 15.0 mm
G92 E0                  ;zero the extruded length
G1 E20 F200             ;extrude 20mm of feed stock
G92 E0                  ;zero the extruded length again
G1 F7200                ;set feedrate to 120 mm/s
; -- end of START GCODE --
G92 E0
G1 F2700 E-6.5
;LAYER_COUNT:115
;LAYER:0
M107
G0 F3600 X123.98 Y65.955 Z0.2
;TYPE:SKIRT
G1 F2700 E0
G1 F2400 X124.209 Y65.546 E0.01559
G1 X137.049 Y45.811 E0.79868
G1 X137.375 Y45.384 E0.81655
G1 X137.759 Y45.011 E0.83435
G1 X138.196 Y44.699 E0.85221
G1 X138.673 Y44.455 E0.87003
G1 X139.182 Y44.285 E0.88788
G1 X139.71 Y44.192 E0.90571
G1 X140.067 Y44.174 E0.9176
G1 X169.774 Y44.171 E1.90566
G1 X170.308 Y44.211 E1.92347
G1 X170.831 Y44.33 E1.94131
G1 X171.331 Y44.525 E1.95916
G1 X171.796 Y44.792 E1.97699
G1 X172.216 Y45.126 E1.99484
G1 X172.582 Y45.518 E2.01268
G1 X172.885 Y45.96 E2.0305
G1 X173.12 Y46.442 E2.04834
G1 X173.28 Y46.954 E2.06618
G1 X173.363 Y47.484 E2.08402
G1 X173.374 Y47.77 E2.09354
G1 X173.383 Y98.531 E3.78186
G1 X173.381 Y98.644 E3.78562
G1 X173.22 Y103.802 E3.95726
G1 X173.223 Y106.512 E4.04739
G1 X173.381 Y110.963 E4.19553
G1 X173.383 Y111.092 E4.19982
G1 X173.373 Y162.231 E5.90071
G1 X173.333 Y162.765 E5.91852
G1 X173.214 Y163.288 E5.93636
G1 X173.018 Y163.788 E5.95422
G1 X172.751 Y164.253 E5.97205
G1 X172.418 Y164.673 E5.98988
G1 X172.025 Y165.038 E6.00772
G1 X171.583 Y165.342 E6.02556
G1 X171.101 Y165.576 E6.04338
G1 X170.589 Y165.736 E6.06123
G1 X170.059 Y165.819 E6.07907
G1 X169.773 Y165.83 E6.08859
G1 X140.073 Y165.829 E7.07641
G1 X139.538 Y165.789 E7.09426
G1 X139.015 Y165.67 E7.1121
G1 X138.516 Y165.475 E7.12992
G1 X138.051 Y165.207 E7.14777
G1 X137.631 Y164.874 E7.16559
G1 X137.265 Y164.482 E7.18343
G1 X137.057 Y164.194 E7.19525
G1 X124.221 Y144.49 E7.9774
G1 X123.962 Y144.02 E7.99525
G1 X123.776 Y143.517 E8.01308
G1 X123.667 Y142.992 E8.03092
G1 X123.637 Y142.528 E8.04638
G1 X123.628 Y130.489 E8.4468
G1 X123.668 Y129.954 E8.46465
G1 X123.726 Y129.65 E8.47494
G1 X124.748 Y125.366 E8.62142
G1 X125.281 Y122.723 E8.7111
G1 X126.131 Y117.334 E8.89256
G1 X126.675 Y111.914 E9.07373
G1 X126.913 Y106.458 E9.25537
G1 X126.842 Y100.998 E9.43699
G1 X126.463 Y95.566 E9.61809
G1 X125.777 Y90.164 E9.79921
G1 X124.789 Y84.812 E9.98022
G1 X123.735 Y80.387 E10.13152
G1 X123.65 Y79.858 E10.14934
G1 X123.637 Y79.556 E10.15939
G1 X123.627 Y67.512 E10.55998
G1 X123.667 Y66.977 E10.57782
G1 X123.785 Y66.454 E10.59565
G1 X123.98 Y65.955 E10.61347
G0 F3600 X124.379 Y66.049
G1 F2400 X124.545 Y65.764 E10.62444
G1 X137.385 Y46.029 E11.40753
G1 X137.693 Y45.628 E11.42435
G1 X138.061 Y45.281 E11.44117
G1 X138.478 Y44.996 E11.45797
G1 X138.936 Y44.781 E11.4748
G1 X139.421 Y44.64 E11.4916
G1 X140.067 Y44.574 E11.5132
G1 X169.774 Y44.571 E12.50125
G1 X170.278 Y44.611 E12.51807
G1 X170.769 Y44.73 E12.53487
G1 X171.236 Y44.924 E12.55169
G1 X171.666 Y45.19 E12.56851
G1 X172.049 Y45.52 E12.58532
G1 X172.375 Y45.907 E12.60215
G1 X172.636 Y46.339 E12.61894
G1 X172.826 Y46.808 E12.63577
G1 X172.939 Y47.301 E12.65259
G1 X172.974 Y47.77 E12.66824
G1 X172.983 Y98.531 E14.35656
G1 X172.981 Y98.632 E14.35992
G1 X172.82 Y103.791 E14.53159
G1 X172.823 Y106.515 E14.62219
G1 X172.981 Y110.977 E14.77069
G1 X172.983 Y111.092 E14.77451
G1 X172.973 Y162.231 E16.4754
G1 X172.933 Y162.735 E16.49222
G1 X172.814 Y163.226 E16.50902
G1 X172.619 Y163.693 E16.52586
G1 X172.353 Y164.123 E16.54267
G1 X172.023 Y164.505 E16.55946
G1 X171.637 Y164.831 E16.57627
G1 X171.204 Y165.092 E16.59308
G1 X170.735 Y165.282 E16.60991
G1 X170.242 Y165.395 E16.62673
G1 X169.773 Y165.43 E16.64238
G1 X140.073 Y165.429 E17.6302
G1 X139.569 Y165.389 E17.64702
G1 X139.077 Y165.27 E17.66386
G1 X138.611 Y165.075 E17.68066
G1 X138.181 Y164.81 E17.69746
G1 X137.798 Y164.479 E17.71429
G1 X137.392 Y163.976 E17.73579
G1 X124.556 Y144.272 E18.51794
G1 X124.314 Y143.828 E18.53476
G1 X124.145 Y143.351 E18.55159
G1 X124.054 Y142.854 E18.5684
G1 X124.037 Y142.527 E18.57929
G1 X124.028 Y130.488 E18.97971
G1 X124.115 Y129.743 E19.00466
G1 X125.138 Y125.454 E19.15131
G1 X125.674 Y122.795 E19.24153
G1 X126.528 Y117.383 E19.42376
G1 X127.075 Y111.936 E19.60584
G1 X127.313 Y106.47 E19.78781
G1 X127.242 Y100.983 E19.97032
G1 X126.862 Y95.541 E20.15177
G1 X126.171 Y90.092 E20.33445
G1 X125.179 Y84.725 E20.51598
G1 X124.124 Y80.294 E20.66748
G1 X124.037 Y79.556 E20.69219
G1 X124.027 Y67.512 E21.09278
G1 X124.067 Y67.008 E21.1096
G1 X124.185 Y66.516 E21.12642
G1 X124.379 Y66.049 E21.14324
G1 F2700 E14.64324
G0 F3600 X126.76 Y66.97
G0 X127.836 Y67.669
G0 X160.874 Y66.204
G0 X162.762 Y66.452
G0 X164.523 Y67.182
G0 X166.034 Y68.341
G0 X167.193 Y69.852
G0 X168.001 Y71.651
G0 X167.903 Y71.67
;TYPE:WALL-INNER
G1 F2700 E21.14324
G1 F2400 X167.159 Y69.871 E21.20799
G1 X166.006 Y68.369 E21.27097
G1 X164.503 Y67.216 E21.33398
G1 X162.752 Y66.49 E21.39702
G1 X160.874 Y66.244 E21.46002
G1 X158.997 Y66.49 E21.52298
G1 X157.245 Y67.216 E21.58606
G1 X155.743 Y68.369 E21.64904
G1 X154.59 Y69.871 E21.71202
G1 X153.865 Y71.623 E21.77508
G1 X153.618 Y73.5 E21.83805
G1 X153.865 Y75.377 E21.90101
G1 X154.59 Y77.129 E21.96408
G1 X155.743 Y78.631 E22.02706
G1 X157.245 Y79.784 E22.09004
G1 X158.997 Y80.51 E22.15311
G1 X160.874 Y80.756 E22.21608
G1 X162.752 Y80.51 E22.27907
G1 X164.503 Y79.784 E22.34212
G1 X166.006 Y78.631 E22.40512
G1 X167.16 Y77.129 E22.46812
G1 X167.903 Y75.326 E22.53298
G1 X167.903 Y71.67 E22.65458
G0 F3600 X168.001 Y71.651
G0 X169.113 Y98.569
G0 X169.183 Y98.639
G1 F2400 X140.388 Y98.639 E23.61231
G1 X127.817 Y79.336 E24.37847
G1 X127.817 Y67.664 E24.76668
G1 X140.388 Y48.361 E25.53285
G1 X169.183 Y48.361 E26.49057
G1 X169.183 Y98.639 E28.16283
G0 F3600 X169.583 Y99.039
;TYPE:WALL-OUTER
G1 F2400 X140.172 Y99.039 E29.14104
G1 X127.417 Y79.454 E29.91841
G1 X127.417 Y67.546 E30.31447
G1 X140.172 Y47.961 E31.09183
G1 X169.583 Y47.961 E32.07005
G1 X169.583 Y99.039 E33.76891
G0 F3600 X169.383 Y99.039
G0 X169.113 Y98.569
G0 X168.003 Y71.749
G0 X167.503 Y71.749
G1 F2400 X166.81 Y70.073 E33.82923
G1 X165.721 Y68.654 E33.88872
G1 X164.301 Y67.565 E33.94824
G1 X162.648 Y66.88 E34.00775
G1 X160.874 Y66.647 E34.06726
G1 X159.101 Y66.88 E34.12674
G1 X157.447 Y67.565 E34.18628
G1 X156.028 Y68.654 E34.24578
G1 X154.939 Y70.073 E34.30527
G1 X154.255 Y71.727 E34.3648
G1 X154.021 Y73.5 E34.42428
G1 X154.255 Y75.273 E34.48376
G1 X154.939 Y76.927 E34.54329
G1 X156.028 Y78.346 E34.60279
G1 X157.447 Y79.435 E34.66228
G1 X159.101 Y80.12 E34.72182
G1 X160.874 Y80.353 E34.7813
G1 X162.648 Y80.12 E34.84081
G1 X164.301 Y79.435 E34.90032
G1 X165.721 Y78.346 E34.95984
G1 X166.81 Y76.927 E35.01933
G1 X167.503 Y75.247 E35.07978
G1 X167.503 Y71.749 E35.19612
G0 F3600 X167.427 Y71.565
G0 X167.889 Y71.375
G0 X168.293 Y71.592
;TYPE:SKIN
G1 F2400 X167.5 Y69.674 E35.26515
G1 X166.284 Y68.09 E35.33157
G1 X164.7 Y66.875 E35.39797
G1 X162.854 Y66.11 E35.46443
G1 X160.874 Y65.85 E35.53085
G1 X158.895 Y66.11 E35.59724
G1 X157.048 Y66.875 E35.66373
G1 X155.464 Y68.09 E35.73013
G1 X154.249 Y69.674 E35.79653
G1 X153.485 Y71.521 E35.86301
G1 X153.224 Y73.5 E35.9294
G1 X153.485 Y75.479 E35.99579
G1 X154.249 Y77.326 E36.06227
G1 X155.464 Y78.91 E36.12867
G1 X157.048 Y80.125 E36.19506
G1 X158.895 Y80.89 E36.26156
G1 X160.874 Y81.15 E36.32794
G1 X162.854 Y80.89 E36.39436
G1 X164.7 Y80.125 E36.46083
G1 X166.284 Y78.91 E36.52722
G1 X167.501 Y77.326 E36.59366
G1 X168.293 Y75.404 E36.6628
G1 X168.293 Y71.592 E36.78959
G0 F3600 X168.793 Y48.751
G1 F2400 X168.793 Y98.249 E38.4359
G1 X140.6 Y98.249 E39.3736
G1 X128.207 Y79.22 E40.1289
G1 X128.207 Y67.78 E40.5094
G1 X140.6 Y48.751 E41.26469
G1 X168.793 Y48.751 E42.2024
G0 F3600 X168.612 Y49.252
G1 F2400 X168.29 Y48.931 E42.21752
G0 F3600 X167.725 Y48.931
G1 F2400 X168.612 Y49.818 E42.25924
G1 X168.682 Y49.888
G0 F3600 X168.612 Y50.384
G1 F2400 X167.159 Y48.931 E42.32759
G1 X167.089 Y48.861
G0 F3600 X166.593 Y48.931
G1 F2400 X168.612 Y50.949 E42.42253
G1 X168.682 Y51.019
G0 F3600 X168.612 Y51.515
G1 F2400 X166.027 Y48.931 E42.5441
G1 X165.957 Y48.861
G0 F3600 X165.462 Y48.931
G1 F2400 X168.612 Y52.081 E42.69226
G1 X168.682 Y52.151
G0 F3600 X168.612 Y52.646
G1 F2400 X164.896 Y48.931 E42.86703
G1 X164.826 Y48.861
G0 F3600 X164.33 Y48.931
G1 F2400 X168.612 Y53.212 E43.06842
G1 X168.682 Y53.282
G0 F3600 X168.612 Y53.778
G1 F2400 X163.765 Y48.931 E43.29641
G1 X163.695 Y48.861
G0 F3600 X163.199 Y48.931
G1 F2400 X168.612 Y54.343 E43.55099
G1 X168.682 Y54.413
G0 F3600 X168.612 Y54.909
G1 F2400 X162.633 Y48.931 E43.8322
G1 X162.563 Y48.861
G0 F3600 X162.068 Y48.931
G1 F2400 X168.612 Y55.475 E44.14001
G1 X168.682 Y55.545
G0 F3600 X168.612 Y56.041
G1 F2400 X161.502 Y48.931 E44.47445
G1 X161.432 Y48.861
G0 F3600 X160.936 Y48.931
G1 F2400 X168.612 Y56.606 E44.83548
G1 X168.682 Y56.676
G0 F3600 X168.612 Y57.172
G1 F2400 X160.371 Y48.931 E45.22311
G1 X160.301 Y48.861
G0 F3600 X159.805 Y48.931
G1 F2400 X168.612 Y57.738 E45.63736
G1 X168.682 Y57.808
G0 F3600 X168.612 Y58.303
G1 F2400 X159.239 Y48.931 E46.07822
G1 X159.169 Y48.861
G0 F3600 X158.674 Y48.931
G1 F2400 X168.612 Y58.869 E46.54567
G1 X168.682 Y58.939
G0 F3600 X168.612 Y59.435
G1 F2400 X158.108 Y48.931 E47.03975
G1 X158.038 Y48.861
G0 F3600 X157.542 Y48.931
G1 F2400 X168.612 Y60 E47.56042
G1 X168.682 Y60.07
G0 F3600 X168.612 Y60.566
G1 F2400 X156.976 Y48.931 E48.10772
G1 X156.906 Y48.861
G0 F3600 X156.411 Y48.931
G1 F2400 X168.612 Y61.132 E48.68162
G1 X168.682 Y61.202
G0 F3600 X168.612 Y61.697
G1 F2400 X155.845 Y48.931 E49.28211
G1 X155.775 Y48.861
G0 F3600 X155.279 Y48.931
G1 F2400 X168.612 Y62.263 E49.90923
G1 X168.682 Y62.333
G0 F3600 X168.612 Y62.829
G1 F2400 X154.714 Y48.931 E50.56295
G1 X154.644 Y48.861
G0 F3600 X154.148 Y48.931
G1 F2400 X168.612 Y63.394 E51.24327
G1 X168.682 Y63.464
G0 F3600 X168.612 Y63.96
G1 F2400 X153.582 Y48.931 E51.95021
G1 X153.512 Y48.861
G0 F3600 X153.017 Y48.931
G1 F2400 X168.612 Y64.526 E52.68376
G1 X168.682 Y64.596
G0 F3600 X168.612 Y65.092
G1 F2400 X152.451 Y48.931 E53.44392
G1 X152.381 Y48.861
G0 F3600 X151.885 Y48.931
G1 F2400 X168.612 Y65.657 E54.23068
G1 X168.682 Y65.727
G0 F3600 X168.612 Y66.223
G1 F2400 X151.32 Y48.931 E55.04405
G1 X151.25 Y48.861
G0 F3600 X150.754 Y48.931
G1 F2400 X168.612 Y66.789 E55.88403
G1 X168.682 Y66.859
G0 F3600 X168.612 Y67.354
G1 F2400 X150.188 Y48.931 E56.75062
G1 X150.118 Y48.861
G0 F3600 X149.623 Y48.931
G1 F2400 X168.612 Y67.92 E57.6438
G1 X168.682 Y67.99
G0 F3600 X168.612 Y68.486
G1 F2400 X149.057 Y48.931 E58.56361
G1 X148.987 Y48.861
G0 F3600 X148.491 Y48.931
G1 F2400 X168.612 Y69.051 E59.51001
G1 X168.682 Y69.121
G0 F3600 X168.612 Y69.617
G1 F2400 X147.926 Y48.931 E60.48302
G1 X147.856 Y48.861
G0 F3600 X147.36 Y48.931
G1 F2400 X166.315 Y67.885 E61.37458
G1 X166.385 Y67.955
G0 F3600 X166.486 Y68.057
G1 F2400 X168.612 Y70.183 E61.47458
G1 X168.682 Y70.253
G0 F3600 X168.612 Y70.748
G1 F2400 X167.804 Y69.941 E61.51256
G1 X167.734 Y69.871
G0 F3600 X168.203 Y70.905
G0 X168.407 Y71.109
G1 F2400 X168.542 Y71.81 E61.52545
G1 X168.542 Y72.375 E61.53202
G1 X168.542 Y72.941 E61.53861
G1 X168.542 Y73.507 E61.5452
G1 X168.542 Y74.072 E61.55178
G1 X168.542 Y74.638 E61.55837
G1 X168.542 Y75.204 E61.56496
G1 X168.504 Y75.732 E61.57332
G1 X168.421 Y76.214 E61.58731
G1 X168.339 Y76.698 E61.60911
G0 F3600 X168.612 Y77.537
G1 F2400 X167.901 Y76.826 E61.64255
G1 X167.831 Y76.756
G0 F3600 X167.736 Y77.226
G1 F2400 X168.612 Y78.102 E61.68375
G1 X168.682 Y78.172
G0 F3600 X168.612 Y78.668
G1 F2400 X167.528 Y77.584 E61.73474
G1 X167.458 Y77.514
G0 F3600 X167.283 Y77.904
G1 F2400 X168.612 Y79.234 E61.79728
G1 X168.682 Y79.304
G0 F3600 X168.612 Y79.799
G1 F2400 X167.037 Y78.224 E61.87136
G1 X166.967 Y78.154
G0 F3600 X166.791 Y78.544
G1 F2400 X168.612 Y80.365 E61.95701
G1 X168.682 Y80.435
G0 F3600 X168.612 Y80.931
G1 F2400 X166.545 Y78.864 E62.05424
G1 X166.475 Y78.794
G0 F3600 X166.266 Y79.15
G1 F2400 X168.612 Y81.496 E62.16459
G1 X168.682 Y81.566
G0 F3600 X168.612 Y82.062
G1 F2400 X165.946 Y79.396 E62.28999
G1 X165.876 Y79.326
G0 F3600 X165.626 Y79.642
G1 F2400 X168.612 Y82.628 E62.43044
G1 X168.682 Y82.698
G0 F3600 X168.612 Y83.193
G1 F2400 X165.306 Y79.887 E62.58594
G1 X165.236 Y79.817
G0 F3600 X164.985 Y80.132
G1 F2400 X168.612 Y83.759 E62.75655
G1 X168.682 Y83.829
G0 F3600 X168.612 Y84.325
G1 F2400 X164.634 Y80.347 E62.94366
G1 X164.564 Y80.277
G0 F3600 X164.234 Y80.513
G1 F2400 X168.612 Y84.89 E63.14956
G1 X168.682 Y84.96
G0 F3600 X168.612 Y85.456
G1 F2400 X163.834 Y80.678 E63.37431
G1 X163.764 Y80.608
G0 F3600 X163.435 Y80.844
G1 F2400 X168.612 Y86.022 E63.61784
G1 X168.682 Y86.092
G0 F3600 X168.612 Y86.588
G1 F2400 X163.034 Y81.01 E63.88021
G1 X162.964 Y80.94
G0 F3600 X162.568 Y81.109
G1 F2400 X168.612 Y87.153 E64.1645
G1 X168.682 Y87.223
G0 F3600 X168.612 Y87.719
G1 F2400 X162.068 Y81.175 E64.47231
G1 X161.998 Y81.105
G0 F3600 X161.568 Y81.24
G1 F2400 X168.612 Y88.285 E64.80367
G1 X168.682 Y88.355
G0 F3600 X168.612 Y88.85
G1 F2400 X161.068 Y81.306 E65.15851
G1 X160.998 Y81.236
G0 F3600 X160.475 Y81.279
G1 F2400 X168.612 Y89.416 E65.54125
G1 X168.682 Y89.486
G0 F3600 X168.612 Y89.982
G1 F2400 X159.824 Y81.194 E65.95461
G1 X159.754 Y81.124
G0 F3600 X159.173 Y81.108
G1 F2400 X168.612 Y90.547 E66.39859
G1 X168.682 Y90.617
G0 F3600 X168.612 Y91.113
G1 F2400 X158.365 Y80.866 E66.88058
G1 X158.295 Y80.796
G0 F3600 X157.399 Y80.465
G1 F2400 X168.612 Y91.679 E67.40803
G1 X168.682 Y91.749
G0 F3600 X168.612 Y92.244
G1 F2400 X155.643 Y79.275 E68.01805
G1 X155.573 Y79.205
G0 F3600 X155.097 Y78.729
G1 F2400 X134.623 Y58.255 E68.98109
G1 X134.553 Y58.185
G0 F3600 X134.846 Y57.913
G1 F2400 X153.907 Y76.974 E69.87766
G1 X153.977 Y77.044
G0 F3600 X153.508 Y76.009
G1 F2400 X135.069 Y57.57 E70.74497
G1 X134.999 Y57.5
G0 F3600 X135.292 Y57.228
G1 F2400 X153.266 Y75.202 E71.59041
G1 X153.336 Y75.272
G0 F3600 X153.18 Y74.55
G1 F2400 X135.516 Y56.886 E72.42127
G1 X135.446 Y56.816
G0 F3600 X135.739 Y56.543
G1 F2400 X153.094 Y73.898 E73.2376
G1 X153.164 Y73.968
G0 F3600 X153.067 Y73.305
G1 F2400 X135.962 Y56.2 E74.04217
G1 X135.892 Y56.13
G0 F3600 X136.185 Y55.857
G1 F2400 X153.133 Y72.805 E74.83935
G1 X153.203 Y72.875
G0 F3600 X153.199 Y72.306
G1 F2400 X136.408 Y55.515 E75.62915
G1 X136.338 Y55.445
G0 F3600 X136.631 Y55.172
G1 F2400 X153.265 Y71.806 E76.41156
G1 X153.335 Y71.876
G0 F3600 X153.364 Y71.34
G1 F2400 X136.854 Y54.83 E77.18814
G1 X136.784 Y54.76
G0 F3600 X137.077 Y54.487
G1 F2400 X153.529 Y70.939 E77.96199
G1 X153.599 Y71.009
G0 F3600 X153.695 Y70.539
G1 F2400 X137.301 Y54.145 E78.73311
G1 X137.231 Y54.075
G0 F3600 X137.523 Y53.802
G1 F2400 X153.86 Y70.139 E79.50156
G1 X153.93 Y70.209
G0 F3600 X154.026 Y69.739
G1 F2400 X137.747 Y53.46 E80.26727
G1 X137.677 Y53.39
G0 F3600 X137.969 Y53.117
G1 F2400 X154.241 Y69.388 E81.03263
G1 X154.311 Y69.458
G0 F3600 X154.486 Y69.068
G1 F2400 X138.193 Y52.774 E81.79903
G1 X138.123 Y52.704
G0 F3600 X138.416 Y52.431
G1 F2400 X154.731 Y68.747 E82.56646
G1 X154.801 Y68.817
G0 F3600 X154.977 Y68.427
G1 F2400 X138.639 Y52.089 E83.33495
G1 X138.569 Y52.019
G0 F3600 X138.862 Y51.746
G1 F2400 X155.223 Y68.107 E84.10452
G1 X155.293 Y68.177
G0 F3600 X155.508 Y67.827
G1 F2400 X139.085 Y51.404 E84.87701
G1 X139.015 Y51.334
G0 F3600 X139.308 Y51.061
G1 F2400 X155.828 Y67.581 E85.65406
G1 X155.898 Y67.651
G0 F3600 X156.148 Y67.336
G1 F2400 X139.531 Y50.719 E86.43567
G1 X139.461 Y50.649
G0 F3600 X139.754 Y50.376
G1 F2400 X156.469 Y67.09 E87.22187
G1 X156.539 Y67.16
G0 F3600 X156.789 Y66.845
G1 F2400 X139.978 Y50.034 E88.01261
G1 X139.908 Y49.964
G0 F3600 X140.2 Y49.691
G1 F2400 X157.147 Y66.637 E88.80972
G1 X157.217 Y66.707
