;FLAVOR:Marlin
;TIME:3741
;Filament used: 4.9213m
;Layer height: 0.2
;Generated with Cura_SteamEngine 3.3.0-BETA
M104 S200
M109 S200
M82 ;absolute extrusion mode
; -- START GCODE --
G21                     ;set units to millimetres
G90                     ;set to absolute positioning
M106 S0                 ;set fan speed to zero (turned off)
G28 X0 Y0               ;move to the X/Y origin (Home)
G28 Z0                  ;move to the Z origin (Home)
G1 Z15.0 F1200          ;move Z to position 15.0 mm
G92 E0                  ;zero the extruded length
G1 E20 F200             ;extrude 20mm of feed stock
G92 E0                  ;zero the extruded length again
G1 F7200                ;set feedrate to 120 mm/s
; -- end of START GCODE --
G92 E0
G1 F2700 E-6.5
;LAYER_COUNT:16
;LAYER:0
M107
G0 F3600 X107.557 Y68.587 Z0.2
;TYPE:SKIRT
G1 F2700 E0
G1 F2400 X109.137 Y66.107 E0.0978
G1 X109.31 Y65.858 E0.10789
G1 X111.356 Y63.175 E0.22011
G1 X111.537 Y62.957 E0.22953
G1 X112.989 Y61.335 E0.30194
G1 X113.18 Y61.137 E0.31109
G1 X115.457 Y58.955 E0.41598
G1 X115.682 Y58.757 E0.42595
G1 X117.788 Y57.051 E0.5161
G1 X118.004 Y56.889 E0.52508
G1 X120.211 Y55.36 E0.61438
G1 X120.438 Y55.215 E0.62334
G1 X122.764 Y53.849 E0.71305
G1 X123.007 Y53.718 E0.72224
G1 X125.649 Y52.428 E0.82002
G1 X125.92 Y52.31 E0.82986
G1 X128.727 Y51.214 E0.93008
G1 X129.009 Y51.117 E0.94
G1 X131.874 Y50.264 E1.03942
G1 X132.169 Y50.189 E1.04955
G1 X135.111 Y49.578 E1.14949
G1 X135.41 Y49.529 E1.15956
G1 X138.259 Y49.184 E1.25501
G1 X138.605 Y49.159 E1.26655
G1 X141.903 Y49.079 E1.37628
G1 X142.116 Y49.08 E1.38336
G1 X147.673 Y49.275 E1.5683
G1 X153.116 Y49.156 E1.74938
G1 X158.709 Y48.719 E1.93597
G1 X159.141 Y48.711 E1.95034
G1 X162.211 Y48.84 E2.05254
G1 X162.511 Y48.865 E2.06255
G1 X165.433 Y49.234 E2.16051
G1 X165.729 Y49.284 E2.1705
G1 X168.675 Y49.909 E2.27066
G1 X168.965 Y49.984 E2.28062
G1 X171.798 Y50.836 E2.37902
G1 X172.086 Y50.936 E2.38916
G1 X174.865 Y52.036 E2.48857
G1 X175.14 Y52.158 E2.49857
G1 X177.843 Y53.499 E2.59893
G1 X178.108 Y53.645 E2.60899
G1 X180.678 Y55.202 E2.70893
G1 X180.93 Y55.369 E2.71899
G1 X183.359 Y57.135 E2.81887
G1 X183.595 Y57.322 E2.82889
G1 X185.883 Y59.298 E2.92944
G1 X186.103 Y59.505 E2.93949
G1 X188.224 Y61.672 E3.04034
G1 X188.406 Y61.872 E3.04933
G1 X189.721 Y63.435 E3.11727
G1 X189.857 Y63.608 E3.12459
G1 X191.466 Y65.776 E3.21439
G1 X191.619 Y66 E3.22341
G1 X193.078 Y68.312 E3.31434
G1 X193.216 Y68.55 E3.32349
G1 X194.497 Y70.972 E3.41462
G1 X194.627 Y71.243 E3.42461
G1 X195.97 Y74.393 E3.53851
G1 X196.083 Y74.697 E3.5493
G1 X196.915 Y77.268 E3.63917
G1 X196.996 Y77.558 E3.64919
G1 X197.722 Y80.668 E3.75541
G1 X197.765 Y80.88 E3.7626
G1 X199.144 Y88.954 E4.03503
G1 X199.718 Y91.547 E4.12337
G1 X200.381 Y94.191 E4.21403
G1 X201.938 Y99.462 E4.39683
G1 X202.051 Y99.986 E4.41466
G1 X202.084 Y100.582 E4.43451
G1 X201.968 Y104.737 E4.57276
G1 X201.958 Y104.922 E4.57892
G1 X201.703 Y108.128 E4.68589
G1 X201.682 Y108.324 E4.69245
G1 X201.102 Y112.623 E4.83673
G1 X201.073 Y112.803 E4.84279
G1 X200.466 Y116.055 E4.95282
G1 X200.427 Y116.237 E4.95902
G1 X199.525 Y119.98 E5.08707
G1 X199.475 Y120.165 E5.09345
G1 X198.376 Y123.853 E5.22144
G1 X198.308 Y124.058 E5.22862
G1 X196.777 Y128.256 E5.37724
G1 X196.709 Y128.43 E5.38346
G1 X195.348 Y131.635 E5.49927
G1 X195.251 Y131.843 E5.5069
G1 X192.93 Y136.467 E5.67899
G1 X192.82 Y136.67 E5.68666
G1 X190.67 Y140.344 E5.82825
G1 X190.574 Y140.499 E5.83431
G1 X188.708 Y143.346 E5.94753
G1 X188.576 Y143.535 E5.9552
G1 X185.486 Y147.65 E6.12635
G1 X185.343 Y147.828 E6.13395
G1 X182.603 Y151.031 E6.27414
G1 X182.48 Y151.167 E6.28024
G1 X180.102 Y153.676 E6.39522
G1 X179.705 Y154.037 E6.41306
G1 X179.259 Y154.335 E6.43091
G1 X178.774 Y154.563 E6.44873
G1 X178.227 Y154.724 E6.46769
G1 X172.708 Y155.88 E6.65524
G1 X170.081 Y156.546 E6.74538
G1 X164.832 Y158.121 E6.92765
G1 X159.474 Y160.02 E7.11672
G1 X159.208 Y160.103 E7.12599
G1 X156.987 Y160.702 E7.2025
G1 X156.713 Y160.764 E7.21184
G1 X155.8 Y160.935 E7.24274
G1 X155.613 Y160.965 E7.24904
G1 X154.27 Y161.144 E7.2941
G1 X153.985 Y161.171 E7.30362
G1 X151.856 Y161.284 E7.37453
G1 X151.542 Y161.287 E7.38498
G1 X150.112 Y161.238 E7.43257
G1 X149.836 Y161.218 E7.44177
G1 X148.276 Y161.044 E7.49398
G1 X147.941 Y160.99 E7.50526
G1 X145.208 Y160.421 E7.59811
G1 X144.882 Y160.337 E7.60931
G1 X136.072 Y157.623 E7.91592
G1 X133.452 Y156.976 E8.00568
G1 X130.818 Y156.407 E8.09531
G1 X125.411 Y155.473 E8.27781
G1 X122.734 Y155.126 E8.36759
G1 X119.162 Y154.78 E8.48695
G1 X118.633 Y154.689 E8.50481
G1 X118.124 Y154.52 E8.52264
G1 X117.646 Y154.277 E8.54048
G1 X117.209 Y153.966 E8.55832
G1 X116.891 Y153.668 E8.57281
G1 X114.039 Y150.647 E8.71099
G1 X113.88 Y150.467 E8.71898
G1 X110.63 Y146.528 E8.88883
G1 X110.507 Y146.371 E8.89546
G1 X108.473 Y143.607 E9.00961
G1 X108.344 Y143.419 E9.01719
G1 X105.578 Y139.114 E9.18738
G1 X105.475 Y138.943 E9.19402
G1 X103.782 Y135.955 E9.30825
G1 X103.675 Y135.751 E9.31591
G1 X101.451 Y131.166 E9.4854
G1 X101.36 Y130.962 E9.49283
G1 X99.763 Y127.072 E9.63269
G1 X99.698 Y126.901 E9.63877
G1 X98.623 Y123.85 E9.74636
G1 X98.56 Y123.657 E9.75312
G1 X97.333 Y119.426 E9.89964
G1 X97.283 Y119.23 E9.90637
G1 X96.429 Y115.519 E10.03302
G1 X96.394 Y115.35 E10.03876
G1 X95.813 Y112.121 E10.14788
G1 X95.783 Y111.922 E10.15458
G1 X95.246 Y107.553 E10.30098
G1 X95.228 Y107.371 E10.30707
G1 X95.001 Y104.205 E10.41264
G1 X94.993 Y104.032 E10.4184
G1 X94.912 Y100.579 E10.53328
G1 X94.939 Y100.044 E10.55109
G1 X95.046 Y99.518 E10.56895
G1 X95.297 Y98.873 E10.59197
G1 X97.583 Y94.344 E10.7607
G1 X99.784 Y89.323 E10.94304
G1 X100.757 Y86.819 E11.03239
G1 X102.527 Y81.622 E11.215
G1 X104.091 Y76.317 E11.39895
G1 X104.175 Y76.066 E11.40775
G1 X105.281 Y73.13 E11.5121
G1 X105.369 Y72.917 E11.51977
G1 X105.937 Y71.66 E11.56565
G1 X106.03 Y71.47 E11.57268
G1 X107.405 Y68.849 E11.67113
G1 X107.557 Y68.587 E11.6812
G0 F3600 X107.894 Y68.802
G1 F2400 X109.474 Y66.322 E11.779
G1 X109.628 Y66.101 E11.78796
G1 X111.674 Y63.418 E11.90018
G1 X111.835 Y63.224 E11.90857
G1 X113.287 Y61.602 E11.98098
G1 X113.457 Y61.426 E11.98911
G1 X115.734 Y59.244 E12.09401
G1 X115.934 Y59.067 E12.10289
G1 X118.04 Y57.361 E12.19303
G1 X118.232 Y57.218 E12.201
G1 X120.439 Y55.689 E12.2903
G1 X120.641 Y55.56 E12.29827
G1 X122.967 Y54.194 E12.38799
G1 X123.183 Y54.077 E12.39616
G1 X125.825 Y52.787 E12.49395
G1 X126.065 Y52.682 E12.50266
G1 X128.872 Y51.586 E12.60288
G1 X129.123 Y51.5 E12.61171
G1 X131.988 Y50.647 E12.71113
G1 X132.25 Y50.581 E12.72012
G1 X135.192 Y49.97 E12.82006
G1 X135.458 Y49.926 E12.82903
G1 X138.307 Y49.581 E12.92448
G1 X138.614 Y49.559 E12.93471
G1 X141.912 Y49.479 E13.04444
G1 X142.102 Y49.48 E13.05076
G1 X147.668 Y49.675 E13.236
G1 X153.139 Y49.556 E13.41801
G1 X158.741 Y49.118 E13.6049
G1 X159.124 Y49.111 E13.61764
G1 X162.194 Y49.24 E13.71984
G1 X162.461 Y49.262 E13.72875
G1 X165.383 Y49.631 E13.82671
G1 X165.646 Y49.676 E13.83558
G1 X168.592 Y50.301 E13.93575
G1 X168.85 Y50.367 E13.9446
G1 X171.683 Y51.219 E14.043
G1 X171.939 Y51.308 E14.05201
G1 X174.718 Y52.408 E14.15142
G1 X174.962 Y52.516 E14.16029
G1 X177.665 Y53.857 E14.26065
G1 X177.901 Y53.987 E14.26961
G1 X180.471 Y55.544 E14.36956
G1 X180.695 Y55.693 E14.3785
G1 X183.124 Y57.459 E14.47839
G1 X183.334 Y57.625 E14.48729
G1 X185.622 Y59.601 E14.58784
G1 X185.817 Y59.785 E14.59676
G1 X187.938 Y61.952 E14.69761
G1 X188.1 Y62.13 E14.70562
G1 X189.415 Y63.693 E14.77355
G1 X189.536 Y63.846 E14.78004
G1 X191.145 Y66.014 E14.86984
G1 X191.281 Y66.213 E14.87786
G1 X192.74 Y68.525 E14.96879
G1 X192.863 Y68.737 E14.97694
G1 X194.144 Y71.159 E15.06807
G1 X194.259 Y71.4 E15.07695
G1 X195.602 Y74.55 E15.19084
G1 X195.703 Y74.82 E15.20043
G1 X196.535 Y77.391 E15.29031
G1 X196.606 Y77.649 E15.29921
G1 X197.332 Y80.759 E15.40543
G1 X197.37 Y80.947 E15.41181
G1 X198.75 Y89.026 E15.68441
G1 X199.327 Y91.634 E15.77325
G1 X199.997 Y94.305 E15.86484
G1 X201.554 Y99.576 E16.04764
G1 X201.658 Y100.07 E16.06443
G1 X201.684 Y100.571 E16.08112
G1 X201.568 Y104.726 E16.21937
G1 X201.559 Y104.891 E16.22486
G1 X201.304 Y108.097 E16.33183
G1 X201.285 Y108.271 E16.33765
G1 X200.705 Y112.57 E16.48193
G1 X200.68 Y112.729 E16.48729
G1 X200.073 Y115.981 E16.59732
G1 X200.038 Y116.144 E16.60286
G1 X199.136 Y119.887 E16.73092
G1 X199.092 Y120.051 E16.73657
G1 X197.993 Y123.739 E16.86456
G1 X197.932 Y123.921 E16.87095
G1 X196.401 Y128.119 E17.01957
G1 X196.34 Y128.274 E17.02511
G1 X194.979 Y131.479 E17.14092
G1 X194.894 Y131.664 E17.14769
G1 X192.573 Y136.288 E17.31977
G1 X192.475 Y136.468 E17.32659
G1 X190.325 Y140.142 E17.46817
G1 X190.239 Y140.28 E17.47358
G1 X188.373 Y143.127 E17.5868
G1 X188.256 Y143.294 E17.59358
G1 X185.166 Y147.409 E17.76474
G1 X185.039 Y147.568 E17.77151
G1 X182.299 Y150.771 E17.9117
G1 X182.19 Y150.892 E17.91712
G1 X179.812 Y153.401 E18.03209
G1 X179.436 Y153.74 E18.04893
G1 X179.012 Y154.015 E18.06574
G1 X178.549 Y154.219 E18.08257
G1 X178.145 Y154.332 E18.09652
G1 X172.619 Y155.489 E18.2843
G1 X169.986 Y156.157 E18.37465
G1 X164.703 Y157.742 E18.5581
G1 X159.34 Y159.643 E18.74735
G1 X159.104 Y159.717 E18.75557
G1 X156.883 Y160.316 E18.83209
G1 X156.639 Y160.371 E18.8404
G1 X155.726 Y160.542 E18.8713
G1 X155.56 Y160.569 E18.87689
G1 X154.217 Y160.748 E18.92196
G1 X153.964 Y160.772 E18.93041
G1 X151.835 Y160.885 E19.00132
G1 X151.555 Y160.887 E19.01063
G1 X150.125 Y160.838 E19.05822
G1 X149.88 Y160.82 E19.06639
G1 X148.32 Y160.646 E19.1186
G1 X148.023 Y160.599 E19.1286
G1 X145.29 Y160.03 E19.22145
G1 X145 Y159.955 E19.23141
G1 X136.181 Y157.238 E19.53834
G1 X133.534 Y156.585 E19.62902
G1 X130.897 Y156.015 E19.71875
G1 X125.483 Y155.08 E19.90149
G1 X122.762 Y154.727 E19.99275
G1 X119.2 Y154.382 E20.11177
G1 X118.702 Y154.294 E20.12859
G1 X118.225 Y154.128 E20.14539
G1 X117.779 Y153.889 E20.16222
G1 X117.377 Y153.583 E20.17902
G1 X117.182 Y153.394 E20.18806
G1 X114.33 Y150.373 E20.32624
G1 X114.189 Y150.213 E20.33333
G1 X110.939 Y146.274 E20.50318
G1 X110.83 Y146.134 E20.50908
G1 X108.796 Y143.37 E20.62322
G1 X108.681 Y143.203 E20.62997
G1 X105.915 Y138.898 E20.80016
G1 X105.823 Y138.745 E20.8061
G1 X104.13 Y135.757 E20.92032
G1 X104.035 Y135.577 E20.92709
G1 X101.811 Y130.992 E21.09658
G1 X101.73 Y130.81 E21.10321
G1 X100.133 Y126.92 E21.24307
G1 X100.075 Y126.768 E21.24848
G1 X99 Y123.717 E21.35607
G1 X98.945 Y123.545 E21.36208
G1 X97.718 Y119.314 E21.5086
G1 X97.673 Y119.141 E21.51454
G1 X96.819 Y115.43 E21.6412
G1 X96.788 Y115.279 E21.64633
G1 X96.207 Y112.05 E21.75545
G1 X96.18 Y111.873 E21.7614
G1 X95.643 Y107.504 E21.90781
G1 X95.627 Y107.343 E21.91319
G1 X95.4 Y104.177 E22.01876
G1 X95.393 Y104.023 E22.02389
G1 X95.312 Y100.57 E22.13877
G1 X95.34 Y100.065 E22.15559
G1 X95.447 Y99.571 E22.1724
G1 X95.654 Y99.053 E22.19096
G1 X97.942 Y94.52 E22.35984
G1 X100.151 Y89.48 E22.54287
G1 X101.141 Y86.932 E22.63379
G1 X102.908 Y81.744 E22.81607
G1 X104.475 Y76.43 E23.00034
G1 X104.549 Y76.207 E23.00816
G1 X105.655 Y73.271 E23.11251
G1 X105.734 Y73.081 E23.11935
G1 X106.302 Y71.824 E23.16523
G1 X106.384 Y71.655 E23.17148
G1 X107.759 Y69.034 E23.26992
G1 X107.894 Y68.802 E23.27885
G1 F2700 E16.77885
G0 F3600 X107.164 Y76.325
G0 X108.357 Y76.8
G0 X106.464 Y87.701
G0 X106.364 Y87.699
;TYPE:WALL-INNER
G1 F2700 E23.27885
G1 F2400 X106.393 Y86.553 E23.31697
G1 X106.553 Y84.611 E23.38178
G1 X106.951 Y81.952 E23.47121
G1 X107.549 Y79.342 E23.56027
G1 X108.339 Y76.794 E23.64899
G1 X109.44 Y74.039 E23.74767
G1 X110.772 Y71.379 E23.84662
G1 X112.285 Y68.903 E23.94313
G1 X113.997 Y66.567 E24.03945
G1 X115.094 Y65.244 E24.09662
G1 X116.246 Y63.987 E24.15333
G1 X118.161 Y62.154 E24.24149
G1 X120.224 Y60.46 E24.33028
G1 X122.445 Y58.903 E24.42049
G1 X124.746 Y57.538 E24.50948
G1 X127.437 Y56.216 E24.6092
G1 X130.221 Y55.128 E24.70861
G1 X133.044 Y54.287 E24.80659
G1 X135.919 Y53.689 E24.90425
G1 X138.746 Y53.347 E24.99897
G1 X140.797 Y53.273 E25.06723
G1 X141.003 Y53.266 E25.07408
G1 X141.003 Y53.472 E25.07847
G1 X141.003 Y53.473 E25.07851
G1 X141.003 Y73.4 E25.74128
G1 X133.735 Y80.621 E26.08204
G1 X129.71 Y84.668 E26.27188
G1 X126.578 Y87.903 E26.42165
G1 X106.564 Y87.903 E27.08731
G1 X106.563 Y87.903 E27.08735
G1 X106.36 Y87.903 E27.0941
G1 X106.363 Y87.7 E27.09845
G1 X106.364 Y87.699 E27.0985
G0 F3600 X106.464 Y87.701
G0 X129.641 Y84.597
G0 X129.995 Y84.948
;TYPE:WALL-OUTER
G1 F2400 X126.747 Y88.303 E27.25381
G1 X106.154 Y88.303 E27.93873
G1 X105.95 Y88.303 E27.94552
G1 X105.955 Y88.099 E27.94988
G1 X105.994 Y86.52 E28.00241
G1 X106.155 Y84.565 E28.06765
G1 X106.557 Y81.882 E28.15789
G1 X107.162 Y79.241 E28.248
G1 X107.96 Y76.665 E28.3377
G1 X109.079 Y73.866 E28.43796
G1 X110.42 Y71.188 E28.53757
G1 X111.953 Y68.679 E28.63536
G1 X113.68 Y66.323 E28.73252
G1 X114.793 Y64.98 E28.79054
G1 X115.964 Y63.703 E28.84816
G1 X117.892 Y61.857 E28.93694
G1 X119.988 Y60.136 E29.02715
G1 X122.22 Y58.571 E29.11781
G1 X124.554 Y57.187 E29.20806
G1 X127.284 Y55.846 E29.30923
G1 X130.08 Y54.753 E29.40908
G1 X132.954 Y53.897 E29.50882
G1 X135.85 Y53.295 E29.6072
G1 X138.719 Y52.947 E29.70332
G1 X141.197 Y52.858 E29.78579
G1 X141.403 Y52.851 E29.79265
G1 X141.403 Y53.057 E29.79704
G1 X141.403 Y53.058 E29.79707
G1 X141.403 Y73.567 E30.4792
G1 X134.018 Y80.904 E30.82544
G1 X129.995 Y84.948 E31.01517
G0 F3600 X129.856 Y85.091
G0 X129.499 Y84.744
G0 X129.431 Y84.395
;TYPE:SKIN
G1 F2400 X126.412 Y87.513 E31.15952
G1 X106.76 Y87.513 E31.81315
G1 X106.783 Y86.563 E31.84475
G1 X106.939 Y84.669 E31.90796
G1 X107.337 Y82.01 E31.99738
G1 X107.929 Y79.429 E32.08546
G1 X108.701 Y76.939 E32.17217
G1 X109.792 Y74.208 E32.26998
G1 X111.115 Y71.564 E32.36831
G1 X112.615 Y69.11 E32.46397
G1 X114.297 Y66.816 E32.55858
G1 X115.388 Y65.5 E32.61544
G1 X116.533 Y64.25 E32.67182
G1 X118.409 Y62.456 E32.75816
G1 X120.462 Y60.77 E32.84651
G1 X122.669 Y59.223 E32.93616
G1 X124.921 Y57.888 E33.02323
G1 X127.609 Y56.567 E33.12285
G1 X130.344 Y55.498 E33.22051
G1 X133.138 Y54.666 E33.31748
G1 X135.976 Y54.076 E33.41389
G1 X138.783 Y53.737 E33.50793
G1 X140.613 Y53.67 E33.56883
G1 X140.613 Y73.238 E34.21967
G1 X133.46 Y80.346 E34.55506
G1 X129.431 Y84.395 E34.74505
G0 F3600 X106.948 Y87.149
G1 F2400 X107.132 Y87.333 E34.7537
G0 F3600 X107.698 Y87.333
G1 F2400 X106.961 Y86.596 E34.78837
G1 X106.891 Y86.526
G0 F3600 X107.002 Y86.072
G1 F2400 X108.263 Y87.333 E34.84768
G1 X108.333 Y87.403
G0 F3600 X108.829 Y87.333
G1 F2400 X107.045 Y85.549 E34.9316
G1 X106.975 Y85.479
G0 F3600 X107.088 Y85.026
G1 F2400 X109.395 Y87.333 E35.04011
G1 X109.465 Y87.403
G0 F3600 X109.96 Y87.333
G1 F2400 X107.142 Y84.515 E35.17266
G1 X107.072 Y84.445
G0 F3600 X107.216 Y84.023
G1 F2400 X110.526 Y87.333 E35.32835
G1 X110.596 Y87.403
G0 F3600 X111.092 Y87.333
G1 F2400 X107.29 Y83.531 E35.50719
G1 X107.22 Y83.461
G0 F3600 X107.363 Y83.039
G1 F2400 X111.657 Y87.333 E35.70916
G1 X111.727 Y87.403
G0 F3600 X112.223 Y87.333
G1 F2400 X107.437 Y82.546 E35.93431
G1 X107.367 Y82.476
G0 F3600 X107.51 Y82.054
G1 F2400 X112.789 Y87.333 E36.18261
G1 X112.859 Y87.403
G0 F3600 X113.354 Y87.333
G1 F2400 X107.615 Y81.593 E36.45258
G1 X107.545 Y81.523
G0 F3600 X107.72 Y81.133
G1 F2400 X113.92 Y87.333 E36.74421
G1 X113.99 Y87.403
G0 F3600 X114.486 Y87.333
G1 F2400 X107.826 Y80.673 E37.05748
G1 X107.756 Y80.603
G0 F3600 X107.932 Y80.213
G1 F2400 X115.051 Y87.333 E37.39236
G1 X115.121 Y87.403
G0 F3600 X115.617 Y87.333
G1 F2400 X108.038 Y79.753 E37.74887
G1 X107.968 Y79.683
G0 F3600 X108.154 Y79.304
G1 F2400 X116.183 Y87.333 E38.12653
G1 X116.253 Y87.403
G0 F3600 X116.748 Y87.333
G1 F2400 X108.288 Y78.872 E38.52449
G1 X108.218 Y78.802
G0 F3600 X108.422 Y78.44
G1 F2400 X117.314 Y87.333 E38.94276
G1 X117.384 Y87.403
G0 F3600 X117.88 Y87.333
G1 F2400 X108.555 Y78.008 E39.38138
G1 X108.485 Y77.938
G0 F3600 X108.689 Y77.576
G1 F2400 X118.446 Y87.333 E39.84032
G1 X118.516 Y87.403
G0 F3600 X119.011 Y87.333
G1 F2400 X108.823 Y77.144 E40.31956
G1 X108.753 Y77.074
G0 F3600 X108.975 Y76.731
G1 F2400 X119.577 Y87.333 E40.81824
G1 X119.647 Y87.403
G0 F3600 X120.143 Y87.333
