;FLAVOR:Marlin
;TIME:3729
;Filament used: 4.55164m
;Layer height: 0.2
;Generated with Cura_SteamEngine 3.3.0-BETA
M104 S200
M109 S200
M82 ;absolute extrusion mode
; -- START GCODE --
G21                     ;set units to millimetres
G90                     ;set to absolute positioning
M106 S0                 ;set fan speed to zero (turned off)
G28 X0 Y0               ;move to the X/Y origin (Home)
G28 Z0                  ;move to the Z origin (Home)
G1 Z15.0 F1200          ;move Z to position 15.0 mm
G92 E0                  ;zero the extruded length
G1 E20 F200             ;extrude 20mm of feed stock
G92 E0                  ;zero the extruded length again
G1 F7200                ;set feedrate to 120 mm/s
; -- end of START GCODE --
G92 E0
G1 F2700 E-6.5
;LAYER_COUNT:16
;LAYER:0
M107
G0 F3600 X77.449 Y59.494 Z0.2
;TYPE:SKIRT
G1 F2700 E0
G1 F2400 X77.835 Y59.122 E0.01783
G1 X78.272 Y58.811 E0.03567
G1 X78.751 Y58.569 E0.05352
G1 X79.26 Y58.4 E0.07136
G1 X79.67 Y58.323 E0.08523
G1 X86.744 Y57.406 E0.32248
G1 X92.109 Y56.361 E0.50428
G1 X94.703 Y55.742 E0.59298
G1 X100.001 Y54.234 E0.77619
G1 X105.134 Y52.454 E0.95689
G1 X110.202 Y50.369 E1.13916
G1 X112.635 Y49.245 E1.2283
G1 X144.314 Y33.104 E2.41083
G1 X144.808 Y32.897 E2.42864
G1 X145.328 Y32.766 E2.44648
G1 X145.862 Y32.713 E2.46433
G1 X146.338 Y32.733 E2.48017
G1 X152.094 Y33.361 E2.67275
G1 X157.521 Y33.638 E2.85349
G1 X162.978 Y33.609 E3.035
G1 X168.153 Y33.301 E3.20742
G1 X168.69 Y33.309 E3.22528
G1 X169.219 Y33.397 E3.24312
G1 X169.729 Y33.563 E3.26096
G1 X170.209 Y33.802 E3.27879
G1 X170.648 Y34.11 E3.29663
G1 X171.062 Y34.508 E3.31573
G1 X173.21 Y36.933 E3.42348
G1 X177.006 Y40.851 E3.60492
G1 X181.022 Y44.552 E3.78656
G1 X185.231 Y48.012 E3.96779
G1 X189.635 Y51.232 E4.14924
G1 X194.216 Y54.201 E4.33081
G1 X198.939 Y56.895 E4.51165
G1 X203.836 Y59.332 E4.69358
G1 X208.847 Y61.482 E4.87494
G1 X211.397 Y62.452 E4.96568
G1 X216.554 Y64.161 E5.14638
G1 X221.854 Y65.592 E5.32897
G1 X224.483 Y66.183 E5.41859
G1 X228.795 Y66.994 E5.56453
G1 X229.313 Y67.132 E5.58235
G1 X229.805 Y67.346 E5.6002
G1 X230.26 Y67.63 E5.61804
G1 X230.667 Y67.979 E5.63587
G1 X231.018 Y68.384 E5.6537
G1 X231.305 Y68.837 E5.67153
G1 X231.522 Y69.328 E5.68939
G1 X231.619 Y69.65 E5.70057
G1 X235.908 Y86.629 E6.28304
G1 X236.001 Y87.158 E6.3009
G1 X236.013 Y87.694 E6.31873
G1 X235.946 Y88.226 E6.33657
G1 X235.801 Y88.742 E6.35439
G1 X235.581 Y89.231 E6.37223
G1 X235.194 Y89.804 E6.39522
G1 X232.676 Y92.852 E6.52672
G1 X229.392 Y97.226 E6.70864
G1 X226.374 Y101.759 E6.88977
G1 X223.601 Y106.484 E7.07199
G1 X221.127 Y111.301 E7.2521
G1 X218.897 Y116.328 E7.43501
G1 X217.892 Y118.874 E7.52605
G1 X216.988 Y121.38 E7.61465
G1 X215.349 Y126.594 E7.79644
G1 X214.005 Y131.901 E7.97852
G1 X213.195 Y135.922 E8.11495
G1 X213.104 Y136.438 E8.13237
G1 X212.972 Y136.957 E8.15019
G1 X212.764 Y137.452 E8.16804
G1 X212.424 Y137.992 E8.18927
G1 X201.8 Y151.954 E8.7728
G1 X201.444 Y152.355 E8.79063
G1 X200.82 Y152.841 E8.81694
G1 X198.151 Y154.481 E8.92113
G1 X193.608 Y157.558 E9.10363
G1 X189.269 Y160.867 E9.28512
G1 X185.133 Y164.41 E9.46626
G1 X181.195 Y168.187 E9.64774
G1 X178.718 Y170.784 E9.76711
G1 X178.32 Y171.143 E9.78493
G1 X177.873 Y171.44 E9.80278
G1 X177.387 Y171.666 E9.82061
G1 X176.872 Y171.818 E9.83847
G1 X176.139 Y171.899 E9.863
G1 X173.271 Y171.92 E9.95839
G1 X167.831 Y172.192 E10.13955
G1 X162.383 Y172.775 E10.32179
G1 X156.988 Y173.664 E10.50365
G1 X154.372 Y174.209 E10.59252
G1 X151.707 Y174.843 E10.68363
G1 X146.425 Y176.341 E10.86624
G1 X143.884 Y177.181 E10.95526
G1 X139.198 Y178.928 E11.12159
G1 X138.683 Y179.078 E11.13943
G1 X138.151 Y179.149 E11.15728
G1 X137.615 Y179.14 E11.17511
G1 X137.173 Y179.072 E11.18999
G1 X133.529 Y178.277 E11.31404
G1 X128.133 Y177.352 E11.49613
G1 X122.682 Y176.732 E11.6786
G1 X120.403 Y176.56 E11.75461
G1 X119.873 Y176.48 E11.77244
G1 X119.185 Y176.248 E11.79659
G1 X103.22 Y168.998 E12.37978
G1 X102.75 Y168.74 E12.39761
G1 X102.295 Y168.391 E12.41668
G1 X100.431 Y166.706 E12.50025
G1 X96.226 Y163.206 E12.68222
G1 X91.835 Y159.953 E12.86398
G1 X87.288 Y156.966 E13.04492
G1 X82.567 Y154.235 E13.22632
G1 X77.69 Y151.77 E13.40808
G1 X72.653 Y149.57 E13.59089
G1 X69.435 Y148.334 E13.70554
G1 X68.95 Y148.105 E13.72338
G1 X68.504 Y147.807 E13.74122
G1 X68.108 Y147.445 E13.75907
G1 X67.77 Y147.029 E13.7769
G1 X67.498 Y146.567 E13.79473
G1 X67.297 Y146.07 E13.81256
G1 X67.172 Y145.548 E13.83041
G1 X67.126 Y145.014 E13.84824
G1 X67.171 Y144.405 E13.86855
G1 X67.577 Y141.867 E13.95404
G1 X68.218 Y136.432 E14.13606
G1 X68.55 Y130.998 E14.31713
G1 X68.574 Y125.538 E14.49873
G1 X68.29 Y120.102 E14.67978
G1 X67.696 Y114.668 E14.86159
G1 X66.892 Y109.754 E15.02721
G1 X66.845 Y109.22 E15.04504
G1 X66.878 Y108.685 E15.06286
G1 X66.99 Y108.161 E15.08069
G1 X67.162 Y107.695 E15.09721
G1 X68.855 Y103.934 E15.23439
G1 X69.863 Y101.484 E15.3225
G1 X71.735 Y96.32 E15.5052
G1 X73.308 Y91.071 E15.68745
G1 X74.583 Y85.736 E15.86989
G1 X75.085 Y83.144 E15.9577
G1 X75.907 Y77.702 E16.14076
G1 X76.411 Y72.299 E16.32124
G1 X76.611 Y66.83 E16.50326
G1 X76.533 Y61.951 E16.66556
G1 X76.565 Y61.416 E16.68339
G1 X76.675 Y60.891 E16.70123
G1 X76.863 Y60.388 E16.71909
G1 X77.122 Y59.919 E16.73691
G1 X77.449 Y59.494 E16.75474
G0 F3600 X77.846 Y59.655
G1 F2400 X78.227 Y59.322 E16.77157
G1 X78.656 Y59.054 E16.7884
G1 X79.121 Y58.857 E16.80519
G1 X79.721 Y58.72 E16.82566
G1 X86.811 Y57.8 E17.06345
G1 X92.182 Y56.755 E17.24544
G1 X94.808 Y56.128 E17.33524
G1 X100.12 Y54.616 E17.51893
G1 X105.275 Y52.829 E17.7004
G1 X110.362 Y50.736 E17.88336
G1 X112.816 Y49.602 E17.97327
G1 X144.495 Y33.461 E19.1558
G1 X144.962 Y33.268 E19.17261
G1 X145.454 Y33.15 E19.18944
G1 X145.958 Y33.112 E19.20625
G1 X146.295 Y33.131 E19.21747
G1 X152.048 Y33.758 E19.40995
G1 X157.521 Y34.038 E19.59222
G1 X163.005 Y34.008 E19.77462
G1 X168.177 Y33.701 E19.94695
G1 X168.683 Y33.711 E19.96378
G1 X169.18 Y33.8 E19.98058
G1 X169.657 Y33.967 E19.99738
G1 X170.103 Y34.207 E20.01423
G1 X170.504 Y34.513 E20.03101
G1 X170.762 Y34.773 E20.04319
G1 X172.906 Y37.193 E20.15072
G1 X176.731 Y41.141 E20.33356
G1 X180.761 Y44.855 E20.51583
G1 X184.986 Y48.329 E20.69776
G1 X189.415 Y51.567 E20.88024
G1 X193.993 Y54.534 E21.06169
G1 X198.755 Y57.25 E21.24402
G1 X203.664 Y59.693 E21.4264
G1 X208.708 Y61.857 E21.60895
G1 X211.269 Y62.831 E21.70008
G1 X216.433 Y64.543 E21.88103
G1 X221.775 Y65.985 E22.06506
G1 X224.377 Y66.57 E22.15377
G1 X228.721 Y67.387 E22.30078
G1 X229.209 Y67.52 E22.31761
G1 X229.67 Y67.727 E22.33441
G1 X230.092 Y68.005 E22.35122
G1 X230.466 Y68.346 E22.36805
G1 X230.781 Y68.741 E22.38486
G1 X231.03 Y69.181 E22.40167
G1 X231.232 Y69.748 E22.42169
G1 X235.521 Y86.727 E23.00416
G1 X235.605 Y87.226 E23.02099
G1 X235.61 Y87.731 E23.03778
G1 X235.536 Y88.231 E23.0546
G1 X235.384 Y88.713 E23.0714
G1 X235.157 Y89.165 E23.08823
G1 X234.885 Y89.549 E23.10388
G1 X232.362 Y92.604 E23.23566
G1 X229.069 Y96.989 E23.41805
G1 X226.034 Y101.547 E23.60018
G1 X223.262 Y106.27 E23.78233
G1 X220.756 Y111.149 E23.96476
G1 X218.53 Y116.167 E24.14734
G1 X217.52 Y118.728 E24.23891
G1 X216.614 Y121.236 E24.3276
G1 X214.959 Y126.502 E24.51119
G1 X213.616 Y131.806 E24.69317
G1 X212.8 Y135.859 E24.83068
G1 X212.71 Y136.368 E24.84787
G1 X212.583 Y136.857 E24.86468
G1 X212.381 Y137.321 E24.88151
G1 X212.106 Y137.75 E24.89846
G1 X201.482 Y151.712 E25.48199
G1 X201.145 Y152.089 E25.49881
G1 X200.611 Y152.5 E25.52122
G1 X197.928 Y154.149 E25.62596
G1 X193.374 Y157.233 E25.80889
G1 X189.02 Y160.553 E25.99101
G1 X184.86 Y164.117 E26.1732
G1 X180.911 Y167.905 E26.3552
G1 X178.428 Y170.508 E26.47485
G1 X178.052 Y170.845 E26.49165
G1 X177.626 Y171.118 E26.50847
G1 X177.163 Y171.322 E26.5253
G1 X176.674 Y171.449 E26.54211
G1 X176.136 Y171.499 E26.56008
G1 X173.272 Y171.52 E26.65534
G1 X167.787 Y171.794 E26.838
G1 X162.328 Y172.379 E27.0206
G1 X156.933 Y173.267 E27.20246
G1 X154.269 Y173.822 E27.29296
G1 X151.625 Y174.452 E27.38336
G1 X146.289 Y175.965 E27.56784
G1 X143.745 Y176.806 E27.65695
G1 X139.058 Y178.553 E27.82332
G1 X138.572 Y178.692 E27.84013
G1 X138.07 Y178.752 E27.85695
G1 X137.565 Y178.733 E27.87376
G1 X137.258 Y178.682 E27.88411
G1 X133.59 Y177.882 E28.00897
G1 X128.195 Y176.957 E28.19103
G1 X122.705 Y176.333 E28.37481
G1 X120.433 Y176.161 E28.45059
G1 X119.933 Y176.083 E28.46742
G1 X119.351 Y175.884 E28.48788
G1 X103.386 Y168.634 E29.07106
G1 X102.943 Y168.389 E29.0879
G1 X102.563 Y168.094 E29.1039
G1 X100.685 Y166.397 E29.18809
G1 X96.475 Y162.892 E29.37029
G1 X92.079 Y159.635 E29.55226
G1 X87.487 Y156.619 E29.73498
G1 X82.763 Y153.886 E29.91651
G1 X77.866 Y151.411 E30.099
G1 X72.804 Y149.2 E30.28272
G1 X69.578 Y147.961 E30.39766
G1 X69.122 Y147.743 E30.41447
G1 X68.706 Y147.456 E30.43128
G1 X68.34 Y147.107 E30.4481
G1 X68.034 Y146.704 E30.46493
G1 X67.795 Y146.259 E30.48173
G1 X67.63 Y145.781 E30.49855
G1 X67.541 Y145.284 E30.51534
G1 X67.532 Y144.778 E30.53218
G1 X67.566 Y144.469 E30.54252
G1 X67.972 Y141.931 E30.628
G1 X68.617 Y136.468 E30.81097
G1 X68.95 Y131.007 E30.99294
G1 X68.974 Y125.537 E31.17487
G1 X68.687 Y120.055 E31.35745
G1 X68.094 Y114.619 E31.53933
G1 X67.287 Y109.69 E31.70545
G1 X67.245 Y109.186 E31.72227
G1 X67.283 Y108.682 E31.73908
G1 X67.4 Y108.19 E31.7559
G1 X67.527 Y107.859 E31.76769
G1 X69.221 Y104.096 E31.90495
G1 X70.235 Y101.632 E31.99357
G1 X72.121 Y96.429 E32.17764
G1 X73.69 Y91.19 E32.35954
G1 X74.972 Y85.832 E32.54278
G1 X75.484 Y83.187 E32.63238
G1 X76.302 Y77.765 E32.81476
G1 X76.811 Y72.315 E32.99682
G1 X77.012 Y66.838 E33.1791
G1 X76.933 Y61.944 E33.3419
G1 X76.965 Y61.44 E33.3587
G1 X77.076 Y60.947 E33.3755
G1 X77.263 Y60.477 E33.39233
G1 X77.522 Y60.043 E33.40914
G1 X77.846 Y59.655 E33.42595
G1 F2700 E26.92595
G0 F3600 X79.788 Y63.27
G0 X81.021 Y62.96
G0 X81.207 Y63.322
G0 X81.11 Y63.347
;TYPE:WALL-INNER
G1 F2700 E33.42595
G1 F2400 X81.109 Y63.346 E33.426
G1 X81.009 Y62.945 E33.43974
G1 X81.386 Y63.116 E33.44731
G1 X107.719 Y75.065 E34.4091
G1 X107.946 Y75.168 E34.41739
G1 X107.795 Y75.366 E34.42244
G1 X100.182 Y85.372 E34.84062
G1 X84.921 Y78.449 E35.39799
G1 X81.11 Y63.347 E35.91603
G0 F3600 X81.207 Y63.322
G0 X81.073 Y63.021
G0 X80.519 Y62.64
;TYPE:WALL-OUTER
G1 F2400 X80.518 Y62.639 E35.91607
G1 X80.418 Y62.238 E35.92982
G1 X80.795 Y62.409 E35.93739
G1 X108.34 Y74.908 E36.94345
G1 X108.567 Y75.011 E36.95174
G1 X108.416 Y75.209 E36.95678
G1 X100.307 Y85.868 E37.40223
G1 X84.58 Y78.733 E37.97663
G1 X80.519 Y62.64 E38.52867
G0 F3600 X80.518 Y62.639
G0 X80.47 Y62.446
G0 X81.073 Y63.021
G0 X81.585 Y63.635
;TYPE:SKIN
G1 F2400 X107.34 Y75.322 E39.46935
G1 X100.061 Y84.889 E39.86918
G1 X85.253 Y78.172 E40.41
G1 X81.585 Y63.635 E40.90865
G0 F3600 X85.216 Y77.296
G1 F2400 X86.426 Y78.507 E40.96559
G1 X86.496 Y78.577
G0 F3600 X87.462 Y78.976
G1 F2400 X85.025 Y76.54 E41.0802
G1 X84.955 Y76.47
G0 F3600 X84.834 Y75.783
G1 F2400 X88.497 Y79.446 E41.25249
G1 X88.567 Y79.516
G0 F3600 X89.532 Y79.915
G1 F2400 X84.643 Y75.026 E41.48246
G1 X84.573 Y74.956
G0 F3600 X84.453 Y74.27
G1 F2400 X90.568 Y80.386 E41.77011
G1 X90.638 Y80.456
G0 F3600 X91.603 Y80.855
G1 F2400 X84.262 Y73.514 E42.11541
G1 X84.192 Y73.444
G0 F3600 X84.071 Y72.757
G1 F2400 X92.638 Y81.325 E42.5184
G1 X92.708 Y81.395
G0 F3600 X93.673 Y81.794
G1 F2400 X83.88 Y72.001 E42.97903
G1 X83.81 Y71.931
G0 F3600 X83.689 Y71.244
G1 F2400 X94.709 Y82.264 E43.49738
G1 X94.779 Y82.334
G0 F3600 X95.744 Y82.733
G1 F2400 X83.498 Y70.487 E44.07339
G1 X83.428 Y70.417
G0 F3600 X83.307 Y69.731
G1 F2400 X96.779 Y83.203 E44.70707
G1 X96.849 Y83.273
G0 F3600 X97.814 Y83.672
G1 F2400 X83.117 Y68.975 E45.39837
G1 X83.047 Y68.905
G0 F3600 X82.926 Y68.218
G1 F2400 X98.849 Y84.142 E46.14737
G1 X98.919 Y84.212
G0 F3600 X99.885 Y84.611
G1 F2400 X82.735 Y67.462 E46.95403
G1 X82.665 Y67.392
G0 F3600 X82.544 Y66.705
G1 F2400 X100.221 Y84.381 E47.78548
G1 X100.291 Y84.451
G0 F3600 X100.465 Y84.06
G1 F2400 X82.353 Y65.949 E48.63739
G1 X82.283 Y65.879
G0 F3600 X82.162 Y65.192
G1 F2400 X100.71 Y83.739 E49.5098
G1 X100.78 Y83.809
G0 F3600 X100.954 Y83.418
G1 F2400 X81.972 Y64.435 E50.40268
G1 X81.902 Y64.365
G0 F3600 X82.227 Y64.125
G1 F2400 X101.199 Y83.097 E51.29507
G1 X101.269 Y83.167
G0 F3600 X101.443 Y82.776
G1 F2400 X83.262 Y64.594 E52.15027
G1 X83.192 Y64.524
G0 F3600 X84.298 Y65.065
G1 F2400 X101.687 Y82.454 E52.96819
G1 X101.757 Y82.524
G0 F3600 X101.932 Y82.133
G1 F2400 X85.334 Y65.535 E53.74891
G1 X85.264 Y65.465
G0 F3600 X86.369 Y66.004
G1 F2400 X102.176 Y81.812 E54.49245
G1 X102.246 Y81.882
G0 F3600 X102.42 Y81.49
G1 F2400 X87.405 Y66.475 E55.19871
G1 X87.335 Y66.405
G0 F3600 X88.44 Y66.944
G1 F2400 X102.665 Y81.169 E55.86781
G1 X102.735 Y81.239
G0 F3600 X102.909 Y80.847
G1 F2400 X89.476 Y67.414 E56.49966
G1 X89.406 Y67.344
G0 F3600 X90.512 Y67.885
G1 F2400 X103.154 Y80.526 E57.09427
G1 X103.224 Y80.596
G0 F3600 X103.398 Y80.205
G1 F2400 X91.547 Y68.354 E57.65171
G1 X91.477 Y68.284
G0 F3600 X92.583 Y68.824
G1 F2400 X103.642 Y79.883 E58.17189
G1 X103.712 Y79.953
G0 F3600 X103.887 Y79.562
G1 F2400 X93.619 Y69.295 E58.65484
G1 X93.549 Y69.225
G0 F3600 X94.654 Y69.764
G1 F2400 X104.132 Y79.241 E59.10063
G1 X104.202 Y79.311
G0 F3600 X104.376 Y78.92
G1 F2400 X95.69 Y70.234 E59.5092
G1 X95.62 Y70.164
G0 F3600 X96.725 Y70.704
G1 F2400 X104.62 Y78.599 E59.88055
G1 X104.69 Y78.669
G0 F3600 X104.865 Y78.278
G1 F2400 X97.761 Y71.174 E60.2147
G1 X97.691 Y71.104
G0 F3600 X98.797 Y71.644
G1 F2400 X105.109 Y77.956 E60.5116
G1 X105.179 Y78.026
G0 F3600 X105.353 Y77.635
G1 F2400 X99.832 Y72.114 E60.77129
G1 X99.762 Y72.044
G0 F3600 X100.868 Y72.584
G1 F2400 X105.597 Y77.313 E60.99373
G1 X105.667 Y77.383
G0 F3600 X105.842 Y76.992
G1 F2400 X101.903 Y73.054 E61.17898
G1 X101.833 Y72.984
G0 F3600 X102.939 Y73.524
G1 F2400 X106.087 Y76.671 E61.32703
G1 X106.157 Y76.741
G0 F3600 X106.331 Y76.349
G1 F2400 X103.975 Y73.994 E61.43783
G1 X103.905 Y73.924
G0 F3600 X105.011 Y74.464
G1 F2400 X106.575 Y76.028 E61.51139
G1 X106.645 Y76.098
G0 F3600 X106.82 Y75.707
G1 F2400 X106.046 Y74.934 E61.54778
G1 X105.976 Y74.864
G1 F2700 E55.04778
G0 F3600 X85.955 Y78.918
G0 X85.433 Y80.069
G0 X81.327 Y94.556
G0 X81.357 Y95.837
G0 X73.236 Y106.958
G0 X73.282 Y107.048
;TYPE:WALL-INNER
G1 F2700 E61.54778
G1 F2400 X73.281 Y107.049 E61.54782
G1 X72.502 Y107.445 E61.57689
G1 X73.031 Y106.749 E61.5918
G1 X73.032 Y106.748 E61.59185
G1 X81.348 Y95.82 E62.04859
G1 X95.077 Y95.506 E62.50534
G1 X95.952 Y95.487 E62.53445
G1 X95.172 Y95.884 E62.54937
G1 X73.282 Y107.048 E63.36665
G0 F3600 X73.236 Y106.958
G0 X72.578 Y107.381
G0 X71.903 Y108.2
;TYPE:WALL-OUTER
G1 F2400 X71.902 Y108.201 E63.3667
G1 X71.123 Y108.597 E63.39576
G1 X71.652 Y107.901 E63.41068
G1 X71.653 Y107.9 E63.41072
G1 X81.147 Y95.424 E63.93216
G1 X96.82 Y95.066 E64.45358
G1 X97.695 Y95.047 E64.48269
G1 X96.915 Y95.444 E64.49761
G1 X71.903 Y108.2 E65.43146
G0 F3600 X71.902 Y108.201
G0 X71.725 Y108.291
G0 X72.578 Y107.381
G0 X73.845 Y106.322
;TYPE:SKIN
G1 F2400 X81.545 Y96.206 E65.8543
G1 X94.254 Y95.916 E66.27711
G1 X73.845 Y106.322 E67.03906
G0 F3600 X74.806 Y105.353
G0 X74.897 Y105.444
G1 F2400 X75.207 Y105.188 E67.05066
G1 X75.517 Y104.932 E67.06838
G0 F3600 X76.112 Y104.962
G1 F2400 X75.54 Y104.39 E67.09528
G1 X75.47 Y104.32
G0 F3600 X75.784 Y104.069
G1 F2400 X76.487 Y104.772 E67.12835
G1 X76.557 Y104.842
G0 F3600 X76.862 Y104.581
G1 F2400 X76.029 Y103.748 E67.16753
G1 X75.959 Y103.678
G0 F3600 X76.274 Y103.427
G1 F2400 X77.237 Y104.39 E67.21283
G1 X77.307 Y104.46
G0 F3600 X77.611 Y104.198
G1 F2400 X76.518 Y103.106 E67.26422
G1 X76.448 Y103.036
G0 F3600 X76.762 Y102.784
G1 F2400 X77.986 Y104.007 E67.32177
G1 X78.056 Y104.077
G0 F3600 X78.36 Y103.816
G1 F2400 X77.007 Y102.463 E67.38541
G1 X76.937 Y102.393
G0 F3600 X77.252 Y102.142
G1 F2400 X78.735 Y103.625 E67.45516
G1 X78.805 Y103.695
G0 F3600 X79.11 Y103.434
G1 F2400 X77.496 Y101.821 E67.53106
G1 X77.426 Y101.751
G0 F3600 X77.74 Y101.499
G1 F2400 X79.485 Y103.243 E67.61311
G1 X79.555 Y103.313
G0 F3600 X79.859 Y103.052
G1 F2400 X77.985 Y101.178 E67.70126
G1 X77.915 Y101.108
