;FLAVOR:Marlin
;TIME:5471
;Filament used: 4.0011m
;Layer height: 0.2
;Generated with Cura_SteamEngine 3.3.1
M104 S200
M109 S200
M82 ;absolute extrusion mode
; -- START GCODE --
G21                     ;set units to millimetres
G90                     ;set to absolute positioning
M106 S0                 ;set fan speed to zero (turned off)
G28 X0 Y0               ;move to the X/Y origin (Home)
G28 Z0                  ;move to the Z origin (Home)
G1 Z15.0 F1200          ;move Z to position 15.0 mm
G92 E0                  ;zero the extruded length
G1 E20 F200             ;extrude 20mm of feed stock
G92 E0                  ;zero the extruded length again
G1 F7200                ;set feedrate to 120 mm/s
; -- end of START GCODE --
G92 E0
G1 F2700 E-6.5
;LAYER_COUNT:36
;LAYER:0
M107
G0 F3600 X111.805 Y54.358 Z0.2
;TYPE:SKIRT
G1 F2700 E0
G1 F1500 X112.086 Y53.901 E0.01784
G1 X112.432 Y53.491 E0.03569
G1 X112.834 Y53.136 E0.05352
G1 X113.285 Y52.846 E0.07136
G1 X113.774 Y52.626 E0.08919
G1 X114.29 Y52.48 E0.10703
G1 X115.004 Y52.409 E0.13089
G1 X128.992 Y52.41 E0.59614
G1 X129.616 Y52.464 E0.61697
G1 X133.57 Y53.16 E0.7505
G1 X138.99 Y53.853 E0.93224
G1 X144.42 Y54.237 E1.11329
G1 X149.881 Y54.315 E1.29494
G1 X155.337 Y54.083 E1.47658
G1 X160.735 Y53.547 E1.657
G1 X167.409 Y52.458 E1.88191
G1 X167.989 Y52.411 E1.90126
G1 X181.986 Y52.41 E2.36681
G1 X182.521 Y52.45 E2.38465
G1 X183.043 Y52.569 E2.40246
G1 X183.543 Y52.764 E2.42031
G1 X184.008 Y53.031 E2.43814
G1 X184.428 Y53.365 E2.45599
G1 X184.794 Y53.757 E2.47383
G1 X185.097 Y54.199 E2.49165
G1 X185.332 Y54.681 E2.50949
G1 X185.527 Y55.36 E2.53298
G1 X186.2 Y59.021 E2.65679
G1 X187.435 Y64.355 E2.83889
G1 X188.168 Y67.003 E2.93028
G1 X189.478 Y71.315 E3.08017
G1 X189.596 Y71.839 E3.09803
G1 X189.625 Y72.107 E3.107
G1 X189.682 Y72.911 E3.1338
G1 X189.691 Y73.166 E3.14229
G1 X189.693 Y153.991 E5.83054
G1 X189.653 Y154.526 E5.84839
G1 X189.534 Y155.049 E5.86623
G1 X189.339 Y155.548 E5.88404
G1 X189.072 Y156.013 E5.90188
G1 X188.738 Y156.433 E5.91973
G1 X188.346 Y156.799 E5.93756
G1 X187.904 Y157.102 E5.95539
G1 X187.422 Y157.337 E5.97322
G1 X186.91 Y157.497 E5.99106
G1 X186.38 Y157.58 E6.00891
G1 X186.091 Y157.591 E6.01853
G1 X172.071 Y157.583 E6.48483
G1 X171.536 Y157.543 E6.50268
G1 X171.27 Y157.492 E6.51169
G1 X168.942 Y156.959 E6.59112
G1 X163.552 Y155.954 E6.77348
G1 X158.132 Y155.257 E6.95523
G1 X152.703 Y154.87 E7.13626
G1 X147.245 Y154.789 E7.31782
G1 X141.805 Y155.018 E7.49891
G1 X136.371 Y155.554 E7.68052
G1 X130.973 Y156.399 E7.86225
G1 X125.733 Y157.512 E8.04042
G1 X124.985 Y157.591 E8.06544
G1 X111.004 Y157.591 E8.53045
G1 X110.469 Y157.551 E8.54829
G1 X109.946 Y157.432 E8.56613
G1 X109.447 Y157.237 E8.58395
G1 X108.982 Y156.969 E8.6018
G1 X108.562 Y156.636 E8.61963
G1 X108.196 Y156.244 E8.63746
G1 X107.893 Y155.802 E8.65529
G1 X107.658 Y155.319 E8.67315
G1 X107.498 Y154.808 E8.69096
G1 X107.404 Y154.018 E8.71742
G1 X107.295 Y139.697 E9.19376
G1 X107.295 Y139.667 E9.19475
G1 X107.353 Y72.386 E11.43253
G1 X107.393 Y71.851 E11.45037
G1 X107.496 Y71.385 E11.46625
G1 X109.674 Y63.887 E11.72594
G1 X110.893 Y58.521 E11.90896
G1 X111.461 Y55.37 E12.01545
G1 X111.595 Y54.851 E12.03328
G1 X111.805 Y54.358 E12.0511
G0 F3600 X112.188 Y54.49
G1 F1500 X112.462 Y54.065 E12.06792
G1 X112.8 Y53.689 E12.08474
G1 X113.193 Y53.371 E12.10155
G1 X113.631 Y53.119 E12.11836
G1 X114.103 Y52.938 E12.13517
G1 X114.598 Y52.835 E12.15199
G1 X115.004 Y52.809 E12.16552
G1 X128.992 Y52.81 E12.63076
G1 X129.546 Y52.858 E12.64926
G1 X133.512 Y53.556 E12.7832
G1 X138.946 Y54.251 E12.9654
G1 X144.404 Y54.637 E13.14739
G1 X149.892 Y54.715 E13.32994
G1 X155.359 Y54.483 E13.51194
G1 X160.792 Y53.943 E13.69353
G1 X167.474 Y52.853 E13.91871
G1 X167.989 Y52.811 E13.9359
G1 X181.986 Y52.81 E14.40144
G1 X182.49 Y52.85 E14.41826
G1 X182.981 Y52.969 E14.43506
G1 X183.448 Y53.163 E14.45188
G1 X183.878 Y53.429 E14.4687
G1 X184.261 Y53.759 E14.48551
G1 X184.587 Y54.146 E14.50234
G1 X184.848 Y54.579 E14.51916
G1 X185.038 Y55.047 E14.53596
G1 X185.133 Y55.432 E14.54915
G1 X185.802 Y59.075 E14.67234
G1 X187.053 Y64.477 E14.85676
G1 X187.775 Y67.085 E14.94677
G1 X189.096 Y71.432 E15.09788
G1 X189.226 Y72.136 E15.12169
G1 X189.283 Y72.94 E15.1485
G1 X189.291 Y73.166 E15.15602
G1 X189.293 Y153.991 E17.84427
G1 X189.253 Y154.495 E17.86109
G1 X189.134 Y154.986 E17.87789
G1 X188.94 Y155.453 E17.89471
G1 X188.674 Y155.883 E17.91153
G1 X188.344 Y156.266 E17.92834
G1 X187.957 Y156.592 E17.94517
G1 X187.524 Y156.853 E17.96199
G1 X187.056 Y157.043 E17.97879
G1 X186.563 Y157.156 E17.99561
G1 X186.091 Y157.191 E18.01135
G1 X172.071 Y157.183 E18.47766
G1 X171.359 Y157.102 E18.50149
G1 X169.03 Y156.569 E18.58096
G1 X163.605 Y155.557 E18.76451
G1 X158.177 Y154.86 E18.94652
G1 X152.719 Y154.47 E19.12852
G1 X147.234 Y154.389 E19.31097
G1 X141.768 Y154.618 E19.49293
G1 X136.339 Y155.155 E19.67438
G1 X130.902 Y156.005 E19.85741
G1 X125.65 Y157.121 E20.036
G1 X124.985 Y157.191 E20.05824
G1 X111.004 Y157.191 E20.52325
G1 X110.5 Y157.151 E20.54006
G1 X110.009 Y157.032 E20.55687
G1 X109.542 Y156.838 E20.57369
G1 X109.112 Y156.572 E20.5905
G1 X108.729 Y156.242 E20.60732
G1 X108.403 Y155.855 E20.62415
G1 X108.142 Y155.422 E20.64096
G1 X107.952 Y154.954 E20.65776
G1 X107.839 Y154.461 E20.67459
G1 X107.804 Y154.015 E20.68947
G1 X107.695 Y139.694 E21.1658
G1 X107.695 Y139.667 E21.1667
G1 X107.753 Y72.386 E23.40447
G1 X107.793 Y71.882 E23.42129
G1 X107.88 Y71.496 E23.43445
G1 X110.062 Y63.986 E23.69456
G1 X111.287 Y58.589 E23.87863
G1 X111.855 Y55.441 E23.98503
G1 X111.983 Y54.952 E24.00184
G1 X112.188 Y54.49 E24.01865
G1 F2700 E17.51865
G1 F300 Z1.2
G0 F3600 X120.993 Y64.124 Z1.2
;TYPE:WALL-INNER
G1 F300 Z0.2
G1 F2700 E24.01865
G1 F1500 X121.297 Y64.332 E24.0309
G1 X121.636 Y64.461 E24.04296
G1 X121.995 Y64.504 E24.05499
G1 X122.354 Y64.461 E24.06702
G1 X122.693 Y64.332 E24.07908
G1 X122.993 Y64.127 E24.09116
G1 X123.234 Y63.854 E24.10328
G1 X123.403 Y63.532 E24.11537
G1 X123.488 Y63.179 E24.12745
G1 X123.488 Y62.821 E24.13936
G1 X123.403 Y62.468 E24.15143
G1 X123.234 Y62.146 E24.16353
G1 X122.993 Y61.873 E24.17564
G1 X122.693 Y61.668 E24.18772
G1 X122.354 Y61.539 E24.19979
G1 X121.995 Y61.496 E24.21181
G1 X121.636 Y61.539 E24.22384
G1 X121.297 Y61.668 E24.2359
G1 X120.997 Y61.873 E24.24799
G1 X120.756 Y62.146 E24.2601
G1 X120.587 Y62.468 E24.2722
G1 X120.502 Y62.821 E24.28427
G1 X120.502 Y63.179 E24.29618
G1 X120.587 Y63.532 E24.30826
G1 X120.744 Y63.829 E24.31943
G1 X120.993 Y64.124 E24.33227
G0 F3600 X120.926 Y64.198
G0 X128.325 Y69.67
G0 X128.395 Y69.6
G1 F1500 X168.595 Y69.6 E25.66933
G1 X168.595 Y56.6 E26.10171
G1 X181.395 Y56.6 E26.52744
G1 X181.395 Y69.6 E26.95982
G1 X182.074 Y69.6 E26.9824
G1 X182.627 Y69.643 E27.00085
G1 X183.142 Y69.767 E27.01847
G1 X183.636 Y69.972 E27.03626
G1 X184.095 Y70.253 E27.05416
G1 X184.497 Y70.598 E27.07178
G1 X184.842 Y71 E27.0894
G1 X185.123 Y71.459 E27.1073
G1 X185.328 Y71.953 E27.12509
G1 X185.452 Y72.468 E27.14271
G1 X185.495 Y73.018 E27.16105
G1 X185.496 Y85.746 E27.58439
G1 X185.505 Y85.883 E27.58896
G1 X185.505 Y91.131 E27.7635
G1 X185.497 Y91.139 E27.76388
G1 X185.498 Y104.662 E28.21366
G1 X185.505 Y104.669 E28.21399
G1 X185.503 Y153.4 E29.83479
G1 X172.703 Y153.4 E30.26052
G1 X172.703 Y139.4 E30.72616
G1 X171.395 Y139.4 E30.76966
G1 X171.395 Y150.4 E31.13552
G1 X124.395 Y150.4 E32.69875
G1 X124.395 Y153.4 E32.79853
G1 X111.595 Y153.4 E33.22426
G1 X111.595 Y139.4 E33.6899
G1 X111.495 Y139.4 E33.69323
G1 X111.495 Y73.018 E35.9011
G1 X111.538 Y72.468 E35.91945
G1 X111.662 Y71.953 E35.93707
G1 X111.867 Y71.459 E35.95486
G1 X112.148 Y71 E35.97276
G1 X112.493 Y70.598 E35.99038
G1 X112.895 Y70.253 E36.008
G1 X113.354 Y69.972 E36.0259
G1 X113.848 Y69.767 E36.04369
G1 X114.363 Y69.643 E36.06131
G1 X114.916 Y69.6 E36.07975
G1 X115.595 Y69.6 E36.10234
G1 X115.595 Y56.6 E36.53472
G1 X128.395 Y56.6 E36.96045
G1 X128.395 Y69.6 E37.39283
G0 F3600 X128.325 Y69.67
G0 X129.797 Y83.765
G0 X129.867 Y83.835
G1 F1500 X129.867 Y87.183 E37.50419
G1 X128.919 Y88.313 E37.55324
G1 X126.942 Y88.313 E37.619
G1 X126.092 Y87.381 E37.66095
G1 X126.092 Y83.957 E37.77484
G1 X119.926 Y83.957 E37.97992
G1 X116.865 Y89.992 E38.20499
G1 X116.865 Y93.997 E38.33819
G1 X125.987 Y100.541 E38.71159
G1 X125.987 Y129.145 E39.66296
G1 X131.446 Y133.13 E39.88776
G1 X131.446 Y135.769 E39.97553
G1 X179.169 Y135.769 E41.56281
G1 X179.169 Y122.863 E41.99206
G1 X177.996 Y121.905 E42.04243
G1 X177.996 Y116.821 E42.21153
G1 X182.324 Y113.517 E42.39263
G1 X182.324 Y95.789 E42.98227
G1 X178.047 Y91.7 E43.17907
G1 X178.047 Y89.556 E43.25038
G1 X179.503 Y88.071 E43.31955
G1 X179.503 Y83.835 E43.46044
G1 X129.867 Y83.835 E45.11134
G0 F3600 X129.797 Y83.765
G0 X168.623 Y69.628
G0 X173.926 Y64.198
G0 X173.993 Y64.124
G1 F1500 X174.297 Y64.332 E45.12359
G1 X174.636 Y64.461 E45.13566
G1 X174.995 Y64.504 E45.14768
G1 X175.354 Y64.461 E45.15971
G1 X175.693 Y64.332 E45.17177
G1 X175.993 Y64.127 E45.18386
G1 X176.234 Y63.854 E45.19597
G1 X176.403 Y63.532 E45.20806
G1 X176.488 Y63.179 E45.22014
G1 X176.488 Y62.821 E45.23205
G1 X176.403 Y62.468 E45.24412
G1 X176.234 Y62.146 E45.25622
G1 X175.993 Y61.873 E45.26833
G1 X175.693 Y61.668 E45.28042
G1 X175.354 Y61.539 E45.29248
G1 X174.995 Y61.496 E45.30451
G1 X174.636 Y61.539 E45.31653
G1 X174.297 Y61.668 E45.3286
G1 X173.997 Y61.873 E45.34068
G1 X173.756 Y62.146 E45.35279
G1 X173.587 Y62.468 E45.36489
G1 X173.502 Y62.821 E45.37696
G1 X173.502 Y63.179 E45.38887
G1 X173.587 Y63.532 E45.40095
G1 X173.744 Y63.829 E45.41212
G1 X173.993 Y64.124 E45.42496
G0 F3600 X173.926 Y64.198
G0 X179.531 Y83.807
G0 X182.36 Y95.774
G0 X182.359 Y113.534
G0 X177.659 Y146.452
G0 X177.57 Y146.815
G0 X177.57 Y147.185
G0 X177.62 Y147.39
G0 X178.032 Y148.196
G0 X178.099 Y148.122
G1 F1500 X178.402 Y148.332 E45.43722
G1 X178.743 Y148.461 E45.44935
G1 X179.103 Y148.504 E45.46141
G1 X179.462 Y148.461 E45.47343
G1 X179.801 Y148.332 E45.4855
G1 X180.101 Y148.127 E45.49758
G1 X180.341 Y147.853 E45.5097
G1 X180.509 Y147.534 E45.52169
G1 X180.596 Y147.181 E45.53378
G1 X180.596 Y146.819 E45.54582
G1 X180.509 Y146.466 E45.55791
G1 X180.341 Y146.147 E45.56991
G1 X180.101 Y145.873 E45.58202
G1 X179.801 Y145.668 E45.59411
G1 X179.462 Y145.539 E45.60617
G1 X179.103 Y145.496 E45.61819
G1 X178.743 Y145.539 E45.63025
G1 X178.403 Y145.668 E45.64235
G1 X178.104 Y145.874 E45.65443
G1 X177.864 Y146.147 E45.66652
G1 X177.696 Y146.466 E45.67851
G1 X177.609 Y146.819 E45.6906
G1 X177.609 Y147.181 E45.70264
G1 X177.696 Y147.534 E45.71473
G1 X177.851 Y147.829 E45.72581
G1 X178.099 Y148.122 E45.73858
G0 F3600 X178.032 Y148.196
G0 X172.731 Y139.372
G0 X171.367 Y139.372
G0 X117.995 Y148.544
G0 X117.788 Y148.519
G0 X116.926 Y148.198
G0 X116.993 Y148.124
G1 F1500 X117.297 Y148.332 E45.75083
G1 X117.636 Y148.461 E45.7629
G1 X117.995 Y148.504 E45.77492
G1 X118.354 Y148.461 E45.78695
G1 X118.693 Y148.332 E45.79901
G1 X118.993 Y148.127 E45.8111
G1 X119.234 Y147.854 E45.82321
G1 X119.403 Y147.532 E45.8353
G1 X119.488 Y147.179 E45.84738
G1 X119.488 Y146.821 E45.85929
G1 X119.403 Y146.468 E45.87136
G1 X119.234 Y146.146 E45.88346
G1 X118.993 Y145.873 E45.89557
G1 X118.693 Y145.668 E45.90766
G1 X118.354 Y145.539 E45.91972
G1 X117.995 Y145.496 E45.93175
G1 X117.636 Y145.539 E45.94377
G1 X117.297 Y145.668 E45.95584
G1 X116.997 Y145.873 E45.96792
G1 X116.756 Y146.146 E45.98003
G1 X116.587 Y146.468 E45.99213
G1 X116.502 Y146.821 E46.00421
G1 X116.502 Y147.179 E46.01611
G1 X116.587 Y147.532 E46.02819
G1 X116.744 Y147.829 E46.03936
G1 X116.993 Y148.124 E46.0522
G0 F3600 X117.263 Y147.824
;TYPE:WALL-OUTER
G1 F1500 X117.484 Y147.975 E46.0611
G1 X117.732 Y148.07 E46.06994
G1 X117.995 Y148.101 E46.07875
G1 X118.258 Y148.07 E46.08755
G1 X118.506 Y147.975 E46.09639
G1 X118.726 Y147.825 E46.10524
G1 X118.902 Y147.625 E46.1141
G1 X119.026 Y147.39 E46.12294
G1 X119.088 Y147.132 E46.13177
G1 X119.088 Y146.868 E46.14055
G1 X119.026 Y146.61 E46.14937
G1 X118.902 Y146.375 E46.15821
G1 X118.726 Y146.175 E46.16707
G1 X118.506 Y146.025 E46.17593
G1 X118.258 Y145.93 E46.18476
G1 X117.995 Y145.899 E46.19357
G1 X117.732 Y145.93 E46.20238
G1 X117.484 Y146.025 E46.21121
G1 X117.264 Y146.175 E46.22007
G1 X117.088 Y146.375 E46.22893
G1 X116.964 Y146.61 E46.23776
G1 X116.902 Y146.868 E46.24659
G1 X116.902 Y147.132 E46.25537
G1 X116.964 Y147.39 E46.2642
G1 X117.077 Y147.604 E46.27224
G1 X117.263 Y147.824 E46.28183
G0 F3600 X117.428 Y147.937
G0 X117.146 Y148.349
G0 X111.623 Y153.372
G0 X115.623 Y69.628
G0 X185.456 Y73.019
G0 X185.475 Y153.372
G0 X178.084 Y148.233
G0 X178.37 Y147.823
G1 F1500 X178.59 Y147.975 E46.29072
G1 X178.839 Y148.07 E46.29958
G1 X179.103 Y148.101 E46.30842
G1 X179.366 Y148.07 E46.31723
G1 X179.614 Y147.975 E46.32607
G1 X179.834 Y147.825 E46.33492
G1 X180.009 Y147.625 E46.34376
G1 X180.132 Y147.391 E46.35255
G1 X180.196 Y147.132 E46.36143
G1 X180.196 Y146.868 E46.37021
G1 X180.132 Y146.609 E46.37908
G1 X180.009 Y146.375 E46.38787
G1 X179.834 Y146.175 E46.39671
G1 X179.614 Y146.025 E46.40557
G1 X179.366 Y145.93 E46.4144
G1 X179.103 Y145.899 E46.42321
G1 X178.839 Y145.93 E46.43205
G1 X178.59 Y146.025 E46.44092
G1 X178.372 Y146.175 E46.44972
G1 X178.196 Y146.375 E46.45858
G1 X178.073 Y146.609 E46.46737
G1 X178.009 Y146.868 E46.47624
G1 X178.009 Y147.132 E46.48502
G1 X178.073 Y147.391 E46.4939
G1 X178.185 Y147.604 E46.5019
G1 X178.37 Y147.823 E46.51144
G0 F3600 X178.534 Y147.936
G0 X178.249 Y148.347
G0 X177.818 Y147.851
G0 X172.731 Y139.372
G0 X131.418 Y135.797
G0 X125.952 Y129.163
G0 X116.83 Y94.015
G0 X116.827 Y89.983
G0 X119.906 Y83.923
G0 X130.267 Y83.735
G0 X130.267 Y84.235
G1 F1500 X130.267 Y87.328 E46.61431
G1 X129.105 Y88.713 E46.67444
G1 X126.765 Y88.713 E46.75227
G1 X125.692 Y87.536 E46.80524
G1 X125.692 Y84.357 E46.91098
G1 X120.172 Y84.357 E47.09457
G1 X117.265 Y90.088 E47.30831
G1 X117.265 Y93.792 E47.4315
G1 X126.387 Y100.336 E47.8049
G1 X126.387 Y128.942 E48.75634
G1 X131.846 Y132.927 E48.98113
G1 X131.846 Y135.369 E49.06236
G1 X178.769 Y135.369 E50.62302
G1 X178.769 Y123.053 E51.03265
G1 X177.596 Y122.095 E51.08303
G1 X177.596 Y116.623 E51.26502
G1 X181.924 Y113.319 E51.44613
G1 X181.924 Y95.96 E52.02349
G1 X177.647 Y91.87 E52.22032
G1 X177.647 Y89.392 E52.30274
G1 X179.103 Y87.908 E52.37188
G1 X179.103 Y84.235 E52.49405
G1 X130.267 Y84.235 E54.11834
G0 F3600 X130.267 Y84.435
G0 X129.767 Y84.435
G0 X128.295 Y69.2
G0 X128.795 Y69.2
G1 F1500 X168.195 Y69.2 E55.42879
G1 X168.195 Y56.2 E55.86117
G1 X181.795 Y56.2 E56.31351
G1 X181.795 Y69.2 E56.74589
G1 X182.092 Y69.2 E56.75577
G1 X182.69 Y69.247 E56.77572
G1 X183.267 Y69.386 E56.79546
G1 X183.816 Y69.613 E56.81522
G1 X184.331 Y69.929 E56.83531
G1 X184.781 Y70.314 E56.85501
G1 X185.166 Y70.764 E56.87471
G1 X185.482 Y71.279 E56.89481
G1 X185.709 Y71.828 E56.91456
G1 X185.848 Y72.405 E56.9343
G1 X185.895 Y73 E56.95416
G1 X185.896 Y85.734 E57.37769
G1 X185.905 Y85.883 E57.38266
G1 X185.905 Y91.297 E57.56273
G1 X185.897 Y91.305 E57.5631
G1 X185.898 Y104.496 E58.00184
G1 X185.905 Y104.503 E58.00217
G1 X185.903 Y153.8 E59.64179
G1 X172.303 Y153.8 E60.09413
G1 X172.303 Y139.8 E60.55977
G1 X171.795 Y139.8 E60.57667
G1 X171.795 Y150.8 E60.94253
G1 X124.795 Y150.8 E62.50575
G1 X124.795 Y153.8 E62.60554
G1 X111.195 Y153.8 E63.05787
G1 X111.195 Y139.8 E63.52351
G1 X111.095 Y139.8 E63.52684
G1 X111.095 Y73 E65.74862
G1 X111.142 Y72.405 E65.76847
G1 X111.281 Y71.828 E65.78821
G1 X111.508 Y71.279 E65.80797
G1 X111.824 Y70.764 E65.82806
G1 X112.209 Y70.314 E65.84776
G1 X112.659 Y69.929 E65.86746
G1 X113.174 Y69.613 E65.88756
G1 X113.723 Y69.386 E65.90732
G1 X114.3 Y69.247 E65.92706
G1 X114.898 Y69.2 E65.94701
G1 X115.195 Y69.2 E65.95688
G1 X115.195 Y56.2 E66.38927
G1 X128.795 Y56.2 E66.8416
G1 X128.795 Y69.2 E67.27399
G0 F3600 X128.995 Y69.2
G0 X128.995 Y69.7
G0 X185.456 Y73.019
G0 X185.475 Y153.372
G0 X172.731 Y153.372
G0 X172.731 Y139.372
G0 X111.523 Y139.372
G0 X115.623 Y69.628
G0 X120.98 Y64.235
G0 X121.263 Y63.824
G1 F1500 X121.484 Y63.975 E67.28289
G1 X121.732 Y64.07 E67.29172
G1 X121.995 Y64.101 E67.30053
