;FLAVOR:Marlin
;TIME:6187
;Filament used: 3.94095m
;Layer height: 0.2
;Generated with Cura_SteamEngine 3.2.0
M104 S200
M109 S200
M82 ;absolute extrusion mode
; -- START GCODE --
G21                     ;set units to millimetres
G90                     ;set to absolute positioning
M106 S0                 ;set fan speed to zero (turned off)
G28 X0 Y0               ;move to the X/Y origin (Home)
G28 Z0                  ;move to the Z origin (Home)
G1 Z15.0 F1200          ;move Z to position 15.0 mm
G92 E0                  ;zero the extruded length
G1 E20 F200             ;extrude 20mm of feed stock
G92 E0                  ;zero the extruded length again
G1 F7200                ;set feedrate to 120 mm/s
; -- end of START GCODE --
;LAYER_COUNT:36
;LAYER:0
M107
G0 F3600 X105.1 Y61.427 Z0.2
;TYPE:SKIRT
G1 F1200 X105.56 Y60.786 E0.02624
G1 X106.143 Y60.135 E0.05531
G1 X107.03 Y59.248 E0.09703
G1 X107.616 Y58.718 E0.12331
G1 X108.466 Y58.115 E0.15797
G1 X108.999 Y57.788 E0.17877
G1 X109.692 Y57.409 E0.20504
G1 X110.666 Y57.018 E0.23995
G1 X111.856 Y56.631 E0.28157
G1 X112.618 Y56.425 E0.30782
G1 X113.397 Y56.298 E0.33407
G1 X114.262 Y56.249 E0.36289
G1 X182.088 Y56.2 E2.61879
G1 X182.877 Y56.239 E2.64507
G1 X183.315 Y56.296 E2.65976
G1 X184.552 Y56.492 E2.70141
G1 X185.324 Y56.655 E2.72766
G1 X186.077 Y56.895 E2.75394
G1 X186.869 Y57.245 E2.78274
G1 X187.983 Y57.812 E2.82432
G1 X188.668 Y58.205 E2.85058
G1 X189.309 Y58.666 E2.87685
G1 X189.96 Y59.248 E2.90589
G1 X190.847 Y60.135 E2.94761
G1 X191.377 Y60.721 E2.97389
G1 X191.98 Y61.571 E3.00855
G1 X192.307 Y62.104 E3.02935
G1 X192.686 Y62.797 E3.05562
G1 X193.077 Y63.771 E3.09053
G1 X193.464 Y64.961 E3.13215
G1 X193.67 Y65.723 E3.1584
G1 X193.797 Y66.502 E3.18466
G1 X193.846 Y67.368 E3.2135
G1 X193.895 Y141.994 E5.69558
G1 X193.856 Y142.783 E5.72185
G1 X193.8 Y143.216 E5.73637
G1 X193.605 Y144.451 E5.77796
G1 X193.442 Y145.223 E5.8042
G1 X193.202 Y145.976 E5.83049
G1 X192.851 Y146.772 E5.85942
G1 X192.283 Y147.888 E5.90107
G1 X191.89 Y148.573 E5.92734
G1 X191.43 Y149.214 E5.95358
G1 X190.847 Y149.865 E5.98264
G1 X189.961 Y150.751 E6.02432
G1 X189.375 Y151.281 E6.0506
G1 X188.528 Y151.882 E6.08514
G1 X187.994 Y152.21 E6.10599
G1 X187.301 Y152.589 E6.13226
G1 X186.324 Y152.982 E6.16728
G1 X185.134 Y153.369 E6.2089
G1 X184.372 Y153.575 E6.23516
G1 X183.593 Y153.702 E6.26141
G1 X182.728 Y153.751 E6.29022
G1 X114.902 Y153.8 E8.54613
G1 X114.113 Y153.761 E8.5724
G1 X113.675 Y153.704 E8.58709
G1 X112.438 Y153.508 E8.62875
G1 X111.666 Y153.345 E8.65499
G1 X110.681 Y153.013 E8.68956
G1 X110.1 Y152.773 E8.71047
G1 X109.386 Y152.435 E8.73674
G1 X108.486 Y151.869 E8.77211
G1 X107.474 Y151.132 E8.81375
G1 X106.86 Y150.636 E8.84
G1 X106.3 Y150.079 E8.86627
G1 X105.758 Y149.415 E8.89478
G1 X105.022 Y148.403 E8.9364
G1 X104.59 Y147.741 E8.96269
G1 X104.228 Y147.04 E8.98893
G1 X103.912 Y146.225 E9.018
G1 X103.526 Y145.037 E9.05955
G1 X103.32 Y144.275 E9.0858
G1 X103.193 Y143.496 E9.11205
G1 X103.144 Y142.632 E9.14084
G1 X103.095 Y68.006 E11.62291
G1 X103.134 Y67.217 E11.64918
G1 X103.19 Y66.784 E11.6637
G1 X103.385 Y65.549 E11.70529
G1 X103.548 Y64.777 E11.73153
G1 X103.788 Y64.024 E11.75782
G1 X104.139 Y63.228 E11.78675
G1 X104.707 Y62.112 E11.8284
G1 X105.1 Y61.427 E11.85467
G0 F3600 X105.447 Y61.627
G1 F1200 X105.898 Y61.004 E11.88025
G1 X106.425 Y60.417 E11.90649
G1 X107.312 Y59.53 E11.94821
G1 X107.884 Y59.016 E11.97379
G1 X108.675 Y58.455 E12.00604
G1 X109.208 Y58.128 E12.02684
G1 X109.884 Y57.761 E12.05242
G1 X110.789 Y57.399 E12.08484
G1 X111.979 Y57.012 E12.12646
G1 X112.722 Y56.812 E12.15205
G1 X113.482 Y56.691 E12.17765
G1 X114.263 Y56.649 E12.20366
G1 X182.089 Y56.6 E14.45956
G1 X182.857 Y56.639 E14.48514
G1 X183.252 Y56.691 E14.49839
G1 X184.489 Y56.887 E14.54005
G1 X185.241 Y57.047 E14.56562
G1 X185.973 Y57.284 E14.59121
G1 X186.688 Y57.601 E14.61722
G1 X187.802 Y58.168 E14.6588
G1 X188.468 Y58.552 E14.68437
G1 X189.091 Y59.003 E14.70995
G1 X189.678 Y59.53 E14.73619
G1 X190.565 Y60.417 E14.77791
G1 X191.079 Y60.989 E14.80349
G1 X191.64 Y61.78 E14.83574
G1 X191.967 Y62.313 E14.85654
G1 X192.334 Y62.989 E14.88212
G1 X192.696 Y63.894 E14.91454
G1 X193.083 Y65.084 E14.95616
G1 X193.283 Y65.827 E14.98175
G1 X193.404 Y66.587 E15.00735
G1 X193.446 Y67.368 E15.03336
G1 X193.495 Y141.994 E17.51543
G1 X193.456 Y142.762 E17.54101
G1 X193.404 Y143.153 E17.55413
G1 X193.209 Y144.388 E17.59571
G1 X193.05 Y145.141 E17.62131
G1 X192.814 Y145.872 E17.64686
G1 X192.495 Y146.591 E17.67302
G1 X191.927 Y147.707 E17.71467
G1 X191.543 Y148.373 E17.74024
G1 X191.092 Y148.996 E17.76582
G1 X190.565 Y149.583 E17.79206
G1 X189.679 Y150.469 E17.83373
G1 X189.107 Y150.983 E17.85931
G1 X188.319 Y151.542 E17.89145
G1 X187.785 Y151.87 E17.91229
G1 X187.11 Y152.237 E17.93784
G1 X186.201 Y152.601 E17.97041
G1 X185.011 Y152.988 E18.01203
G1 X184.268 Y153.188 E18.03762
G1 X183.508 Y153.309 E18.06322
G1 X182.727 Y153.351 E18.08923
G1 X114.901 Y153.4 E20.34514
G1 X114.133 Y153.361 E20.37071
G1 X113.738 Y153.309 E20.38396
G1 X112.501 Y153.113 E20.42562
G1 X111.749 Y152.953 E20.45119
G1 X110.834 Y152.643 E20.48332
G1 X110.253 Y152.403 E20.50423
G1 X109.558 Y152.073 E20.52982
G1 X108.722 Y151.546 E20.56269
G1 X107.71 Y150.809 E20.60433
G1 X107.112 Y150.324 E20.62994
G1 X106.568 Y149.78 E20.65553
G1 X106.081 Y149.179 E20.68125
G1 X105.345 Y148.167 E20.72287
G1 X104.926 Y147.523 E20.74843
G1 X104.576 Y146.838 E20.77401
G1 X104.292 Y146.102 E20.80025
G1 X103.906 Y144.914 E20.8418
G1 X103.707 Y144.171 E20.86738
G1 X103.586 Y143.411 E20.89298
G1 X103.544 Y142.632 E20.91892
G1 X103.495 Y68.006 E23.401
G1 X103.534 Y67.238 E23.42657
G1 X103.586 Y66.847 E23.43969
G1 X103.781 Y65.612 E23.48128
G1 X103.94 Y64.859 E23.50687
G1 X104.176 Y64.128 E23.53242
G1 X104.495 Y63.409 E23.55858
G1 X105.063 Y62.293 E23.60023
G1 X105.447 Y61.627 E23.6258
G0 F3600 X105.794 Y61.827
G1 F1200 X106.235 Y61.223 E23.65068
G1 X106.708 Y60.7 E23.67413
G1 X107.595 Y59.813 E23.71585
G1 X108.152 Y59.313 E23.74075
G1 X108.884 Y58.796 E23.77055
G1 X109.417 Y58.469 E23.79135
G1 X110.075 Y58.113 E23.81624
G1 X110.913 Y57.779 E23.84624
G1 X112.103 Y57.392 E23.88786
G1 X112.826 Y57.199 E23.91275
G1 X113.565 Y57.084 E23.93762
G1 X114.263 Y57.049 E23.96087
G1 X182.089 Y57 E26.21677
G1 X183.189 Y57.086 E26.25347
G1 X184.426 Y57.282 E26.29513
G1 X185.158 Y57.439 E26.32003
G1 X185.869 Y57.672 E26.34491
G1 X186.506 Y57.958 E26.36813
G1 X187.62 Y58.525 E26.40971
G1 X188.268 Y58.899 E26.43459
G1 X188.872 Y59.34 E26.45947
G1 X189.395 Y59.813 E26.48292
G1 X190.282 Y60.7 E26.52464
G1 X190.782 Y61.257 E26.54954
G1 X191.299 Y61.989 E26.57935
G1 X191.626 Y62.522 E26.60014
G1 X191.982 Y63.18 E26.62503
G1 X192.316 Y64.018 E26.65503
G1 X192.703 Y65.208 E26.69665
G1 X192.896 Y65.931 E26.72154
G1 X193.011 Y66.67 E26.74642
G1 X193.046 Y67.368 E26.76966
G1 X193.095 Y141.994 E29.25173
G1 X193.009 Y143.091 E29.28833
G1 X192.814 Y144.326 E29.32991
G1 X192.658 Y145.057 E29.35478
G1 X192.425 Y145.768 E29.37966
G1 X192.138 Y146.409 E29.40302
G1 X191.57 Y147.525 E29.44467
G1 X191.196 Y148.173 E29.46955
G1 X190.755 Y148.777 E29.49443
G1 X190.282 Y149.3 E29.51788
G1 X189.396 Y150.186 E29.55956
G1 X188.839 Y150.686 E29.58445
G1 X188.11 Y151.201 E29.61414
G1 X187.576 Y151.529 E29.63498
G1 X186.918 Y151.886 E29.65988
G1 X186.077 Y152.221 E29.68999
G1 X184.887 Y152.608 E29.73161
G1 X184.164 Y152.801 E29.7565
G1 X183.425 Y152.916 E29.78137
G1 X182.727 Y152.951 E29.80462
G1 X114.901 Y153 E32.06052
G1 X113.801 Y152.914 E32.09722
G1 X112.564 Y152.718 E32.13888
G1 X111.832 Y152.561 E32.16378
G1 X110.986 Y152.274 E32.19349
G1 X110.405 Y152.034 E32.2144
G1 X109.73 Y151.712 E32.23927
G1 X108.957 Y151.222 E32.26971
G1 X107.945 Y150.485 E32.31135
G1 X107.365 Y150.013 E32.33622
G1 X106.838 Y149.482 E32.3611
G1 X106.405 Y148.944 E32.38407
G1 X105.669 Y147.932 E32.42569
G1 X105.262 Y147.305 E32.45056
G1 X104.924 Y146.637 E32.47546
G1 X104.673 Y145.978 E32.49891
G1 X104.287 Y144.79 E32.54046
G1 X104.094 Y144.067 E32.56535
G1 X103.979 Y143.328 E32.59022
G1 X103.944 Y142.632 E32.6134
G1 X103.895 Y68.006 E35.09547
G1 X103.981 Y66.909 E35.13207
G1 X104.176 Y65.674 E35.17365
G1 X104.332 Y64.943 E35.19852
G1 X104.565 Y64.232 E35.2234
G1 X104.852 Y63.591 E35.24676
G1 X105.42 Y62.475 E35.28841
G1 X105.794 Y61.827 E35.31329
G0 F3600 X106.141 Y62.028
G1 F1200 X106.572 Y61.444 E35.33743
G1 X106.991 Y60.983 E35.35815
G1 X107.878 Y60.096 E35.39988
G1 X108.419 Y59.612 E35.42402
G1 X109.094 Y59.137 E35.45147
G1 X109.627 Y58.81 E35.47227
G1 X110.266 Y58.465 E35.49642
G1 X111.037 Y58.16 E35.524
G1 X112.227 Y57.773 E35.56562
G1 X112.929 Y57.586 E35.58978
G1 X113.647 Y57.478 E35.61393
G1 X114.263 Y57.449 E35.63444
G1 X182.089 Y57.4 E37.89035
G1 X183.127 Y57.481 E37.92497
G1 X184.364 Y57.677 E37.96663
G1 X185.074 Y57.83 E37.99079
G1 X185.763 Y58.06 E38.01495
G1 X186.325 Y58.314 E38.03546
G1 X187.439 Y58.881 E38.07703
G1 X188.067 Y59.246 E38.10119
G1 X188.651 Y59.677 E38.12533
G1 X189.112 Y60.096 E38.14605
G1 X189.999 Y60.983 E38.18778
G1 X190.483 Y61.524 E38.21192
G1 X190.958 Y62.199 E38.23937
G1 X191.285 Y62.732 E38.26017
G1 X191.63 Y63.371 E38.28432
G1 X191.935 Y64.142 E38.3119
G1 X192.322 Y65.332 E38.35352
G1 X192.509 Y66.034 E38.37768
G1 X192.617 Y66.752 E38.40183
G1 X192.646 Y67.369 E38.42238
G1 X192.695 Y141.995 E40.90445
G1 X192.614 Y143.028 E40.93891
G1 X192.419 Y144.263 E40.9805
G1 X192.267 Y144.974 E41.00468
G1 X192.037 Y145.663 E41.02884
G1 X191.782 Y146.228 E41.04946
G1 X191.214 Y147.344 E41.0911
G1 X190.849 Y147.972 E41.11526
G1 X190.418 Y148.556 E41.1394
G1 X189.999 Y149.017 E41.16012
G1 X189.113 Y149.903 E41.2018
G1 X188.572 Y150.387 E41.22594
G1 X187.9 Y150.86 E41.25328
G1 X187.366 Y151.188 E41.27412
G1 X186.727 Y151.533 E41.29827
G1 X185.953 Y151.84 E41.32597
G1 X184.763 Y152.227 E41.36759
G1 X184.061 Y152.414 E41.39175
G1 X183.343 Y152.522 E41.4159
G1 X182.727 Y152.551 E41.43641
G1 X114.901 Y152.6 E43.69231
G1 X113.863 Y152.519 E43.72694
G1 X112.626 Y152.323 E43.7686
G1 X111.916 Y152.17 E43.79275
G1 X111.139 Y151.904 E43.82007
G1 X110.558 Y151.664 E43.84098
G1 X109.903 Y151.35 E43.86514
G1 X109.193 Y150.899 E43.89311
G1 X108.181 Y150.162 E43.93475
G1 X107.618 Y149.703 E43.95891
G1 X107.109 Y149.185 E43.98307
G1 X106.728 Y148.709 E44.00335
G1 X105.992 Y147.697 E44.04496
G1 X105.598 Y147.087 E44.06912
G1 X105.273 Y146.437 E44.09329
G1 X105.053 Y145.854 E44.11401
G1 X104.667 Y144.666 E44.15556
G1 X104.481 Y143.964 E44.17971
G1 X104.373 Y143.246 E44.20386
G1 X104.344 Y142.631 E44.22434
G1 X104.295 Y68.005 E46.70641
G1 X104.376 Y66.972 E46.74088
G1 X104.571 Y65.737 E46.78246
G1 X104.723 Y65.026 E46.80664
G1 X104.953 Y64.337 E46.8308
G1 X105.208 Y63.772 E46.85142
G1 X105.776 Y62.656 E46.89307
G1 X106.141 Y62.028 E46.91723
G0 F3600 X106.487 Y62.229
G1 F1200 X106.908 Y61.665 E46.94064
G1 X107.274 Y61.266 E46.95865
G1 X108.161 Y60.379 E47.00037
G1 X108.686 Y59.91 E47.02378
G1 X109.303 Y59.478 E47.04883
G1 X109.836 Y59.151 E47.06963
G1 X110.456 Y58.818 E47.09304
G1 X111.161 Y58.54 E47.11824
G1 X112.351 Y58.153 E47.15986
G1 X113.031 Y57.974 E47.18325
G1 X113.728 Y57.873 E47.20668
G1 X114.264 Y57.849 E47.22452
G1 X182.09 Y57.8 E49.48042
G1 X183.064 Y57.876 E49.51292
G1 X184.301 Y58.072 E49.55457
G1 X184.989 Y58.222 E49.57799
G1 X185.656 Y58.448 E49.60142
G1 X186.143 Y58.671 E49.61923
G1 X187.257 Y59.238 E49.66081
G1 X187.866 Y59.592 E49.68424
G1 X188.43 Y60.013 E49.70765
G1 X188.829 Y60.379 E49.72565
G1 X189.716 Y61.266 E49.76738
G1 X190.185 Y61.791 E49.79079
G1 X190.617 Y62.408 E49.81584
G1 X190.944 Y62.941 E49.83664
G1 X191.277 Y63.561 E49.86005
G1 X191.555 Y64.266 E49.88525
G1 X191.942 Y65.456 E49.92687
G1 X192.121 Y66.136 E49.95026
G1 X192.222 Y66.833 E49.97368
G1 X192.246 Y67.369 E49.99153
G1 X192.295 Y141.995 E52.4736
G1 X192.219 Y142.966 E52.506
G1 X192.024 Y144.201 E52.54758
G1 X191.875 Y144.889 E52.57099
G1 X191.649 Y145.556 E52.59442
G1 X191.426 Y146.046 E52.61232
G1 X190.858 Y147.162 E52.65397
G1 X190.503 Y147.771 E52.67742
G1 X190.082 Y148.335 E52.70083
G1 X189.716 Y148.734 E52.71883
G1 X188.83 Y149.62 E52.76051
G1 X188.305 Y150.089 E52.78392
G1 X187.691 Y150.519 E52.80886
G1 X187.157 Y150.847 E52.8297
G1 X186.537 Y151.181 E52.85312
G1 X185.829 Y151.46 E52.87843
G1 X184.639 Y151.847 E52.92005
G1 X183.959 Y152.026 E52.94344
G1 X183.262 Y152.127 E52.96687
G1 X182.726 Y152.151 E52.98471
G1 X114.9 Y152.2 E55.24061
G1 X113.926 Y152.124 E55.27311
G1 X112.689 Y151.928 E55.31476
G1 X112.001 Y151.778 E55.33818
G1 X111.292 Y151.534 E55.36312
G1 X110.711 Y151.294 E55.38403
G1 X110.077 Y150.989 E55.40743
G1 X109.428 Y150.576 E55.43302
G1 X108.416 Y149.839 E55.47466
G1 X107.871 Y149.393 E55.49808
G1 X107.381 Y148.888 E55.52148
G1 X107.052 Y148.474 E55.53907
G1 X106.316 Y147.462 E55.58069
G1 X105.935 Y146.87 E55.6041
G1 X105.623 Y146.238 E55.62755
G1 X105.433 Y145.731 E55.64556
G1 X105.047 Y144.543 E55.6871
G1 X104.868 Y143.862 E55.71052
G1 X104.767 Y143.165 E55.73395
G1 X104.744 Y142.631 E55.75172
G1 X104.695 Y68.005 E58.23379
G1 X104.771 Y67.034 E58.26619
G1 X104.966 Y65.799 E58.30777
G1 X105.115 Y65.111 E58.33119
G1 X105.341 Y64.444 E58.35461
G1 X105.564 Y63.954 E58.37252
G1 X106.132 Y62.838 E58.41417
G1 X106.487 Y62.229 E58.43761
G0 F3600 X106.833 Y62.432
G1 F1200 X107.243 Y61.888 E58.46027
G1 X107.557 Y61.549 E58.47564
G1 X108.444 Y60.662 E58.51736
G1 X108.953 Y60.209 E58.54002
G1 X109.512 Y59.819 E58.56269
G1 X110.045 Y59.492 E58.58349
G1 X110.645 Y59.171 E58.60612
G1 X111.284 Y58.92 E58.62896
G1 X112.474 Y58.533 E58.67058
G1 X113.133 Y58.361 E58.69323
G1 X113.807 Y58.267 E58.71586
G1 X114.264 Y58.249 E58.73108
G1 X182.09 Y58.2 E60.98698
G1 X183.002 Y58.271 E61.0174
G1 X184.239 Y58.467 E61.05906
G1 X184.904 Y58.613 E61.0817
G1 X185.547 Y58.836 E61.10434
G1 X185.962 Y59.027 E61.11953
G1 X187.076 Y59.594 E61.16111
G1 X187.664 Y59.938 E61.18377
G1 X188.207 Y60.348 E61.2064
G1 X188.546 Y60.662 E61.22177
G1 X189.433 Y61.549 E61.26349
G1 X189.886 Y62.058 E61.28615
G1 X190.276 Y62.617 E61.30882
G1 X190.603 Y63.15 E61.32962
G1 X190.924 Y63.75 E61.35225
G1 X191.175 Y64.389 E61.37509
G1 X191.562 Y65.579 E61.41671
G1 X191.734 Y66.238 E61.43936
G1 X191.828 Y66.912 E61.46199
G1 X191.846 Y67.369 E61.4772
G1 X191.895 Y141.995 E63.95928
G1 X191.824 Y142.904 E63.9896
G1 X191.629 Y144.139 E64.03119
G1 X191.484 Y144.804 E64.05382
G1 X191.261 Y145.447 E64.07646
G1 X191.069 Y145.865 E64.09176
G1 X190.501 Y146.981 E64.13341
G1 X190.157 Y147.568 E64.15604
G1 X189.747 Y148.112 E64.17869
G1 X189.433 Y148.451 E64.19406
G1 X188.547 Y149.337 E64.23574
G1 X188.038 Y149.79 E64.2584
G1 X187.482 Y150.178 E64.28095
G1 X186.948 Y150.506 E64.3018
G1 X186.348 Y150.828 E64.32444
G1 X185.706 Y151.08 E64.34738
G1 X184.516 Y151.467 E64.389
G1 X183.857 Y151.639 E64.41166
G1 X183.183 Y151.733 E64.43429
G1 X182.726 Y151.751 E64.4495
G1 X114.9 Y151.8 E66.7054
G1 X113.988 Y151.729 E66.73583
G1 X112.751 Y151.533 E66.77749
G1 X112.086 Y151.387 E66.80013
G1 X111.445 Y151.165 E66.82269
G1 X110.864 Y150.925 E66.8436
G1 X110.251 Y150.628 E66.86626
G1 X109.664 Y150.252 E66.88944
G1 X108.652 Y149.515 E66.93108
G1 X108.126 Y149.083 E66.95372
G1 X107.654 Y148.592 E66.97637
G1 X107.375 Y148.238 E66.99136
G1 X106.639 Y147.226 E67.03298
G1 X106.272 Y146.653 E67.05561
G1 X105.974 Y146.041 E67.07825
G1 X105.814 Y145.607 E67.09364
G1 X105.428 Y144.419 E67.13519
G1 X105.256 Y143.76 E67.15784
G1 X105.162 Y143.086 E67.18047
G1 X105.144 Y142.631 E67.19562
G1 X105.095 Y68.005 E69.67769
G1 X105.166 Y67.096 E69.70801
G1 X105.361 Y65.861 E69.7496
G1 X105.506 Y65.196 E69.77224
G1 X105.729 Y64.553 E69.79487
G1 X105.921 Y64.135 E69.81017
G1 X106.489 Y63.019 E69.85182
G1 X106.833 Y62.432 E69.87445
G0 F3600 X107.179 Y62.634
G1 F1200 X107.578 Y62.113 E69.89628
G1 X107.84 Y61.832 E69.90906
G1 X108.727 Y60.945 E69.95078
G1 X109.219 Y60.509 E69.97264
G1 X109.721 Y60.16 E69.99298
G1 X110.254 Y59.833 E70.01378
G1 X110.834 Y59.524 E70.03563
G1 X111.408 Y59.301 E70.05612
G1 X112.598 Y58.914 E70.09774
G1 X113.234 Y58.749 E70.11959
G1 X113.885 Y58.663 E70.14143
