;FLAVOR:Marlin
;TIME:3306
;Filament used: 3.73063m
;Layer height: 0.2
;Generated with Cura_SteamEngine 3.2.1
M104 S200
M109 S200
M82 ;absolute extrusion mode
; -- START GCODE --
G21                     ;set units to millimetres
G90                     ;set to absolute positioning
M106 S0                 ;set fan speed to zero (turned off)
G28 X0 Y0               ;move to the X/Y origin (Home)
G28 Z0                  ;move to the Z origin (Home)
G1 Z15.0 F1200          ;move Z to position 15.0 mm
G92 E0                  ;zero the extruded length
G1 E20 F200             ;extrude 20mm of feed stock
G92 E0                  ;zero the extruded length again
G1 F7200                ;set feedrate to 120 mm/s
; -- end of START GCODE --
;LAYER_COUNT:36
;LAYER:0
M107
G0 F3600 X108.664 Y64.436 Z0.2
;TYPE:SKIRT
G1 F2400 X109.126 Y63.732 E0.02801
G1 X109.479 Y63.286 E0.04693
G1 X109.901 Y62.841 E0.06732
G1 X110.397 Y62.415 E0.08907
G1 X111.255 Y61.819 E0.12382
G1 X111.854 Y61.492 E0.14651
G1 X112.437 Y61.25 E0.16751
G1 X112.929 Y61.091 E0.18471
G1 X113.56 Y60.942 E0.20627
G1 X114.133 Y60.86 E0.22552
G1 X115.239 Y60.804 E0.26236
G1 X115.404 Y60.8 E0.26784
G1 X182.709 Y60.858 E2.50642
G1 X183.444 Y60.944 E2.53103
G1 X184.064 Y61.091 E2.55223
G1 X184.633 Y61.284 E2.57221
G1 X185.373 Y61.615 E2.59917
G1 X185.998 Y61.985 E2.62333
G1 X186.852 Y62.632 E2.65896
G1 X187.354 Y63.106 E2.68193
G1 X187.756 Y63.577 E2.70252
G1 X188.171 Y64.196 E2.72731
G1 X188.732 Y65.292 E2.76826
G1 X188.989 Y65.979 E2.79266
G1 X189.141 Y66.591 E2.81363
G1 X189.223 Y67.089 E2.83042
G1 X189.235 Y67.346 E2.83897
G1 X189.305 Y81.49 E3.30941
G1 X189.305 Y81.507 E3.30998
G1 X189.295 Y141.294 E5.2985
G1 X189.292 Y141.436 E5.30322
G1 X189.232 Y142.776 E5.34784
G1 X189.169 Y143.278 E5.36467
G1 X189.077 Y143.626 E5.37664
G1 X188.694 Y144.799 E5.41768
G1 X188.5 Y145.266 E5.4345
G1 X188.328 Y145.56 E5.44583
G1 X187.866 Y146.265 E5.47386
G1 X187.512 Y146.713 E5.49285
G1 X187.092 Y147.156 E5.51316
G1 X186.518 Y147.634 E5.538
G1 X185.468 Y148.319 E5.5797
G1 X184.908 Y148.61 E5.60069
G1 X184.533 Y148.76 E5.61412
G1 X184.112 Y148.896 E5.62884
G1 X183.5 Y149.047 E5.6498
G1 X182.984 Y149.13 E5.66719
G1 X182.337 Y149.181 E5.68877
G1 X182.086 Y149.191 E5.69713
G1 X114.897 Y149.19 E7.93184
G1 X114.636 Y149.179 E7.94053
G1 X113.989 Y149.126 E7.96212
G1 X113.253 Y148.978 E7.98709
G1 X112.088 Y148.596 E8.02787
G1 X111.412 Y148.283 E8.05265
G1 X110.879 Y147.956 E8.07344
G1 X110.467 Y147.655 E8.09042
G1 X109.97 Y147.228 E8.11221
G1 X109.553 Y146.797 E8.13215
G1 X109.056 Y146.174 E8.15866
G1 X108.68 Y145.577 E8.18213
G1 X108.229 Y144.649 E8.21645
G1 X108.001 Y144.021 E8.23867
G1 X107.849 Y143.409 E8.25964
G1 X107.765 Y142.889 E8.27716
G1 X107.714 Y142.242 E8.29875
G1 X107.704 Y141.991 E8.3071
G1 X107.705 Y68.001 E10.76802
G1 X107.716 Y67.739 E10.77674
G1 X107.769 Y67.093 E10.7983
G1 X107.917 Y66.359 E10.8232
G1 X108.298 Y65.196 E10.86391
G1 X108.493 Y64.729 E10.88074
G1 X108.664 Y64.436 E10.89202
G1 F1500 E4.39202
G0 F3600 X110.788 Y65.798
G0 X111.884 Y66.468
G0 X129.797 Y78.765
G0 X129.867 Y78.835
;TYPE:WALL-INNER
G1 F1500 E10.89202
G1 F2400 X129.867 Y82.183 E11.00338
G1 X128.919 Y83.313 E11.05244
G1 X126.942 Y83.313 E11.11819
G1 X126.092 Y82.381 E11.16015
G1 X126.092 Y78.957 E11.27403
G1 X119.926 Y78.957 E11.47911
G1 X116.865 Y84.992 E11.70418
G1 X116.865 Y88.997 E11.83739
G1 X125.987 Y95.541 E12.21078
G1 X125.987 Y124.145 E13.16215
G1 X131.446 Y128.13 E13.38695
G1 X131.446 Y130.769 E13.47472
G1 X179.169 Y130.769 E15.062
G1 X179.169 Y117.863 E15.49125
G1 X177.996 Y116.905 E15.54163
G1 X177.996 Y111.821 E15.71072
G1 X182.324 Y108.517 E15.89182
G1 X182.324 Y90.789 E16.48146
G1 X178.047 Y86.7 E16.67826
G1 X178.047 Y84.556 E16.74957
G1 X179.503 Y83.071 E16.81874
G1 X179.503 Y78.835 E16.95963
G1 X129.867 Y78.835 E18.61053
G0 F3600 X129.797 Y78.765
G0 X179.531 Y78.807
G0 X185.403 Y86.103
G0 X185.495 Y86.141
G1 F2400 X185.495 Y99.659 E19.06014
G1 X185.505 Y99.669 E19.06061
G1 X185.505 Y129.118 E20.04009
G1 X185.495 Y129.276 E20.04536
G1 X185.495 Y141.982 E20.46796
G1 X185.452 Y142.532 E20.48631
G1 X185.328 Y143.047 E20.50393
G1 X185.123 Y143.541 E20.52172
G1 X184.842 Y144 E20.53962
G1 X184.497 Y144.402 E20.55724
G1 X184.095 Y144.747 E20.57486
G1 X183.636 Y145.028 E20.59276
G1 X183.142 Y145.233 E20.61055
G1 X182.627 Y145.357 E20.62816
G1 X182.074 Y145.4 E20.64661
G1 X114.916 Y145.4 E22.8803
G1 X114.363 Y145.357 E22.89874
G1 X113.848 Y145.233 E22.91636
G1 X113.354 Y145.028 E22.93415
G1 X112.895 Y144.747 E22.95205
G1 X112.493 Y144.402 E22.96967
G1 X112.148 Y144 E22.98729
G1 X111.867 Y143.541 E23.00519
G1 X111.662 Y143.047 E23.02298
G1 X111.538 Y142.532 E23.0406
G1 X111.495 Y141.982 E23.05895
G1 X111.495 Y68.018 E25.519
G1 X111.538 Y67.468 E25.53735
G1 X111.662 Y66.953 E25.55497
G1 X111.867 Y66.459 E25.57276
G1 X112.148 Y66 E25.59066
G1 X112.493 Y65.598 E25.60828
G1 X112.895 Y65.253 E25.6259
G1 X113.354 Y64.972 E25.6438
G1 X113.848 Y64.767 E25.66158
G1 X114.363 Y64.643 E25.6792
G1 X114.916 Y64.6 E25.69765
G1 X182.074 Y64.6 E27.93134
G1 X182.627 Y64.643 E27.94978
G1 X183.142 Y64.767 E27.9674
G1 X183.636 Y64.972 E27.98519
G1 X184.095 Y65.253 E28.00309
G1 X184.497 Y65.598 E28.02071
G1 X184.842 Y66 E28.03833
G1 X185.123 Y66.459 E28.05623
G1 X185.328 Y66.953 E28.07402
G1 X185.452 Y67.468 E28.09164
G1 X185.495 Y68.018 E28.10999
G1 X185.495 Y80.724 E28.53259
G1 X185.505 Y80.882 E28.53786
G1 X185.505 Y86.131 E28.71244
G1 X185.495 Y86.141 E28.71291
G0 F3600 X185.895 Y86.307
;TYPE:WALL-OUTER
G1 F2400 X185.895 Y99.493 E29.15148
G1 X185.905 Y99.503 E29.15195
G1 X185.905 Y129.118 E30.13695
G1 X185.895 Y129.288 E30.14261
G1 X185.895 Y142 E30.56541
G1 X185.848 Y142.595 E30.58526
G1 X185.709 Y143.172 E30.605
G1 X185.482 Y143.721 E30.62476
G1 X185.166 Y144.236 E30.64486
G1 X184.781 Y144.686 E30.66456
G1 X184.331 Y145.071 E30.68425
G1 X183.816 Y145.387 E30.70435
G1 X183.267 Y145.614 E30.72411
G1 X182.69 Y145.753 E30.74385
G1 X182.092 Y145.8 E30.7638
G1 X114.898 Y145.8 E32.99868
G1 X114.3 Y145.753 E33.01863
G1 X113.723 Y145.614 E33.03837
G1 X113.174 Y145.387 E33.05813
G1 X112.659 Y145.071 E33.07823
G1 X112.209 Y144.686 E33.09793
G1 X111.824 Y144.236 E33.11762
G1 X111.508 Y143.721 E33.13772
G1 X111.281 Y143.172 E33.15748
G1 X111.142 Y142.595 E33.17722
G1 X111.095 Y142 E33.19707
G1 X111.095 Y68 E35.65832
G1 X111.142 Y67.405 E35.67817
G1 X111.281 Y66.828 E35.69791
G1 X111.508 Y66.279 E35.71767
G1 X111.824 Y65.764 E35.73777
G1 X112.209 Y65.314 E35.75747
G1 X112.659 Y64.929 E35.77716
G1 X113.174 Y64.613 E35.79726
G1 X113.723 Y64.386 E35.81702
G1 X114.3 Y64.247 E35.83676
G1 X114.898 Y64.2 E35.85671
G1 X182.092 Y64.2 E38.09159
G1 X182.69 Y64.247 E38.11154
G1 X183.267 Y64.386 E38.13128
G1 X183.816 Y64.613 E38.15104
G1 X184.331 Y64.929 E38.17114
G1 X184.781 Y65.314 E38.19083
G1 X185.166 Y65.764 E38.21053
G1 X185.482 Y66.279 E38.23063
G1 X185.709 Y66.828 E38.25039
G1 X185.848 Y67.405 E38.27013
G1 X185.895 Y68 E38.28998
G1 X185.895 Y80.712 E38.71278
G1 X185.905 Y80.882 E38.71845
G1 X185.905 Y86.297 E38.89855
G1 X185.895 Y86.307 E38.89902
G0 F3600 X185.895 Y86.507
G0 X185.395 Y86.507
G0 X179.531 Y78.807
G0 X130.267 Y78.735
G0 X130.267 Y79.235
G1 F2400 X130.267 Y82.328 E39.00189
G1 X129.105 Y83.713 E39.06202
G1 X126.765 Y83.713 E39.13985
G1 X125.692 Y82.536 E39.19283
G1 X125.692 Y79.357 E39.29856
G1 X120.172 Y79.357 E39.48216
G1 X117.265 Y85.088 E39.69589
G1 X117.265 Y88.792 E39.81908
G1 X126.387 Y95.336 E40.19248
G1 X126.387 Y123.942 E41.14392
G1 X131.846 Y127.927 E41.36872
G1 X131.846 Y130.369 E41.44994
G1 X178.769 Y130.369 E43.0106
G1 X178.769 Y118.053 E43.42024
G1 X177.596 Y117.095 E43.47061
G1 X177.596 Y111.623 E43.65261
G1 X181.924 Y108.319 E43.83371
G1 X181.924 Y90.96 E44.41107
G1 X177.647 Y86.87 E44.6079
G1 X177.647 Y84.392 E44.69032
G1 X179.103 Y82.908 E44.75947
G1 X179.103 Y79.235 E44.88163
G1 X130.267 Y79.235 E46.50592
G0 F3600 X130.267 Y79.435
G0 X129.767 Y79.435
G0 X129.477 Y78.445
;TYPE:SKIN
G1 F2400 X129.477 Y82.04 E46.62549
G1 X128.737 Y82.923 E46.66381
G1 X127.114 Y82.923 E46.71779
G1 X126.482 Y82.23 E46.74899
G1 X126.482 Y78.567 E46.87082
G1 X119.686 Y78.567 E47.09685
G1 X116.475 Y84.899 E47.33299
G1 X116.475 Y89.198 E47.47597
G1 X125.597 Y95.741 E47.84935
G1 X125.597 Y124.344 E48.80069
G1 X131.056 Y128.328 E49.02547
G1 X131.056 Y131.159 E49.11963
G1 X179.559 Y131.159 E50.73284
G1 X179.559 Y117.678 E51.18122
G1 X178.386 Y116.72 E51.2316
G1 X178.386 Y112.014 E51.38812
G1 X182.714 Y108.71 E51.56922
G1 X182.714 Y90.623 E52.1708
G1 X178.437 Y86.533 E52.36762
G1 X178.437 Y84.716 E52.42806
G1 X179.893 Y83.231 E52.49723
G1 X179.893 Y78.445 E52.65641
G1 X129.477 Y78.445 E54.33325
G0 F3600 X114.921 Y64.99
G1 F2400 X182.069 Y64.99 E56.56661
G1 X182.563 Y65.029 E56.58309
G1 X183.019 Y65.138 E56.59868
G1 X183.458 Y65.321 E56.6145
G1 X183.865 Y65.569 E56.63035
G1 X184.22 Y65.875 E56.64594
G1 X184.526 Y66.23 E56.66153
G1 X184.774 Y66.637 E56.67738
G1 X184.957 Y67.076 E56.6932
G1 X185.066 Y67.532 E56.70879
G1 X185.105 Y68.018 E56.72501
G1 X185.105 Y80.736 E57.14801
G1 X185.115 Y80.906 E57.15368
G1 X185.115 Y85.969 E57.32207
G1 X185.105 Y85.979 E57.32254
G1 X185.105 Y99.821 E57.78293
G1 X185.115 Y99.831 E57.7834
G1 X185.115 Y129.094 E58.75669
G1 X185.105 Y129.264 E58.76236
G1 X185.105 Y141.982 E59.18536
G1 X185.066 Y142.468 E59.20158
G1 X184.957 Y142.924 E59.21717
G1 X184.774 Y143.363 E59.23299
G1 X184.526 Y143.77 E59.24884
G1 X184.22 Y144.125 E59.26443
G1 X183.865 Y144.431 E59.28002
G1 X183.458 Y144.679 E59.29587
G1 X183.019 Y144.862 E59.31169
G1 X182.563 Y144.971 E59.32728
G1 X182.069 Y145.01 E59.34376
G1 X114.921 Y145.01 E61.57711
G1 X114.427 Y144.971 E61.5936
G1 X113.971 Y144.862 E61.60919
G1 X113.532 Y144.679 E61.62501
G1 X113.125 Y144.431 E61.64086
G1 X112.77 Y144.125 E61.65645
G1 X112.464 Y143.77 E61.67204
G1 X112.216 Y143.363 E61.68789
G1 X112.033 Y142.924 E61.70371
G1 X111.924 Y142.468 E61.7193
G1 X111.885 Y141.982 E61.73552
G1 X111.885 Y68.018 E64.19557
G1 X111.924 Y67.532 E64.21179
G1 X112.033 Y67.076 E64.22738
G1 X112.216 Y66.637 E64.2432
G1 X112.464 Y66.23 E64.25905
G1 X112.77 Y65.875 E64.27464
G1 X113.125 Y65.569 E64.29023
G1 X113.532 Y65.321 E64.30608
G1 X113.971 Y65.138 E64.3219
G1 X114.427 Y65.029 E64.33749
G1 X114.921 Y64.99 E64.35398
G0 F3600 X184.777 Y67.115
G1 F2400 X182.98 Y65.317 E64.43853
G1 X182.91 Y65.247
G0 F3600 X182.283 Y65.186
G1 F2400 X184.908 Y67.811 E64.562
G1 X184.978 Y67.881
G0 F3600 X184.924 Y68.393
G1 F2400 X181.7 Y65.169 E64.71364
G1 X181.63 Y65.099
G0 F3600 X181.135 Y65.169
G1 F2400 X184.924 Y68.959 E64.89189
G1 X184.994 Y69.029
G0 F3600 X184.924 Y69.524
G1 F2400 X180.569 Y65.169 E65.09674
G1 X180.499 Y65.099
G0 F3600 X180.003 Y65.169
G1 F2400 X184.924 Y70.09 E65.32821
G1 X184.994 Y70.16
G0 F3600 X184.924 Y70.656
G1 F2400 X179.438 Y65.169 E65.58627
G1 X179.368 Y65.099
G0 F3600 X178.872 Y65.169
G1 F2400 X184.924 Y71.221 E65.87094
G1 X184.994 Y71.291
G0 F3600 X184.924 Y71.787
G1 F2400 X178.306 Y65.169 E66.18223
G1 X178.236 Y65.099
G0 F3600 X177.741 Y65.169
G1 F2400 X184.924 Y72.353 E66.52012
G1 X184.994 Y72.423
G0 F3600 X184.924 Y72.918
G1 F2400 X177.175 Y65.169 E66.88461
G1 X177.105 Y65.099
G0 F3600 X176.609 Y65.169
G1 F2400 X184.924 Y73.484 E67.27572
G1 X184.994 Y73.554
G0 F3600 X184.924 Y74.05
G1 F2400 X176.044 Y65.169 E67.69343
G1 X175.974 Y65.099
G0 F3600 X175.478 Y65.169
G1 F2400 X184.924 Y74.616 E68.13777
G1 X184.994 Y74.686
G0 F3600 X184.924 Y75.181
G1 F2400 X174.912 Y65.169 E68.6087
G1 X174.842 Y65.099
G0 F3600 X174.347 Y65.169
G1 F2400 X184.924 Y75.747 E69.10624
G1 X184.994 Y75.817
G0 F3600 X184.924 Y76.313
G1 F2400 X173.781 Y65.169 E69.63039
G1 X173.711 Y65.099
G0 F3600 X173.215 Y65.169
G1 F2400 X184.924 Y76.878 E70.18115
G1 X184.994 Y76.948
G0 F3600 X184.924 Y77.444
G1 F2400 X172.65 Y65.169 E70.7585
G1 X172.58 Y65.099
G0 F3600 X172.084 Y65.169
G1 F2400 X184.924 Y78.01 E71.36248
G1 X184.994 Y78.08
G0 F3600 X184.924 Y78.575
G1 F2400 X171.518 Y65.169 E71.99306
G1 X171.448 Y65.099
G0 F3600 X170.952 Y65.169
G1 F2400 X184.924 Y79.141 E72.65026
G1 X184.994 Y79.211
G0 F3600 X184.924 Y79.707
G1 F2400 X170.387 Y65.169 E73.33406
G1 X170.317 Y65.099
G0 F3600 X169.821 Y65.169
G1 F2400 X184.924 Y80.272 E74.04446
G1 X184.994 Y80.342
G0 F3600 X184.93 Y80.844
G1 F2400 X169.255 Y65.169 E74.78176
G1 X169.185 Y65.099
G0 F3600 X168.69 Y65.169
G1 F2400 X184.934 Y81.414 E75.54585
G1 X185.004 Y81.484
G0 F3600 X184.934 Y81.979
G1 F2400 X168.124 Y65.169 E76.33654
G1 X168.054 Y65.099
G0 F3600 X167.558 Y65.169
G1 F2400 X184.934 Y82.545 E77.15386
G1 X185.004 Y82.615
G0 F3600 X184.934 Y83.111
G1 F2400 X166.993 Y65.169 E77.99777
G1 X166.923 Y65.099
G0 F3600 X166.427 Y65.169
G1 F2400 X179.522 Y78.264 E78.61372
G1 X179.592 Y78.334
G0 F3600 X178.956 Y78.264
G1 F2400 X165.861 Y65.169 E79.22967
G1 X165.791 Y65.099
G0 F3600 X165.296 Y65.169
G1 F2400 X178.391 Y78.264 E79.84561
G1 X178.461 Y78.334
G0 F3600 X177.825 Y78.264
G1 F2400 X164.73 Y65.169 E80.46156
G1 X164.66 Y65.099
G0 F3600 X164.164 Y65.169
G1 F2400 X177.259 Y78.264 E81.07751
G1 X177.329 Y78.334
G0 F3600 X176.693 Y78.264
G1 F2400 X163.599 Y65.169 E81.69344
G1 X163.529 Y65.099
G0 F3600 X163.033 Y65.169
G1 F2400 X176.128 Y78.264 E82.30939
G1 X176.198 Y78.334
G0 F3600 X175.562 Y78.264
G1 F2400 X162.467 Y65.169 E82.92533
G1 X162.397 Y65.099
G0 F3600 X161.901 Y65.169
G1 F2400 X174.996 Y78.264 E83.54128
G1 X175.066 Y78.334
G0 F3600 X174.431 Y78.264
G1 F2400 X161.336 Y65.169 E84.15723
G1 X161.266 Y65.099
G0 F3600 X160.77 Y65.169
G1 F2400 X173.865 Y78.264 E84.77318
G1 X173.935 Y78.334
G0 F3600 X173.299 Y78.264
G1 F2400 X160.204 Y65.169 E85.38913
G1 X160.134 Y65.099
G0 F3600 X159.639 Y65.169
G1 F2400 X172.734 Y78.264 E86.00508
G1 X172.804 Y78.334
G0 F3600 X172.168 Y78.264
G1 F2400 X159.073 Y65.169 E86.62103
G1 X159.003 Y65.099
G0 F3600 X158.507 Y65.169
G1 F2400 X171.602 Y78.264 E87.23697
G1 X171.672 Y78.334
G0 F3600 X171.037 Y78.264
G1 F2400 X157.942 Y65.169 E87.85292
G1 X157.872 Y65.099
G0 F3600 X157.376 Y65.169
G1 F2400 X170.471 Y78.264 E88.46887
G1 X170.541 Y78.334
G0 F3600 X169.905 Y78.264
G1 F2400 X156.81 Y65.169 E89.08482
G1 X156.74 Y65.099
G0 F3600 X156.245 Y65.169
G1 F2400 X169.34 Y78.264 E89.70077
G1 X169.41 Y78.334
G0 F3600 X168.774 Y78.264
G1 F2400 X155.679 Y65.169 E90.31672
G1 X155.609 Y65.099
G0 F3600 X155.113 Y65.169
G1 F2400 X168.208 Y78.264 E90.93267
G1 X168.278 Y78.334
G0 F3600 X167.642 Y78.264
G1 F2400 X154.548 Y65.169 E91.54859
G1 X154.478 Y65.099
G0 F3600 X153.982 Y65.169
G1 F2400 X167.077 Y78.264 E92.16454
G1 X167.147 Y78.334
G0 F3600 X166.511 Y78.264
G1 F2400 X153.416 Y65.169 E92.78049
G1 X153.346 Y65.099
G0 F3600 X152.851 Y65.169
G1 F2400 X165.945 Y78.264 E93.39641
G1 X166.015 Y78.334
G0 F3600 X165.38 Y78.264
G1 F2400 X152.285 Y65.169 E94.01236
G1 X152.215 Y65.099
G0 F3600 X151.719 Y65.169
G1 F2400 X164.814 Y78.264 E94.62831
G1 X164.884 Y78.334
G0 F3600 X164.248 Y78.264
G1 F2400 X151.153 Y65.169 E95.24426
G1 X151.083 Y65.099
G0 F3600 X150.588 Y65.169
G1 F2400 X163.683 Y78.264 E95.86021
G1 X163.753 Y78.334
G0 F3600 X163.117 Y78.264
G1 F2400 X150.022 Y65.169 E96.47616
G1 X149.952 Y65.099
G0 F3600 X149.456 Y65.169
G1 F2400 X162.551 Y78.264 E97.09211
G1 X162.621 Y78.334
G0 F3600 X161.986 Y78.264
G1 F2400 X148.891 Y65.169 E97.70805
G1 X148.821 Y65.099
G0 F3600 X148.325 Y65.169
G1 F2400 X161.42 Y78.264 E98.324
G1 X161.49 Y78.334
G0 F3600 X160.854 Y78.264
G1 F2400 X147.759 Y65.169 E98.93995
G1 X147.689 Y65.099
G0 F3600 X147.194 Y65.169
G1 F2400 X160.289 Y78.264 E99.5559
G1 X160.359 Y78.334
G0 F3600 X159.723 Y78.264
G1 F2400 X146.628 Y65.169 E100.17185
G1 X146.558 Y65.099
G0 F3600 X146.062 Y65.169
G1 F2400 X159.157 Y78.264 E100.7878
G1 X159.227 Y78.334
G0 F3600 X158.592 Y78.264
G1 F2400 X145.497 Y65.169 E101.40375
G1 X145.427 Y65.099
G0 F3600 X144.931 Y65.169
G1 F2400 X158.026 Y78.264 E102.0197
G1 X158.096 Y78.334
G0 F3600 X157.46 Y78.264
G1 F2400 X144.365 Y65.169 E102.63564
G1 X144.295 Y65.099
G0 F3600 X143.8 Y65.169
G1 F2400 X156.894 Y78.264 E103.25157
G1 X156.964 Y78.334
G0 F3600 X156.329 Y78.264
