;FLAVOR:Marlin
;TIME:3549
;Filament used: 2.29274m
;Layer height: 0.2
;Generated with Cura_SteamEngine 3.2.0
M104 S200
M109 S200
M82 ;absolute extrusion mode
; -- START GCODE --
G21                     ;set units to millimetres
G90                     ;set to absolute positioning
M106 S0                 ;set fan speed to zero (turned off)
G28 X0 Y0               ;move to the X/Y origin (Home)
G28 Z0                  ;move to the Z origin (Home)
G1 Z15.0 F1200          ;move Z to position 15.0 mm
G92 E0                  ;zero the extruded length
G1 E20 F200             ;extrude 20mm of feed stock
G92 E0                  ;zero the extruded length again
G1 F7200                ;set feedrate to 120 mm/s
; -- end of START GCODE --
;LAYER_COUNT:36
;LAYER:0
M107
G0 F3600 X105.432 Y73.245 Z0.2
;TYPE:SKIRT
G1 F1200 X106.091 Y72.387 E0.03598
G1 X107.023 Y71.333 E0.08278
G1 X107.575 Y70.769 E0.10903
G1 X108.431 Y70.083 E0.14551
G1 X109.59 Y69.282 E0.19237
G1 X110.262 Y68.867 E0.21864
G1 X111.264 Y68.404 E0.25535
G1 X112.58 Y67.906 E0.30215
G1 X113.332 Y67.664 E0.32843
G1 X114.395 Y67.459 E0.36443
G1 X115.794 Y67.288 E0.41131
G1 X116.74 Y67.23 E0.44283
G1 X126.89 Y67.23 E0.78043
G1 X127.679 Y67.27 E0.8067
G1 X128.459 Y67.389 E0.83294
G1 X129.224 Y67.587 E0.85923
G1 X129.964 Y67.861 E0.88547
G1 X130.673 Y68.209 E0.91174
G1 X131.344 Y68.627 E0.93803
G1 X131.968 Y69.11 E0.96428
G1 X132.405 Y69.515 E0.9841
G1 X133.12 Y70.23 E1.01773
G1 X137.56 Y70.23 E1.1654
G1 X138.275 Y69.515 E1.19903
G1 X138.861 Y68.985 E1.22531
G1 X139.497 Y68.518 E1.25156
G1 X140.177 Y68.117 E1.27781
G1 X140.895 Y67.787 E1.3041
G1 X141.642 Y67.532 E1.33035
G1 X142.411 Y67.353 E1.35661
G1 X143.195 Y67.253 E1.3829
G1 X143.799 Y67.23 E1.403
G1 X180.971 Y67.273 E2.63935
G1 X181.76 Y67.314 E2.66563
G1 X182.371 Y67.401 E2.68615
G1 X183.068 Y67.529 E2.70972
G1 X183.836 Y67.711 E2.73597
G1 X184.418 Y67.905 E2.75638
G1 X185.732 Y68.402 E2.8031
G1 X186.456 Y68.719 E2.82939
G1 X187.406 Y69.28 E2.86609
G1 X188.567 Y70.082 E2.91302
G1 X189.193 Y70.563 E2.93928
G1 X189.977 Y71.333 E2.97583
G1 X190.909 Y72.387 E3.02262
G1 X191.402 Y73.004 E3.04889
G1 X191.97 Y73.924 E3.08485
G1 X192.624 Y75.168 E3.1316
G1 X192.956 Y75.885 E3.15788
G1 X193.294 Y76.935 E3.19456
G1 X193.631 Y78.305 E3.24149
G1 X193.781 Y79.08 E3.26774
G1 X193.857 Y80.114 E3.30223
G1 X193.9 Y86.326 E3.50884
G1 X193.865 Y87.115 E3.53511
G1 X193.751 Y87.896 E3.56136
G1 X193.559 Y88.662 E3.58763
G1 X193.29 Y89.405 E3.61391
G1 X192.947 Y90.116 E3.64017
G1 X192.534 Y90.789 E3.66643
G1 X192.055 Y91.417 E3.6927
G1 X191.615 Y91.895 E3.71431
G1 X190.88 Y92.63 E3.74888
G1 X190.88 Y93.17 E3.76684
G1 X191.615 Y93.905 E3.80141
G1 X192.145 Y94.491 E3.82769
G1 X192.612 Y95.127 E3.85394
G1 X193.013 Y95.807 E3.88019
G1 X193.343 Y96.525 E3.90647
G1 X193.598 Y97.272 E3.93273
G1 X193.777 Y98.041 E3.95899
G1 X193.877 Y98.825 E3.98528
G1 X193.9 Y99.431 E4.00545
G1 X193.857 Y129.843 E5.01695
G1 X193.816 Y130.632 E5.04323
G1 X193.632 Y131.692 E5.07901
G1 X193.296 Y133.06 E5.12587
G1 X193.069 Y133.817 E5.15215
G1 X192.625 Y134.829 E5.18891
G1 X191.97 Y136.075 E5.23573
G1 X191.568 Y136.755 E5.262
G1 X190.909 Y137.613 E5.29798
G1 X189.977 Y138.667 E5.34478
G1 X189.425 Y139.231 E5.37103
G1 X188.569 Y139.917 E5.40751
G1 X187.41 Y140.718 E5.45437
G1 X186.738 Y141.133 E5.48064
G1 X185.736 Y141.596 E5.51735
G1 X184.42 Y142.094 E5.56415
G1 X183.668 Y142.336 E5.59043
G1 X182.605 Y142.541 E5.62644
G1 X181.206 Y142.712 E5.67331
G1 X180.255 Y142.77 E5.705
G1 X116.033 Y142.727 E7.84103
G1 X115.244 Y142.686 E7.86731
G1 X114.175 Y142.501 E7.9034
G1 X112.805 Y142.164 E7.95032
G1 X112.049 Y141.937 E7.97657
G1 X111.038 Y141.494 E8.01329
G1 X109.794 Y140.84 E8.06003
G1 X109.115 Y140.438 E8.08628
G1 X108.256 Y139.779 E8.12229
G1 X107.2 Y138.845 E8.16918
G1 X106.636 Y138.292 E8.19545
G1 X105.949 Y137.433 E8.23203
G1 X105.149 Y136.274 E8.27887
G1 X104.734 Y135.602 E8.30514
G1 X104.272 Y134.602 E8.34178
G1 X103.775 Y133.288 E8.3885
G1 X103.534 Y132.537 E8.41474
G1 X103.329 Y131.476 E8.45068
G1 X103.158 Y130.078 E8.49752
G1 X103.1 Y129.131 E8.52908
G1 X103.1 Y127.31 E8.58965
G1 X103.14 Y126.521 E8.61592
G1 X103.259 Y125.741 E8.64217
G1 X103.457 Y124.976 E8.66845
G1 X103.731 Y124.236 E8.69469
G1 X104.079 Y123.527 E8.72096
G1 X104.497 Y122.856 E8.74726
G1 X104.98 Y122.232 E8.7735
G1 X105.523 Y121.659 E8.79976
G1 X106.1 Y121.163 E8.82506
G1 X106.1 Y103.609 E9.40891
G1 X105.237 Y102.698 E9.45065
G1 X104.724 Y102.098 E9.47691
G1 X104.274 Y101.449 E9.50317
G1 X103.892 Y100.758 E9.52943
G1 X103.581 Y100.032 E9.5557
G1 X103.346 Y99.278 E9.58197
G1 X103.188 Y98.504 E9.60824
G1 X103.109 Y97.719 E9.63449
G1 X103.1 Y97.314 E9.64796
G1 X103.143 Y80.148 E10.2189
G1 X103.185 Y79.36 E10.24515
G1 X103.368 Y78.308 E10.28067
G1 X103.704 Y76.94 E10.32752
G1 X103.931 Y76.183 E10.3538
G1 X104.375 Y75.171 E10.39056
G1 X105.03 Y73.925 E10.43738
G1 X105.432 Y73.245 E10.46365
G0 F3600 X105.777 Y73.449
G1 F1200 X106.39 Y72.652 E10.4971
G1 X107.322 Y71.598 E10.54389
G1 X107.861 Y71.049 E10.56948
G1 X108.659 Y70.412 E10.60344
G1 X109.818 Y69.611 E10.6503
G1 X110.472 Y69.208 E10.67585
G1 X111.406 Y68.778 E10.71005
G1 X112.722 Y68.28 E10.75685
G1 X113.454 Y68.046 E10.78241
G1 X114.443 Y67.856 E10.8159
G1 X115.842 Y67.685 E10.86278
G1 X116.74 Y67.63 E10.89271
G1 X126.89 Y67.63 E11.2303
G1 X127.658 Y67.67 E11.25587
G1 X128.418 Y67.789 E11.28146
G1 X129.161 Y67.987 E11.30703
G1 X129.88 Y68.261 E11.33263
G1 X130.566 Y68.608 E11.3582
G1 X131.213 Y69.024 E11.38378
G1 X131.813 Y69.505 E11.40936
G1 X132.123 Y69.797 E11.42352
G1 X132.956 Y70.63 E11.4627
G1 X137.724 Y70.63 E11.62129
G1 X138.557 Y69.797 E11.66047
G1 X139.129 Y69.283 E11.68605
G1 X139.751 Y68.83 E11.71164
G1 X140.416 Y68.444 E11.73721
G1 X141.118 Y68.129 E11.7628
G1 X141.849 Y67.889 E11.78839
G1 X142.6 Y67.726 E11.81395
G1 X143.365 Y67.642 E11.83955
G1 X143.799 Y67.63 E11.85399
G1 X180.971 Y67.673 E13.09034
G1 X181.739 Y67.714 E13.11592
G1 X182.299 Y67.795 E13.13474
G1 X182.996 Y67.923 E13.15831
G1 X183.744 Y68.101 E13.18388
G1 X184.277 Y68.28 E13.20258
G1 X185.591 Y68.777 E13.24931
G1 X186.295 Y69.086 E13.27488
G1 X187.179 Y69.609 E13.30904
G1 X188.34 Y70.411 E13.35597
G1 X188.949 Y70.881 E13.38156
G1 X189.678 Y71.598 E13.41557
G1 X190.61 Y72.652 E13.46236
G1 X191.088 Y73.254 E13.48793
G1 X191.616 Y74.111 E13.52141
G1 X192.27 Y75.355 E13.56816
G1 X192.592 Y76.053 E13.59372
G1 X192.906 Y77.03 E13.62785
G1 X193.243 Y78.4 E13.67478
G1 X193.387 Y79.156 E13.70038
G1 X193.457 Y80.117 E13.73242
G1 X193.5 Y86.329 E13.93904
G1 X193.465 Y87.097 E13.96461
G1 X193.351 Y87.858 E13.9902
G1 X193.158 Y88.602 E14.01577
G1 X192.89 Y89.323 E14.04135
G1 X192.547 Y90.012 E14.06695
G1 X192.136 Y90.662 E14.09253
G1 X191.659 Y91.265 E14.1181
G1 X191.333 Y91.613 E14.13396
G1 X190.48 Y92.466 E14.17408
G1 X190.48 Y93.334 E14.20295
G1 X191.333 Y94.187 E14.24308
G1 X191.847 Y94.759 E14.26865
G1 X192.3 Y95.381 E14.29425
G1 X192.686 Y96.046 E14.31982
G1 X193.001 Y96.748 E14.34541
G1 X193.241 Y97.479 E14.371
G1 X193.404 Y98.23 E14.39656
G1 X193.488 Y98.995 E14.42216
G1 X193.5 Y99.43 E14.43663
G1 X193.457 Y129.842 E15.44814
G1 X193.416 Y130.611 E15.47375
G1 X193.243 Y131.597 E15.50705
G1 X192.907 Y132.965 E15.5539
G1 X192.685 Y133.701 E15.57947
G1 X192.271 Y134.643 E15.61369
G1 X191.616 Y135.889 E15.66051
G1 X191.223 Y136.551 E15.68612
G1 X190.61 Y137.348 E15.71956
G1 X189.678 Y138.402 E15.76636
G1 X189.139 Y138.951 E15.79195
G1 X188.341 Y139.588 E15.82591
G1 X187.182 Y140.389 E15.87277
G1 X186.528 Y140.792 E15.89832
G1 X185.594 Y141.222 E15.93252
G1 X184.278 Y141.72 E15.97932
G1 X183.546 Y141.954 E16.00488
G1 X182.557 Y142.144 E16.03837
G1 X181.158 Y142.315 E16.08525
G1 X180.255 Y142.37 E16.11534
G1 X116.033 Y142.327 E18.25137
G1 X115.265 Y142.287 E18.27695
G1 X114.27 Y142.113 E18.31055
G1 X112.9 Y141.776 E18.35747
G1 X112.164 Y141.553 E18.38305
G1 X111.225 Y141.14 E18.41717
G1 X109.981 Y140.486 E18.46391
G1 X109.319 Y140.093 E18.48952
G1 X108.521 Y139.479 E18.52301
G1 X107.465 Y138.545 E18.5699
G1 X106.917 Y138.006 E18.59546
G1 X106.278 Y137.206 E18.62952
G1 X105.478 Y136.047 E18.67636
G1 X105.074 Y135.392 E18.70195
G1 X104.647 Y134.461 E18.73602
G1 X104.15 Y133.147 E18.78274
G1 X103.915 Y132.414 E18.80835
G1 X103.726 Y131.427 E18.84177
G1 X103.555 Y130.029 E18.88861
G1 X103.5 Y129.131 E18.91854
G1 X103.5 Y127.31 E18.9791
G1 X103.54 Y126.542 E19.00468
G1 X103.659 Y125.782 E19.03027
G1 X103.857 Y125.039 E19.05584
G1 X104.131 Y124.32 E19.08144
G1 X104.478 Y123.634 E19.107
G1 X104.894 Y122.987 E19.13259
G1 X105.375 Y122.387 E19.15817
G1 X105.916 Y121.84 E19.18375
G1 X106.5 Y121.361 E19.20888
G1 X106.5 Y103.449 E19.80463
G1 X105.528 Y102.423 E19.85164
G1 X105.028 Y101.838 E19.87723
G1 X104.593 Y101.204 E19.90281
G1 X104.225 Y100.529 E19.92838
G1 X103.93 Y99.818 E19.95398
G1 X103.709 Y99.081 E19.97957
G1 X103.567 Y98.326 E20.00512
G1 X103.5 Y97.315 E20.03882
G1 X103.543 Y80.149 E20.60977
G1 X103.585 Y79.381 E20.63535
G1 X103.757 Y78.403 E20.66838
G1 X104.093 Y77.035 E20.71523
G1 X104.315 Y76.299 E20.7408
G1 X104.729 Y75.357 E20.77502
G1 X105.384 Y74.111 E20.82184
G1 X105.777 Y73.449 E20.84745
G0 F3600 X106.121 Y73.654
G1 F1200 X106.69 Y72.917 E20.87842
G1 X107.622 Y71.863 E20.92521
G1 X108.147 Y71.33 E20.95009
G1 X108.886 Y70.741 E20.98153
G1 X110.045 Y69.94 E21.02838
G1 X110.682 Y69.549 E21.05324
G1 X111.548 Y69.152 E21.08493
G1 X112.864 Y68.654 E21.13173
G1 X113.576 Y68.427 E21.15658
G1 X114.492 Y68.253 E21.1876
G1 X115.891 Y68.082 E21.23447
G1 X116.74 Y68.03 E21.26276
G1 X126.89 Y68.03 E21.60035
G1 X127.637 Y68.07 E21.62523
G1 X128.375 Y68.189 E21.6501
G1 X129.097 Y68.387 E21.675
G1 X129.793 Y68.66 E21.69986
G1 X130.456 Y69.007 E21.72475
G1 X131.079 Y69.422 E21.74965
G1 X131.84 Y70.08 E21.78311
G1 X132.79 Y71.03 E21.8278
G1 X137.89 Y71.03 E21.99742
G1 X138.84 Y70.08 E22.04211
G1 X139.397 Y69.58 E22.067
G1 X140.003 Y69.143 E22.09185
G1 X140.653 Y68.772 E22.11675
G1 X141.339 Y68.473 E22.14164
G1 X142.053 Y68.249 E22.16652
G1 X142.786 Y68.102 E22.19139
G1 X143.798 Y68.03 E22.22513
G1 X180.97 Y68.073 E23.46148
G1 X181.717 Y68.114 E23.48636
G1 X182.226 Y68.188 E23.50347
G1 X182.923 Y68.316 E23.52704
G1 X183.651 Y68.49 E23.55194
G1 X184.135 Y68.654 E23.56893
G1 X185.449 Y69.151 E23.61566
G1 X186.134 Y69.452 E23.64054
G1 X186.952 Y69.939 E23.67221
G1 X188.113 Y70.741 E23.71914
G1 X188.704 Y71.198 E23.74399
G1 X189.378 Y71.863 E23.77548
G1 X190.31 Y72.917 E23.82228
G1 X190.775 Y73.503 E23.84716
G1 X191.262 Y74.297 E23.87814
G1 X191.916 Y75.541 E23.92488
G1 X192.228 Y76.22 E23.94974
G1 X192.517 Y77.126 E23.98137
G1 X192.854 Y78.496 E24.02829
G1 X192.994 Y79.231 E24.05318
G1 X193.057 Y80.12 E24.08282
G1 X193.1 Y86.332 E24.28944
G1 X193.065 Y87.079 E24.31431
G1 X192.951 Y87.818 E24.33918
G1 X192.758 Y88.541 E24.36407
G1 X192.489 Y89.239 E24.38895
G1 X192.148 Y89.905 E24.41383
G1 X191.737 Y90.53 E24.43871
G1 X191.05 Y91.33 E24.47379
G1 X190.08 Y92.3 E24.51941
G1 X190.08 Y93.5 E24.55932
G1 X191.05 Y94.47 E24.60495
G1 X191.55 Y95.027 E24.62984
G1 X191.987 Y95.633 E24.65469
G1 X192.358 Y96.283 E24.67959
G1 X192.657 Y96.969 E24.70448
G1 X192.881 Y97.683 E24.72937
G1 X193.028 Y98.416 E24.75423
G1 X193.1 Y99.43 E24.78804
G1 X193.057 Y129.842 E25.79955
G1 X193.016 Y130.589 E25.82443
G1 X192.855 Y131.502 E25.85527
G1 X192.519 Y132.87 E25.90212
G1 X192.302 Y133.586 E25.927
G1 X191.917 Y134.457 E25.95868
G1 X191.262 Y135.703 E26.0055
G1 X190.879 Y136.346 E26.03039
G1 X190.31 Y137.083 E26.06136
G1 X189.378 Y138.137 E26.10815
G1 X188.853 Y138.67 E26.13304
G1 X188.114 Y139.259 E26.16447
G1 X186.955 Y140.06 E26.21133
G1 X186.318 Y140.451 E26.23619
G1 X185.452 Y140.848 E26.26787
G1 X184.136 Y141.346 E26.31467
G1 X183.424 Y141.573 E26.33953
G1 X182.508 Y141.747 E26.37054
G1 X181.109 Y141.918 E26.41741
G1 X180.255 Y141.97 E26.44587
G1 X116.033 Y141.927 E28.5819
G1 X115.286 Y141.887 E28.60678
G1 X114.366 Y141.724 E28.63786
G1 X112.996 Y141.387 E28.68479
G1 X112.28 Y141.17 E28.70967
G1 X111.411 Y140.786 E28.74127
G1 X110.167 Y140.132 E28.78801
G1 X109.524 Y139.749 E28.81291
G1 X108.786 Y139.179 E28.84392
G1 X107.73 Y138.245 E28.89081
G1 X107.197 Y137.721 E28.91567
G1 X106.607 Y136.978 E28.94723
G1 X105.807 Y135.819 E28.99407
G1 X105.416 Y135.182 E29.01893
G1 X105.021 Y134.319 E29.05049
G1 X104.524 Y133.005 E29.09722
G1 X104.297 Y132.293 E29.12207
G1 X104.123 Y131.379 E29.15302
G1 X103.952 Y129.981 E29.19986
G1 X103.9 Y129.131 E29.22819
G1 X103.9 Y127.31 E29.28876
G1 X103.94 Y126.563 E29.31364
G1 X104.059 Y125.825 E29.3385
G1 X104.257 Y125.103 E29.3634
G1 X104.53 Y124.407 E29.38827
G1 X104.877 Y123.744 E29.41315
G1 X105.292 Y123.121 E29.43805
G1 X105.771 Y122.547 E29.46292
G1 X106.308 Y122.026 E29.4878
G1 X106.898 Y121.567 E29.51267
G1 X106.9 Y121.566 E29.51274
G1 X106.9 Y103.29 E30.1206
G1 X105.818 Y102.148 E30.17293
G1 X105.333 Y101.578 E30.19782
G1 X104.912 Y100.96 E30.22269
G1 X104.56 Y100.3 E30.24757
G1 X104.279 Y99.607 E30.27244
G1 X104.074 Y98.887 E30.29734
G1 X103.948 Y98.15 E30.32221
G1 X103.9 Y97.316 E30.34999
G1 X103.943 Y80.15 E30.92094
G1 X103.985 Y79.404 E30.94579
G1 X104.145 Y78.498 E30.97639
G1 X104.481 Y77.13 E31.02324
G1 X104.698 Y76.414 E31.04813
G1 X105.083 Y75.543 E31.0798
G1 X105.738 Y74.297 E31.12662
G1 X106.121 Y73.654 E31.15151
G0 F3600 X106.465 Y73.86
G1 F1200 X106.99 Y73.182 E31.18003
G1 X107.922 Y72.128 E31.22683
G1 X108.432 Y71.611 E31.25098
G1 X109.114 Y71.07 E31.27993
G1 X110.273 Y70.269 E31.32679
G1 X110.892 Y69.89 E31.35093
G1 X111.689 Y69.526 E31.38008
G1 X113.005 Y69.028 E31.42688
G1 X113.698 Y68.809 E31.45105
G1 X114.54 Y68.65 E31.47955
G1 X115.939 Y68.479 E31.52643
G1 X116.74 Y68.43 E31.55312
G1 X126.89 Y68.43 E31.89071
G1 X127.615 Y68.47 E31.91486
G1 X128.332 Y68.589 E31.93903
G1 X129.031 Y68.787 E31.9632
G1 X129.704 Y69.06 E31.98735
G1 X130.343 Y69.405 E32.0115
G1 X130.94 Y69.819 E32.03567
G1 X131.557 Y70.363 E32.06303
G1 X132.624 Y71.43 E32.11321
G1 X138.056 Y71.43 E32.29388
G1 X139.123 Y70.363 E32.34407
G1 X139.664 Y69.879 E32.36822
G1 X140.255 Y69.456 E32.39239
G1 X140.889 Y69.102 E32.41654
G1 X141.558 Y68.819 E32.4407
G1 X142.254 Y68.611 E32.46486
G1 X142.969 Y68.481 E32.48903
G1 X143.798 Y68.43 E32.51666
G1 X180.97 Y68.473 E33.753
G1 X181.695 Y68.514 E33.77715
G1 X182.154 Y68.582 E33.79259
G1 X182.851 Y68.71 E33.81616
G1 X183.557 Y68.88 E33.84031
G1 X183.994 Y69.028 E33.85566
G1 X185.308 Y69.525 E33.90238
G1 X185.972 Y69.819 E33.92653
G1 X186.724 Y70.268 E33.95567
G1 X187.885 Y71.07 E34.0026
G1 X188.459 Y71.515 E34.02675
G1 X189.078 Y72.128 E34.05573
G1 X190.01 Y73.182 E34.10253
G1 X190.461 Y73.752 E34.1267
G1 X190.908 Y74.483 E34.1552
G1 X191.562 Y75.727 E34.20194
G1 X191.864 Y76.387 E34.22608
G1 X192.129 Y77.221 E34.25519
G1 X192.466 Y78.591 E34.30211
G1 X192.6 Y79.305 E34.32628
G1 X192.657 Y80.122 E34.35352
G1 X192.7 Y86.334 E34.56013
G1 X192.665 Y87.06 E34.58431
G1 X192.55 Y87.777 E34.60846
G1 X192.358 Y88.477 E34.6326
G1 X192.089 Y89.152 E34.65677
G1 X191.749 Y89.794 E34.68093
G1 X191.339 Y90.394 E34.7051
G1 X190.767 Y91.047 E34.73398
G1 X189.68 Y92.134 E34.78511
G1 X189.68 Y93.666 E34.83606
G1 X190.767 Y94.753 E34.88719
G1 X191.251 Y95.294 E34.91133
G1 X191.674 Y95.885 E34.93551
G1 X192.028 Y96.519 E34.95966
G1 X192.311 Y97.188 E34.98382
G1 X192.519 Y97.884 E35.00798
G1 X192.649 Y98.599 E35.03215
G1 X192.7 Y99.429 E35.05981
G1 X192.657 Y129.841 E36.07131
G1 X192.616 Y130.567 E36.0955
G1 X192.467 Y131.406 E36.12384
G1 X192.131 Y132.774 E36.17069
G1 X191.919 Y133.469 E36.19486
G1 X191.563 Y134.271 E36.22405
G1 X190.908 Y135.517 E36.27087
G1 X190.535 Y136.14 E36.29502
G1 X190.01 Y136.818 E36.32354
G1 X189.078 Y137.872 E36.37033
G1 X188.568 Y138.389 E36.39449
G1 X187.886 Y138.93 E36.42344
G1 X186.727 Y139.731 E36.4703
G1 X186.108 Y140.11 E36.49444
G1 X185.311 Y140.474 E36.52358
G1 X183.995 Y140.972 E36.57038
G1 X183.302 Y141.191 E36.59455
G1 X182.46 Y141.35 E36.62305
G1 X181.061 Y141.521 E36.66993
G1 X180.256 Y141.57 E36.69676
G1 X116.034 Y141.527 E38.83279
G1 X115.308 Y141.487 E38.85697
G1 X114.461 Y141.336 E38.88559
