;FLAVOR:Marlin
;TIME:9414
;Filament used: 11.8611m
;Layer height: 0.2
;Generated with Cura_SteamEngine 3.3.1
M104 S200
M109 S200
M82 ;absolute extrusion mode
; -- START GCODE --
G21                     ;set units to millimetres
G90                     ;set to absolute positioning
M106 S0                 ;set fan speed to zero (turned off)
G28 X0 Y0               ;move to the X/Y origin (Home)
G28 Z0                  ;move to the Z origin (Home)
G1 Z15.0 F1200          ;move Z to position 15.0 mm
G92 E0                  ;zero the extruded length
G1 E20 F200             ;extrude 20mm of feed stock
G92 E0                  ;zero the extruded length again
G1 F7200                ;set feedrate to 120 mm/s
; -- end of START GCODE --
G92 E0
G1 F2700 E-6.5
;LAYER_COUNT:15
;LAYER:0
M107
G0 F3600 X53.848 Y55.978 Z0.2
;TYPE:SKIRT
G1 F2700 E0
G1 F2400 X54.707 Y55.187 E0.03884
G1 X55.128 Y54.854 E0.05669
G1 X55.402 Y54.685 E0.0674
G1 X56.419 Y54.122 E0.10606
G1 X56.856 Y53.918 E0.1221
G1 X76.881 Y46.114 E0.83693
G1 X77.366 Y45.963 E0.85382
G1 X78.411 Y45.718 E0.88952
G1 X79.024 Y45.629 E0.91012
G1 X81.142 Y45.506 E0.98069
G1 X81.374 Y45.5 E0.98841
G1 X90.533 Y45.559 E1.29304
G1 X90.999 Y45.592 E1.30858
G1 X91.612 Y45.676 E1.32916
G1 X92.136 Y45.789 E1.34699
G1 X92.433 Y45.89 E1.35742
G1 X98.458 Y48.244 E1.57257
G1 X103.653 Y49.984 E1.75479
G1 X108.907 Y51.419 E1.93594
G1 X114.292 Y52.568 E2.11907
G1 X116.901 Y53.007 E2.20707
G1 X122.333 Y53.691 E2.38916
G1 X127.783 Y54.065 E2.57086
G1 X133.244 Y54.131 E2.75251
G1 X138.664 Y53.889 E2.93296
G1 X144.115 Y53.336 E3.11519
G1 X149.51 Y52.478 E3.29688
G1 X152.145 Y51.944 E3.3863
G1 X154.774 Y51.333 E3.47607
G1 X160.067 Y49.864 E3.65877
G1 X165.247 Y48.105 E3.84072
G1 X168.784 Y46.712 E3.96716
G1 X169.616 Y46.365 E3.99714
G1 X169.95 Y46.245 E4.00895
G1 X171.08 Y45.9 E4.04824
G1 X171.603 Y45.782 E4.06608
G1 X171.911 Y45.75 E4.07637
G1 X173.037 Y45.681 E4.1139
G1 X173.608 Y45.691 E4.13289
G1 X179.905 Y46.308 E4.34333
G1 X180.114 Y46.335 E4.35034
G1 X184.504 Y47.026 E4.49815
G1 X184.711 Y47.065 E4.50516
G1 X190.041 Y48.228 E4.6866
G1 X190.286 Y48.29 E4.69501
G1 X196.474 Y50.102 E4.90947
G1 X196.683 Y50.17 E4.91678
G1 X201.741 Y51.993 E5.0956
G1 X201.831 Y52.027 E5.0988
G1 X222.842 Y60.244 E5.84917
G1 X223.099 Y60.357 E5.85851
G1 X224.723 Y61.143 E5.91851
G1 X225.187 Y61.412 E5.93635
G1 X225.534 Y61.681 E5.95096
G1 X226.455 Y62.492 E5.99177
G1 X226.819 Y62.863 E6.00906
G1 X228.009 Y64.263 E6.07017
G1 X231.718 Y68.326 E6.25315
G1 X235.613 Y72.135 E6.43434
G1 X239.733 Y75.733 E6.61627
G1 X240.932 Y76.68 E6.66709
G1 X241.035 Y76.765 E6.67153
G1 X242.973 Y78.416 E6.75621
G1 X243.354 Y78.793 E6.77404
G1 X243.586 Y79.089 E6.78655
G1 X244.252 Y80.039 E6.82513
G1 X244.526 Y80.5 E6.84297
G1 X244.658 Y80.798 E6.85381
G1 X245.085 Y81.893 E6.8929
G1 X245.242 Y82.406 E6.91075
G1 X245.3 Y82.727 E6.9216
G1 X245.453 Y83.88 E6.96028
G1 X245.484 Y84.353 E6.97605
G1 X245.5 Y124.878 E8.32391
G1 X245.489 Y125.158 E8.33323
G1 X245.349 Y126.961 E8.39338
G1 X245.268 Y127.491 E8.41121
G1 X245.145 Y127.908 E8.42568
G1 X244.745 Y129.012 E8.46473
G1 X244.525 Y129.502 E8.4826
G1 X244.357 Y129.781 E8.49343
G1 X243.71 Y130.753 E8.53226
G1 X243.38 Y131.176 E8.55011
G1 X243.149 Y131.409 E8.56102
G1 X242.249 Y132.236 E8.60167
G1 X242.062 Y132.396 E8.60986
G1 X239.724 Y134.266 E8.70943
G1 X235.584 Y137.884 E8.8923
G1 X231.694 Y141.692 E9.07336
G1 X229.837 Y143.67 E9.1636
G1 X226.855 Y147.093 E9.31459
G1 X226.579 Y147.377 E9.32776
G1 X225.689 Y148.197 E9.36801
G1 X225.269 Y148.53 E9.38584
G1 X224.994 Y148.699 E9.39657
G1 X223.977 Y149.262 E9.43524
G1 X223.543 Y149.465 E9.45117
G1 X200.384 Y158.512 E10.27813
G1 X200.28 Y158.551 E10.28183
G1 X196.536 Y159.882 E10.41399
G1 X196.35 Y159.942 E10.42049
G1 X191.116 Y161.489 E10.60202
G1 X190.898 Y161.546 E10.60951
G1 X185.561 Y162.766 E10.7916
G1 X185.34 Y162.81 E10.79909
G1 X180.014 Y163.681 E10.97859
G1 X179.784 Y163.711 E10.9863
G1 X173.683 Y164.308 E11.19019
G1 X173.15 Y164.32 E11.20793
G1 X172.006 Y164.262 E11.24602
G1 X171.474 Y164.195 E11.26386
G1 X171.176 Y164.122 E11.27406
G1 X170.046 Y163.791 E11.31323
G1 X169.721 Y163.678 E11.32467
G1 X165.539 Y162.005 E11.47448
G1 X160.363 Y160.228 E11.6565
G1 X155.091 Y158.746 E11.83864
G1 X152.403 Y158.111 E11.93051
G1 X149.836 Y157.584 E12.01767
G1 X144.387 Y156.699 E12.20128
G1 X138.993 Y156.136 E12.38165
G1 X133.535 Y155.875 E12.5634
G1 X128.076 Y155.923 E12.74497
G1 X122.644 Y156.279 E12.92603
G1 X117.241 Y156.941 E13.10708
G1 X111.827 Y157.919 E13.29006
G1 X109.227 Y158.503 E13.37869
G1 X106.592 Y159.173 E13.46912
G1 X101.344 Y160.748 E13.65136
G1 X96.14 Y162.638 E13.83551
G1 X92.362 Y164.123 E13.97052
G1 X91.85 Y164.282 E13.98835
G1 X91.306 Y164.364 E14.00665
G1 X89.561 Y164.491 E14.06485
G1 X89.276 Y164.5 E14.07433
G1 X79.603 Y164.436 E14.39606
G1 X79.003 Y164.381 E14.4161
G1 X78.032 Y164.21 E14.44889
G1 X77.606 Y164.108 E14.46346
G1 X76.737 Y163.843 E14.49368
G1 X76.479 Y163.754 E14.50276
G1 X57.555 Y156.373 E15.17835
G1 X57.293 Y156.259 E15.18786
G1 X55.671 Y155.473 E15.2478
G1 X55.207 Y155.204 E15.26564
G1 X54.867 Y154.94 E15.27996
G1 X53.989 Y154.17 E15.3188
G1 X53.614 Y153.787 E15.33663
G1 X53.413 Y153.526 E15.34759
G1 X52.746 Y152.572 E15.3863
G1 X52.472 Y152.111 E15.40414
G1 X52.342 Y151.816 E15.41486
G1 X51.914 Y150.718 E15.45406
G1 X51.757 Y150.206 E15.47187
G1 X51.699 Y149.883 E15.48279
G1 X51.547 Y148.734 E15.52133
G1 X51.516 Y148.264 E15.537
G1 X51.512 Y139.483 E15.82906
G1 X51.536 Y139.066 E15.84295
G1 X51.662 Y137.981 E15.87928
G1 X51.808 Y137.303 E15.90235
G1 X53.62 Y131.615 E16.1009
G1 X54.994 Y126.269 E16.28449
G1 X55.538 Y123.691 E16.37212
G1 X56.447 Y118.283 E16.55451
G1 X57.045 Y112.872 E16.73558
G1 X57.336 Y107.419 E16.9172
G1 X57.319 Y101.975 E17.09827
G1 X56.993 Y96.525 E17.27987
G1 X56.358 Y91.097 E17.46163
G1 X55.42 Y85.724 E17.64304
G1 X54.845 Y83.094 E17.73258
G1 X54.193 Y80.468 E17.82258
G1 X51.785 Y72.601 E18.09622
G1 X51.637 Y71.813 E18.12288
G1 X51.51 Y70.101 E18.17998
G1 X51.5 Y69.831 E18.18897
G1 X51.509 Y61.855 E18.45425
G1 X51.532 Y61.454 E18.46761
G1 X51.663 Y60.297 E18.50634
G1 X51.763 Y59.77 E18.52418
G1 X51.855 Y59.476 E18.53442
G1 X52.255 Y58.372 E18.57348
G1 X52.475 Y57.882 E18.59134
G1 X52.643 Y57.603 E18.60218
G1 X53.29 Y56.631 E18.64101
G1 X53.62 Y56.208 E18.65886
G1 X53.848 Y55.978 E18.66963
G0 F3600 X54.119 Y56.272
G1 F2400 X54.978 Y55.481 E18.70847
G1 X55.376 Y55.169 E18.72529
G1 X55.596 Y55.035 E18.73385
G1 X56.613 Y54.472 E18.77252
G1 X57.001 Y54.29 E18.78677
G1 X77.026 Y46.486 E19.5016
G1 X77.458 Y46.352 E19.51664
G1 X78.503 Y46.107 E19.55234
G1 X79.047 Y46.028 E19.57062
G1 X81.165 Y45.905 E19.64119
G1 X81.372 Y45.9 E19.64807
G1 X90.531 Y45.959 E19.95271
G1 X90.944 Y45.989 E19.96648
G1 X91.557 Y46.073 E19.98706
G1 X92.288 Y46.262 E20.01217
G1 X98.348 Y48.63 E20.22857
G1 X103.526 Y50.364 E20.41019
G1 X108.807 Y51.806 E20.59227
G1 X114.212 Y52.959 E20.77608
G1 X116.858 Y53.405 E20.86533
G1 X122.308 Y54.091 E21.04803
G1 X127.752 Y54.465 E21.22953
G1 X133.238 Y54.531 E21.412
G1 X138.704 Y54.287 E21.59398
G1 X144.167 Y53.733 E21.77662
G1 X149.583 Y52.872 E21.95902
G1 X152.203 Y52.341 E22.04793
G1 X154.902 Y51.713 E22.1401
G1 X160.181 Y50.248 E22.32231
G1 X165.396 Y48.477 E22.50549
G1 X168.894 Y47.099 E22.63054
G1 X169.77 Y46.734 E22.6621
G1 X170.067 Y46.627 E22.6726
G1 X171.197 Y46.282 E22.7119
G1 X171.935 Y46.149 E22.73684
G1 X173.061 Y46.08 E22.77436
G1 X173.569 Y46.089 E22.79126
G1 X179.866 Y46.706 E23.0017
G1 X180.052 Y46.73 E23.00794
G1 X184.442 Y47.421 E23.15575
G1 X184.626 Y47.456 E23.16198
G1 X189.956 Y48.619 E23.34343
G1 X190.173 Y48.674 E23.35087
G1 X196.361 Y50.486 E23.56533
G1 X196.547 Y50.547 E23.57184
G1 X201.605 Y52.37 E23.75066
G1 X201.686 Y52.4 E23.75353
G1 X222.697 Y60.617 E24.5039
G1 X222.925 Y60.717 E24.51218
G1 X224.549 Y61.503 E24.57219
G1 X224.985 Y61.758 E24.58899
G1 X225.27 Y61.981 E24.60103
G1 X226.191 Y62.792 E24.64184
G1 X226.514 Y63.122 E24.6572
G1 X227.718 Y64.539 E24.71905
G1 X231.425 Y68.6 E24.90193
G1 X235.334 Y72.423 E25.08378
G1 X239.484 Y76.046 E25.26701
G1 X240.684 Y76.994 E25.31788
G1 X240.775 Y77.069 E25.3218
G1 X242.713 Y78.72 E25.40648
G1 X243.071 Y79.077 E25.42329
G1 X243.258 Y79.319 E25.43346
G1 X243.924 Y80.269 E25.47205
G1 X244.181 Y80.705 E25.48889
G1 X244.285 Y80.943 E25.49753
G1 X244.712 Y82.038 E25.53662
G1 X244.858 Y82.522 E25.55343
G1 X244.903 Y82.78 E25.56214
G1 X245.056 Y83.933 E25.60083
G1 X245.084 Y84.353 E25.61483
G1 X245.1 Y124.878 E26.96269
G1 X245.09 Y125.127 E26.97098
G1 X244.95 Y126.93 E27.03113
G1 X244.872 Y127.429 E27.04793
G1 X244.769 Y127.772 E27.05984
G1 X244.369 Y128.876 E27.0989
G1 X244.159 Y129.336 E27.11571
G1 X244.024 Y129.559 E27.12438
G1 X243.377 Y130.531 E27.16322
G1 X243.064 Y130.929 E27.18006
G1 X242.878 Y131.114 E27.18879
G1 X241.978 Y131.941 E27.22944
G1 X241.812 Y132.084 E27.23673
G1 X239.469 Y133.958 E27.33652
G1 X235.325 Y137.58 E27.51957
G1 X231.382 Y141.44 E27.7031
G1 X229.551 Y143.389 E27.79204
G1 X226.553 Y146.831 E27.94386
G1 X226.308 Y147.082 E27.95552
G1 X225.418 Y147.902 E27.99577
G1 X225.021 Y148.215 E28.01259
G1 X224.8 Y148.349 E28.02119
G1 X223.783 Y148.912 E28.05985
G1 X223.397 Y149.093 E28.07403
G1 X200.238 Y158.14 E28.90099
G1 X200.146 Y158.174 E28.90425
G1 X196.402 Y159.505 E29.03641
G1 X196.237 Y159.559 E29.04218
G1 X191.003 Y161.106 E29.22371
G1 X190.809 Y161.157 E29.23038
G1 X185.472 Y162.377 E29.41247
G1 X185.275 Y162.415 E29.41915
G1 X179.949 Y163.286 E29.59864
G1 X179.745 Y163.313 E29.60549
G1 X173.644 Y163.91 E29.80938
G1 X173.17 Y163.921 E29.82515
G1 X172.026 Y163.863 E29.86324
G1 X171.288 Y163.738 E29.88814
G1 X170.158 Y163.407 E29.9273
G1 X169.869 Y163.307 E29.93747
G1 X165.672 Y161.628 E30.08782
G1 X160.479 Y159.846 E30.27043
G1 X155.172 Y158.353 E30.45379
G1 X152.542 Y157.732 E30.54367
G1 X149.884 Y157.186 E30.63392
G1 X144.458 Y156.306 E30.81675
G1 X139 Y155.735 E30.99928
G1 X133.551 Y155.475 E31.18072
G1 X128.064 Y155.523 E31.36322
G1 X122.604 Y155.881 E31.54521
G1 X117.175 Y156.546 E31.72713
G1 X111.76 Y157.524 E31.91015
G1 X109.146 Y158.112 E31.99926
G1 X106.475 Y158.79 E32.09092
G1 X101.214 Y160.37 E32.27362
G1 X96.018 Y162.256 E32.45747
G1 X92.216 Y163.751 E32.59335
G1 X91.732 Y163.898 E32.61018
G1 X91.277 Y163.965 E32.62547
G1 X89.532 Y164.092 E32.68366
G1 X89.279 Y164.1 E32.69208
G1 X79.606 Y164.036 E33.01382
G1 X79.072 Y163.988 E33.03165
G1 X78.101 Y163.817 E33.06444
G1 X77.723 Y163.726 E33.07737
G1 X76.854 Y163.461 E33.10759
G1 X76.624 Y163.381 E33.11569
G1 X57.7 Y156 E33.79128
G1 X57.468 Y155.899 E33.7997
G1 X55.846 Y155.113 E33.85965
G1 X55.409 Y154.857 E33.87649
G1 X55.131 Y154.639 E33.88824
G1 X54.253 Y153.869 E33.92709
G1 X53.9 Y153.507 E33.9439
G1 X53.74 Y153.297 E33.95268
G1 X53.073 Y152.343 E33.9914
G1 X52.817 Y151.907 E34.00822
G1 X52.715 Y151.671 E34.01677
G1 X52.287 Y150.573 E34.05596
G1 X52.141 Y150.089 E34.07278
G1 X52.096 Y149.831 E34.08149
G1 X51.944 Y148.682 E34.12004
G1 X51.916 Y148.263 E34.134
G1 X51.912 Y139.482 E34.42606
G1 X51.933 Y139.112 E34.43839
G1 X52.059 Y138.027 E34.47472
G1 X52.189 Y137.425 E34.4952
G1 X54.007 Y131.719 E34.69438
G1 X55.38 Y126.377 E34.87783
G1 X55.93 Y123.771 E34.96642
G1 X56.843 Y118.339 E35.14962
G1 X57.446 Y112.884 E35.33216
G1 X57.736 Y107.439 E35.51352
G1 X57.719 Y101.95 E35.69609
G1 X57.392 Y96.491 E35.87798
G1 X56.756 Y91.051 E36.06015
G1 X55.812 Y85.644 E36.2427
G1 X55.238 Y83.018 E36.33211
G1 X54.58 Y80.365 E36.42302
G1 X52.167 Y72.484 E36.69715
G1 X52.036 Y71.784 E36.72084
G1 X51.909 Y70.072 E36.77794
G1 X51.9 Y69.831 E36.78596
G1 X51.909 Y61.855 E37.05124
G1 X51.929 Y61.499 E37.0631
G1 X52.06 Y60.342 E37.10183
G1 X52.231 Y59.612 E37.12677
G1 X52.631 Y58.508 E37.16582
G1 X52.841 Y58.048 E37.18264
G1 X52.976 Y57.825 E37.19131
G1 X53.623 Y56.853 E37.23015
G1 X53.936 Y56.455 E37.24699
G1 X54.119 Y56.272 E37.2556
G1 F2700 E30.7556
G0 F3600 X55.924 Y58.028
G0 X56.783 Y58.983
G0 X66.275 Y65.471
G0 X66.349 Y65.537
;TYPE:WALL-INNER
G1 F2700 E37.2556
G1 F2400 X66.048 Y65.975 E37.27327
G1 X65.859 Y66.472 E37.29096
G1 X65.794 Y67 E37.30865
G1 X65.859 Y67.528 E37.32634
G1 X66.048 Y68.025 E37.34403
G1 X66.349 Y68.463 E37.36171
G1 X66.748 Y68.815 E37.3794
G1 X67.217 Y69.062 E37.39703
G1 X67.735 Y69.189 E37.41477
G1 X68.265 Y69.189 E37.4324
G1 X68.783 Y69.062 E37.45014
G1 X69.252 Y68.815 E37.46777
G1 X69.651 Y68.463 E37.48547
G1 X69.952 Y68.025 E37.50314
G1 X70.141 Y67.528 E37.52083
G1 X70.206 Y67 E37.53852
G1 X70.141 Y66.472 E37.55622
G1 X69.952 Y65.975 E37.5739
G1 X69.651 Y65.537 E37.59158
G1 X69.252 Y65.185 E37.60927
G1 X68.783 Y64.938 E37.6269
G1 X68.265 Y64.811 E37.64464
G1 X67.735 Y64.811 E37.66227
G1 X67.217 Y64.938 E37.68001
G1 X66.748 Y65.185 E37.69764
G1 X66.349 Y65.537 E37.71534
G0 F3600 X66.275 Y65.471
G0 X67.11 Y64.958
G0 X87.275 Y57.471
G0 X87.349 Y57.537
G1 F2400 X87.048 Y57.975 E37.73301
G1 X86.859 Y58.472 E37.7507
G1 X86.794 Y59 E37.76839
G1 X86.859 Y59.528 E37.78609
G1 X87.048 Y60.025 E37.80377
G1 X87.349 Y60.463 E37.82145
G1 X87.748 Y60.815 E37.83914
G1 X88.217 Y61.062 E37.85677
G1 X88.735 Y61.189 E37.87451
G1 X89.265 Y61.189 E37.89214
G1 X89.783 Y61.062 E37.90988
G1 X90.252 Y60.815 E37.92751
G1 X90.651 Y60.463 E37.94521
G1 X90.952 Y60.025 E37.96288
G1 X91.141 Y59.528 E37.98057
G1 X91.206 Y59 E37.99826
G1 X91.141 Y58.472 E38.01596
G1 X90.952 Y57.975 E38.03364
G1 X90.651 Y57.537 E38.05132
G1 X90.252 Y57.185 E38.06902
G1 X89.783 Y56.938 E38.08665
G1 X89.265 Y56.811 E38.10438
G1 X88.735 Y56.811 E38.12201
G1 X88.217 Y56.938 E38.13975
G1 X87.748 Y57.185 E38.15738
G1 X87.349 Y57.537 E38.17508
G0 F3600 X87.275 Y57.471
G0 X86.821 Y58.463
G0 X86.754 Y59
G0 X86.821 Y59.537
G0 X87.013 Y60.043
G0 X87.32 Y60.489
G0 X101.89 Y72.243
G0 X101.96 Y72.313
G1 F2400 X101.96 Y93.844 E38.8912
G1 X116.083 Y93.844 E39.36093
G1 X116.083 Y72.313 E40.07706
G1 X101.96 Y72.313 E40.54679
G0 F3600 X101.89 Y72.243
G0 X93.775 Y83.471
G0 X93.849 Y83.537
G1 F2400 X93.548 Y83.975 E40.56447
G1 X93.359 Y84.472 E40.58215
G1 X93.294 Y85 E40.59985
G1 X93.359 Y85.528 E40.61754
G1 X93.548 Y86.025 E40.63523
G1 X93.849 Y86.463 E40.6529
G1 X94.248 Y86.815 E40.6706
G1 X94.717 Y87.062 E40.68823
G1 X95.235 Y87.189 E40.70597
G1 X95.765 Y87.189 E40.7236
G1 X96.283 Y87.062 E40.74134
G1 X96.752 Y86.815 E40.75897
G1 X97.151 Y86.463 E40.77666
G1 X97.452 Y86.025 E40.79434
G1 X97.641 Y85.528 E40.81202
G1 X97.706 Y85 E40.82972
G1 X97.641 Y84.472 E40.84741
G1 X97.452 Y83.975 E40.8651
G1 X97.151 Y83.537 E40.88277
G1 X96.752 Y83.185 E40.90047
G1 X96.283 Y82.938 E40.9181
G1 X95.765 Y82.811 E40.93584
G1 X95.235 Y82.811 E40.95347
G1 X94.717 Y82.938 E40.97121
G1 X94.248 Y83.185 E40.98884
G1 X93.849 Y83.537 E41.00653
G0 F3600 X93.775 Y83.471
G0 X93.321 Y84.463
G0 X93.254 Y85
G0 X93.291 Y85.303
G0 X101.89 Y116.086
G0 X101.96 Y116.156
G1 F2400 X101.96 Y137.687 E41.72266
G1 X116.083 Y137.687 E42.19239
G1 X116.083 Y116.156 E42.90851
G1 X101.96 Y116.156 E43.37825
G0 F3600 X101.89 Y116.086
G0 X93.775 Y123.471
G0 X93.849 Y123.537
G1 F2400 X93.548 Y123.975 E43.39592
G1 X93.359 Y124.472 E43.41361
G1 X93.294 Y125 E43.4313
G1 X93.359 Y125.528 E43.449
G1 X93.548 Y126.025 E43.46668
G1 X93.849 Y126.463 E43.48436
G1 X94.248 Y126.815 E43.50205
G1 X94.717 Y127.062 E43.51968
G1 X95.235 Y127.189 E43.53742
G1 X95.765 Y127.189 E43.55505
G1 X96.283 Y127.062 E43.57279
G1 X96.752 Y126.815 E43.59042
G1 X97.151 Y126.463 E43.60812
G1 X97.452 Y126.025 E43.62579
G1 X97.641 Y125.528 E43.64348
G1 X97.706 Y125 E43.66117
G1 X97.641 Y124.472 E43.67887
G1 X97.452 Y123.975 E43.69655
G1 X97.151 Y123.537 E43.71423
G1 X96.752 Y123.185 E43.73193
G1 X96.283 Y122.938 E43.74956
G1 X95.765 Y122.811 E43.76729
G1 X95.235 Y122.811 E43.78492
G1 X94.717 Y122.938 E43.80266
G1 X94.248 Y123.185 E43.82029
G1 X93.849 Y123.537 E43.83799
G0 F3600 X93.775 Y123.471
G0 X83.77 Y135.27
G0 X83.7 Y135.2
G1 F2400 X83.7 Y74.8 E45.8469
G1 X60.042 Y74.8 E46.63377
G1 X59.04 Y74.688 E46.6673
G1 X58.138 Y74.371 E46.6991
G1 X57.323 Y73.859 E46.73111
G1 X56.641 Y73.177 E46.76319
G1 X56.129 Y72.362 E46.79521
