;FLAVOR:Marlin
;TIME:923
;Filament used: 0.515825m
;Layer height: 0.2
;Generated with Cura_SteamEngine 3.3.1
M104 S200
M109 S200
M82 ;absolute extrusion mode
; -- START GCODE --
G21                     ;set units to millimetres
G90                     ;set to absolute positioning
M106 S0                 ;set fan speed to zero (turned off)
G28 X0 Y0               ;move to the X/Y origin (Home)
G28 Z0                  ;move to the Z origin (Home)
G1 Z15.0 F1200          ;move Z to position 15.0 mm
G92 E0                  ;zero the extruded length
G1 E20 F200             ;extrude 20mm of feed stock
G92 E0                  ;zero the extruded length again
G1 F7200                ;set feedrate to 120 mm/s
; -- end of START GCODE --
G92 E0
G1 F2700 E-6.5
;LAYER_COUNT:78
;LAYER:0
M107
G0 F3600 X139.424 Y90.216 Z0.2
;TYPE:SKIRT
G1 F2700 E0
G1 F1200 X139.74 Y89.747 E0.01881
G1 X140.119 Y89.328 E0.0376
G1 X140.553 Y88.966 E0.0564
G1 X141.034 Y88.669 E0.0752
G1 X141.552 Y88.442 E0.09401
G1 X142.097 Y88.291 E0.11282
G1 X142.89 Y88.212 E0.13933
G1 X146.111 Y88.212 E0.24646
G1 X146.675 Y88.252 E0.26526
G1 X147.228 Y88.371 E0.28408
G1 X147.758 Y88.567 E0.30287
G1 X148.255 Y88.835 E0.32165
G1 X148.595 Y89.077 E0.33553
G1 X153.994 Y93.355 E0.56464
G1 X158.461 Y96.464 E0.74566
G1 X162.227 Y98.817 E0.89335
G1 X162.684 Y99.149 E0.91214
G1 X163.09 Y99.543 E0.93096
G1 X163.571 Y100.208 E0.95826
G1 X165.183 Y102.998 E1.06543
G1 X165.431 Y103.506 E1.08423
G1 X165.604 Y104.044 E1.10303
G1 X165.7 Y104.601 E1.12182
G1 X165.716 Y105.166 E1.14062
G1 X165.653 Y105.728 E1.15943
G1 X165.511 Y106.275 E1.17823
G1 X165.184 Y106.999 E1.20465
G1 X163.574 Y109.788 E1.31176
G1 X163.258 Y110.256 E1.33054
G1 X162.878 Y110.675 E1.34936
G1 X162.444 Y111.037 E1.36815
G1 X161.962 Y111.333 E1.38697
G1 X161.444 Y111.559 E1.40576
G1 X160.899 Y111.709 E1.42457
G1 X160.11 Y111.788 E1.45094
G1 X136.891 Y111.788 E2.22321
G1 X136.327 Y111.748 E2.24201
G1 X135.774 Y111.629 E2.26083
G1 X135.244 Y111.433 E2.27962
G1 X134.747 Y111.165 E2.2984
G1 X134.292 Y110.829 E2.31721
G1 X133.889 Y110.432 E2.33603
G1 X133.427 Y109.788 E2.36239
G1 X131.817 Y107 E2.46947
G1 X131.57 Y106.492 E2.48826
G1 X131.396 Y105.954 E2.50706
G1 X131.301 Y105.397 E2.52586
G1 X131.285 Y104.832 E2.54466
G1 X131.348 Y104.27 E2.56347
G1 X131.49 Y103.723 E2.58226
G1 X131.828 Y102.98 E2.60941
G1 X133.707 Y99.768 E2.73318
G1 X133.777 Y99.653 E2.73766
G1 X136.206 Y95.804 E2.88904
G1 X139.424 Y90.216 E3.10351
G0 F3600 X139.77 Y90.415
G1 F1200 X140.072 Y89.972 E3.12134
G1 X140.436 Y89.578 E3.13918
G1 X140.854 Y89.243 E3.157
G1 X141.318 Y88.973 E3.17486
G1 X141.817 Y88.776 E3.1927
G1 X142.339 Y88.654 E3.21053
G1 X142.89 Y88.612 E3.22891
G1 X146.111 Y88.612 E3.33604
G1 X146.646 Y88.652 E3.35388
G1 X147.169 Y88.771 E3.37172
G1 X147.668 Y88.966 E3.38954
G1 X148.347 Y89.39 E3.41617
G1 X153.757 Y93.677 E3.64575
G1 X158.247 Y96.802 E3.8277
G1 X162.015 Y99.156 E3.97547
G1 X162.448 Y99.473 E3.99332
G1 X162.828 Y99.851 E4.01114
G1 X163.225 Y100.408 E4.03389
G1 X164.837 Y103.198 E4.14106
G1 X165.07 Y103.681 E4.1589
G1 X165.229 Y104.193 E4.17673
G1 X165.309 Y104.724 E4.19459
G1 X165.311 Y105.26 E4.21242
G1 X165.232 Y105.79 E4.23024
G1 X165.075 Y106.303 E4.24809
G1 X164.838 Y106.799 E4.26637
G1 X163.228 Y109.588 E4.37348
G1 X162.926 Y110.031 E4.39131
G1 X162.561 Y110.424 E4.40915
G1 X162.143 Y110.759 E4.42697
G1 X161.679 Y111.028 E4.44481
G1 X161.18 Y111.225 E4.46265
G1 X160.657 Y111.346 E4.4805
G1 X160.11 Y111.388 E4.49875
G1 X136.891 Y111.388 E5.27102
G1 X136.356 Y111.348 E5.28886
G1 X135.833 Y111.229 E5.3067
G1 X135.334 Y111.034 E5.32452
G1 X134.869 Y110.766 E5.34237
G1 X134.449 Y110.433 E5.3602
G1 X134.083 Y110.041 E5.37804
G1 X133.773 Y109.588 E5.39629
G1 X132.163 Y106.8 E5.50337
G1 X131.931 Y106.317 E5.52119
G1 X131.772 Y105.805 E5.53903
G1 X131.691 Y105.275 E5.55686
G1 X131.691 Y104.738 E5.57472
G1 X131.769 Y104.208 E5.59254
G1 X131.926 Y103.695 E5.61038
G1 X132.174 Y103.182 E5.62933
G1 X134.053 Y99.97 E5.7531
G1 X134.116 Y99.867 E5.75712
G1 X136.526 Y96.047 E5.90734
G1 X139.77 Y90.415 E6.12352
G0 F3600 X140.117 Y90.615
G1 F1200 X140.403 Y90.198 E6.14033
G1 X140.751 Y89.832 E6.15713
G1 X141.153 Y89.525 E6.17395
G1 X141.598 Y89.285 E6.19077
G1 X142.075 Y89.118 E6.20758
G1 X142.573 Y89.028 E6.22441
G1 X142.89 Y89.012 E6.23497
G1 X146.111 Y89.012 E6.3421
G1 X146.615 Y89.052 E6.35892
G1 X147.106 Y89.171 E6.37572
G1 X147.573 Y89.365 E6.39254
G1 X148.098 Y89.704 E6.41332
G1 X153.519 Y94 E6.64338
G1 X158.009 Y97.125 E6.82533
G1 X161.803 Y99.495 E6.97411
G1 X162.21 Y99.796 E6.99095
G1 X162.563 Y100.157 E7.00774
G1 X162.879 Y100.608 E7.02606
G1 X164.491 Y103.398 E7.13323
G1 X164.708 Y103.854 E7.15003
G1 X164.851 Y104.339 E7.16684
G1 X164.916 Y104.841 E7.18368
G1 X164.901 Y105.346 E7.20048
G1 X164.807 Y105.843 E7.21731
G1 X164.635 Y106.318 E7.23411
G1 X164.491 Y106.599 E7.24461
G1 X162.881 Y109.388 E7.35172
G1 X162.595 Y109.804 E7.36851
G1 X162.246 Y110.171 E7.38536
G1 X161.844 Y110.477 E7.40216
G1 X161.399 Y110.717 E7.41898
G1 X160.922 Y110.883 E7.43577
G1 X160.424 Y110.973 E7.45261
G1 X160.11 Y110.988 E7.46306
G1 X136.891 Y110.988 E8.23533
G1 X136.387 Y110.948 E8.25214
G1 X135.896 Y110.829 E8.26895
G1 X135.429 Y110.635 E8.28577
G1 X134.999 Y110.369 E8.30258
G1 X134.616 Y110.039 E8.3194
G1 X134.29 Y109.652 E8.33623
G1 X134.12 Y109.388 E8.34667
G1 X132.51 Y106.6 E8.45375
G1 X132.292 Y106.144 E8.47056
G1 X132.15 Y105.659 E8.48737
G1 X132.085 Y105.157 E8.50421
G1 X132.1 Y104.652 E8.52101
G1 X132.194 Y104.155 E8.53783
G1 X132.366 Y103.68 E8.55464
G1 X132.519 Y103.384 E8.56572
G1 X134.398 Y100.172 E8.68949
G1 X134.454 Y100.08 E8.69307
G1 X136.882 Y96.233 E8.84438
G1 X140.117 Y90.615 E9.06
G1 F2700 E2.56
G0 F3600 X142.131 Y92.178
G0 X143.24 Y92.819
G0 X143.745 Y92.987
G0 X143.756 Y92.99
G0 X146.245 Y93.825
G0 X146.331 Y93.776
;TYPE:WALL-INNER
G1 F2700 E9.06
G1 F1200 X146.542 Y94.14 E9.07399
G1 X146.751 Y94.502 E9.08789
G1 X146.942 Y94.832 E9.10057
G1 X147.039 Y95 E9.10703
G1 X146.943 Y95.167 E9.11343
G1 X146.752 Y95.498 E9.12614
G1 X146.544 Y95.858 E9.13997
G1 X146.333 Y96.224 E9.15402
G1 X146.126 Y96.581 E9.16775
G1 X145.929 Y96.921 E9.18082
G1 X145.769 Y97.198 E9.19146
G1 X145.327 Y97.198 E9.20616
G1 X144.916 Y97.198 E9.21983
G1 X144.5 Y97.198 E9.23366
G1 X144.084 Y97.198 E9.2475
G1 X143.673 Y97.198 E9.26117
G1 X143.231 Y97.198 E9.27587
G1 X143.072 Y96.922 E9.28647
G1 X142.875 Y96.582 E9.29954
G1 X142.669 Y96.224 E9.31327
G1 X142.458 Y95.86 E9.32727
G1 X142.249 Y95.498 E9.34117
G1 X142.058 Y95.168 E9.35385
G1 X141.961 Y95 E9.3603
G1 X142.057 Y94.833 E9.36671
G1 X142.248 Y94.502 E9.37942
G1 X142.456 Y94.142 E9.39325
G1 X142.667 Y93.776 E9.4073
G1 X142.874 Y93.419 E9.42103
G1 X143.071 Y93.079 E9.4341
G1 X143.231 Y92.802 E9.44474
G1 X143.673 Y92.802 E9.45944
G1 X144.084 Y92.802 E9.47311
G1 X144.5 Y92.802 E9.48694
G1 X144.916 Y92.802 E9.50078
G1 X145.327 Y92.802 E9.51445
G1 X145.769 Y92.802 E9.52915
G1 X145.928 Y93.078 E9.53974
G1 X146.125 Y93.418 E9.55281
G1 X146.331 Y93.776 E9.56655
G0 F3600 X146.245 Y93.825
G0 X143.703 Y96.993
G0 X143.696 Y97.002
G0 X143.635 Y97.08
G0 X143.673 Y96.988
G1 F1200 X144.084 Y97.11 E9.57212
G1 X144.5 Y97.152 E9.57449
G1 X144.916 Y97.11 E9.57687
G1 X145.327 Y96.988 E9.58244
G1 X145.581 Y96.851 E9.5888
G1 X145.698 Y96.788 E9.59193
G1 X146.021 Y96.521 E9.59969
G1 X146.288 Y96.198 E9.60302
G1 X146.488 Y95.827 E9.60502
G1 X146.61 Y95.416 E9.60929
G1 X146.652 Y95 E9.61797
G1 X146.61 Y94.584 E9.62772
G1 X146.488 Y94.173 E9.63235
G1 X146.288 Y93.802 E9.63439
G1 X146.021 Y93.479 E9.63747
G1 X145.698 Y93.212 E9.64453
G1 X145.582 Y93.15 E9.6473
G1 X145.327 Y93.012 E9.65405
G1 X144.916 Y92.89 E9.65963
G1 X144.5 Y92.848 E9.662
G1 X144.084 Y92.89 E9.66437
G1 X143.673 Y93.012 E9.66994
G1 X143.419 Y93.149 E9.6763
G1 X143.302 Y93.212 E9.67944
G1 X142.979 Y93.479 E9.68719
G1 X142.712 Y93.802 E9.69053
G1 X142.512 Y94.173 E9.69253
G1 X142.39 Y94.584 E9.69679
G1 X142.348 Y95 E9.70547
G1 X142.39 Y95.416 E9.71523
G1 X142.512 Y95.827 E9.71985
G1 X142.712 Y96.198 E9.72189
G1 X142.979 Y96.521 E9.72497
G1 X143.302 Y96.788 E9.73203
G1 X143.418 Y96.85 E9.7348
G1 X143.673 Y96.988 E9.74155
G0 F3600 X143.635 Y97.08
G0 X142.951 Y96.549
G0 X142.679 Y96.22
G0 X142.476 Y95.842
G0 X142.351 Y95.423
G0 X142.308 Y95
G0 X142.351 Y94.577
G0 X142.476 Y94.158
G0 X142.679 Y93.78
G0 X142.898 Y93.514
G0 X143.685 Y92.904
G0 X143.827 Y93.384
;TYPE:WALL-OUTER
G1 F1200 X143.526 Y93.546 E9.75292
G1 X143.263 Y93.763 E9.76426
G1 X143.046 Y94.026 E9.7756
G1 X142.884 Y94.327 E9.78697
G1 X142.784 Y94.662 E9.7986
G1 X142.75 Y95 E9.8099
G1 X142.784 Y95.338 E9.8212
G1 X142.884 Y95.673 E9.83283
G1 X143.046 Y95.974 E9.8442
G1 X143.263 Y96.237 E9.85554
G1 X143.526 Y96.454 E9.86688
G1 X143.827 Y96.616 E9.87825
G1 X144.162 Y96.716 E9.88987
G1 X144.5 Y96.75 E9.90117
G1 X144.838 Y96.716 E9.91247
G1 X145.173 Y96.616 E9.9241
G1 X145.474 Y96.454 E9.93547
G1 X145.737 Y96.237 E9.94681
G1 X145.954 Y95.974 E9.95815
G1 X146.116 Y95.673 E9.96952
G1 X146.216 Y95.338 E9.98115
G1 X146.25 Y95 E9.99245
G1 X146.216 Y94.662 E10.00374
G1 X146.116 Y94.327 E10.01537
G1 X145.954 Y94.026 E10.02674
G1 X145.737 Y93.763 E10.03808
G1 X145.474 Y93.546 E10.04942
G1 X145.173 Y93.384 E10.06079
G1 X144.838 Y93.284 E10.07242
G1 X144.5 Y93.25 E10.08372
G1 X144.162 Y93.284 E10.09502
G1 X143.827 Y93.384 E10.10665
G0 F3600 X143.651 Y93.479
G0 X143.414 Y93.038
G0 X144.077 Y92.851
G0 X144.5 Y92.808
G0 X144.923 Y92.851
G0 X145.342 Y92.976
G0 X145.72 Y93.179
G0 X146.049 Y93.451
G0 X146.202 Y93.637
G0 X146.939 Y95
G0 X147.5 Y95
G1 F1200 X146 Y97.598 E10.20642
G1 X143 Y97.598 E10.3062
G1 X141.5 Y95 E10.40598
G1 X143 Y92.402 E10.50576
G1 X146 Y92.402 E10.60554
G1 X147.5 Y95 E10.70532
G0 F3600 X147.4 Y95.173
G1 F2700 E4.20532
G0 F3600 X146.939 Y95
G0 X146.506 Y95.884
G0 X147.618 Y96.526
G0 X156.131 Y102.178
G0 X157.24 Y102.819
G0 X157.744 Y102.988
G0 X157.755 Y102.991
G0 X160.245 Y103.825
G0 X160.331 Y103.776
;TYPE:WALL-INNER
G1 F2700 E10.70532
G1 F1200 X160.542 Y104.14 E10.71931
G1 X160.751 Y104.502 E10.73322
G1 X160.942 Y104.832 E10.7459
G1 X161.039 Y105 E10.75235
G1 X160.943 Y105.167 E10.75876
G1 X160.752 Y105.498 E10.77147
G1 X160.544 Y105.858 E10.7853
G1 X160.333 Y106.224 E10.79935
G1 X160.126 Y106.581 E10.81307
G1 X159.929 Y106.921 E10.82614
G1 X159.769 Y107.198 E10.83678
G1 X159.327 Y107.198 E10.85148
G1 X158.916 Y107.198 E10.86515
G1 X158.5 Y107.198 E10.87899
G1 X158.084 Y107.198 E10.89282
G1 X157.673 Y107.198 E10.90649
G1 X157.231 Y107.198 E10.9212
G1 X157.072 Y106.922 E10.93179
G1 X156.875 Y106.582 E10.94486
G1 X156.669 Y106.224 E10.9586
G1 X156.458 Y105.86 E10.97259
G1 X156.249 Y105.498 E10.98649
G1 X156.058 Y105.168 E10.99917
G1 X155.961 Y105 E11.00563
G1 X156.057 Y104.833 E11.01203
G1 X156.248 Y104.502 E11.02474
G1 X156.456 Y104.142 E11.03857
G1 X156.667 Y103.776 E11.05262
G1 X156.874 Y103.419 E11.06635
G1 X157.071 Y103.079 E11.07942
G1 X157.231 Y102.802 E11.09006
G1 X157.673 Y102.802 E11.10476
G1 X158.084 Y102.802 E11.11843
G1 X158.5 Y102.802 E11.13227
G1 X158.916 Y102.802 E11.1461
G1 X159.327 Y102.802 E11.15977
G1 X159.769 Y102.802 E11.17447
G1 X159.928 Y103.078 E11.18507
G1 X160.125 Y103.418 E11.19814
G1 X160.331 Y103.776 E11.21187
G0 F3600 X160.245 Y103.825
G0 X157.703 Y106.993
G0 X157.696 Y107.002
G0 X157.635 Y107.08
G0 X157.673 Y106.988
G1 F1200 X158.084 Y107.11 E11.21745
G1 X158.5 Y107.152 E11.21982
G1 X158.916 Y107.11 E11.22219
G1 X159.327 Y106.988 E11.22776
G1 X159.581 Y106.851 E11.23412
G1 X159.698 Y106.788 E11.23726
G1 X160.021 Y106.521 E11.24502
G1 X160.288 Y106.198 E11.24835
G1 X160.488 Y105.827 E11.25035
G1 X160.61 Y105.416 E11.25461
G1 X160.652 Y105 E11.26329
G1 X160.61 Y104.584 E11.27305
G1 X160.488 Y104.173 E11.27767
G1 X160.288 Y103.802 E11.27971
G1 X160.021 Y103.479 E11.28279
G1 X159.698 Y103.212 E11.28985
G1 X159.582 Y103.15 E11.29262
G1 X159.327 Y103.012 E11.29938
G1 X158.916 Y102.89 E11.30495
G1 X158.5 Y102.848 E11.30732
G1 X158.084 Y102.89 E11.30969
G1 X157.673 Y103.012 E11.31526
G1 X157.419 Y103.149 E11.32162
G1 X157.302 Y103.212 E11.32476
G1 X156.979 Y103.479 E11.33252
G1 X156.712 Y103.802 E11.33585
G1 X156.512 Y104.173 E11.33785
G1 X156.39 Y104.584 E11.34211
G1 X156.348 Y105 E11.35079
G1 X156.39 Y105.416 E11.36055
G1 X156.512 Y105.827 E11.36518
G1 X156.712 Y106.198 E11.36721
G1 X156.979 Y106.521 E11.37029
G1 X157.302 Y106.788 E11.37735
G1 X157.418 Y106.85 E11.38012
G1 X157.673 Y106.988 E11.38688
G0 F3600 X157.635 Y107.08
G0 X156.951 Y106.549
G0 X156.679 Y106.22
G0 X156.476 Y105.842
G0 X156.351 Y105.423
G0 X156.308 Y105
G0 X156.351 Y104.577
G0 X156.476 Y104.158
G0 X156.679 Y103.78
G0 X156.898 Y103.514
G0 X157.685 Y102.904
G0 X157.827 Y103.384
;TYPE:WALL-OUTER
G1 F1200 X157.526 Y103.546 E11.39825
G1 X157.263 Y103.763 E11.40959
G1 X157.046 Y104.026 E11.42093
G1 X156.884 Y104.327 E11.4323
G1 X156.784 Y104.662 E11.44393
G1 X156.75 Y105 E11.45522
G1 X156.784 Y105.338 E11.46652
G1 X156.884 Y105.673 E11.47815
G1 X157.046 Y105.974 E11.48952
G1 X157.263 Y106.237 E11.50086
G1 X157.526 Y106.454 E11.5122
G1 X157.827 Y106.616 E11.52357
G1 X158.162 Y106.716 E11.5352
G1 X158.5 Y106.75 E11.5465
G1 X158.838 Y106.716 E11.5578
G1 X159.173 Y106.616 E11.56942
G1 X159.474 Y106.454 E11.58079
G1 X159.737 Y106.237 E11.59213
G1 X159.954 Y105.974 E11.60347
G1 X160.116 Y105.673 E11.61484
G1 X160.216 Y105.338 E11.62647
G1 X160.25 Y105 E11.63777
G1 X160.216 Y104.662 E11.64907
G1 X160.116 Y104.327 E11.6607
G1 X159.954 Y104.026 E11.67207
G1 X159.737 Y103.763 E11.68341
G1 X159.474 Y103.546 E11.69475
G1 X159.173 Y103.384 E11.70612
G1 X158.838 Y103.284 E11.71774
G1 X158.5 Y103.25 E11.72904
G1 X158.162 Y103.284 E11.74034
G1 X157.827 Y103.384 E11.75197
G0 F3600 X157.651 Y103.479
G0 X157.414 Y103.038
G0 X158.077 Y102.851
G0 X158.5 Y102.808
G0 X158.923 Y102.851
G0 X159.342 Y102.976
G0 X159.72 Y103.179
G0 X160.049 Y103.451
G0 X160.202 Y103.637
G0 X160.939 Y105
G0 X161.5 Y105
G1 F1200 X160 Y107.598 E11.85175
G1 X157 Y107.598 E11.95153
G1 X155.5 Y105 E12.05131
G1 X157 Y102.402 E12.15108
G1 X160 Y102.402 E12.25086
G1 X161.5 Y105 E12.35064
G0 F3600 X161.4 Y105.173
G1 F2700 E5.85064
G0 F3600 X160.939 Y105
G0 X160.321 Y106.22
G0 X160.049 Y106.549
G0 X159.72 Y106.821
G0 X159.342 Y107.024
G0 X158.923 Y107.149
G0 X158.5 Y107.192
G0 X158.077 Y107.149
G0 X157.658 Y107.024
G0 X157.28 Y106.821
G0 X156.951 Y106.549
G0 X156.798 Y106.363
G0 X155.981 Y105
G0 X154.872 Y105.641
G0 X152.129 Y105.641
G0 X151.019 Y105
G0 X150.511 Y104.23
G0 X150.493 Y104.2
G0 X150.245 Y103.825
G0 X150.331 Y103.776
;TYPE:WALL-INNER
G1 F2700 E12.35064
G1 F1200 X150.542 Y104.14 E12.36464
G1 X150.751 Y104.502 E12.37854
G1 X150.942 Y104.832 E12.39122
G1 X151.039 Y105 E12.39767
G1 X150.943 Y105.167 E12.40408
G1 X150.752 Y105.498 E12.41679
G1 X150.544 Y105.858 E12.43062
G1 X150.333 Y106.224 E12.44467
G1 X150.126 Y106.581 E12.4584
G1 X149.929 Y106.921 E12.47146
G1 X149.769 Y107.198 E12.4821
G1 X149.327 Y107.198 E12.49681
G1 X148.916 Y107.198 E12.51048
G1 X148.5 Y107.198 E12.52431
G1 X148.084 Y107.198 E12.53815
G1 X147.673 Y107.198 E12.55182
G1 X147.231 Y107.198 E12.56652
G1 X147.072 Y106.922 E12.57711
G1 X146.875 Y106.582 E12.59018
G1 X146.669 Y106.224 E12.60392
G1 X146.458 Y105.86 E12.61791
G1 X146.249 Y105.498 E12.63182
G1 X146.058 Y105.168 E12.6445
G1 X145.961 Y105 E12.65095
G1 X146.057 Y104.833 E12.65736
G1 X146.248 Y104.502 E12.67007
G1 X146.456 Y104.142 E12.6839
G1 X146.667 Y103.776 E12.69795
G1 X146.874 Y103.419 E12.71167
G1 X147.071 Y103.079 E12.72474
G1 X147.231 Y102.802 E12.73538
G1 X147.673 Y102.802 E12.75008
G1 X148.084 Y102.802 E12.76375
G1 X148.5 Y102.802 E12.77759
G1 X148.916 Y102.802 E12.79143
G1 X149.327 Y102.802 E12.8051
G1 X149.769 Y102.802 E12.8198
G1 X149.928 Y103.078 E12.83039
G1 X150.125 Y103.418 E12.84346
G1 X150.331 Y103.776 E12.8572
G0 F3600 X150.245 Y103.825
G0 X147.704 Y106.994
G0 X147.697 Y107.003
G0 X147.635 Y107.08
G0 X147.673 Y106.988
G1 F1200 X148.084 Y107.11 E12.86277
G1 X148.5 Y107.152 E12.86514
G1 X148.916 Y107.11 E12.86751
G1 X149.327 Y106.988 E12.87309
G1 X149.581 Y106.851 E12.87944
