;FLAVOR:Marlin
;TIME:8431
;Filament used: 8.30475m
;Layer height: 0.2
;Generated with Cura_SteamEngine 3.3.1
M104 S200
M109 S200
M82 ;absolute extrusion mode
; -- START GCODE --
G21                     ;set units to millimetres
G90                     ;set to absolute positioning
M106 S0                 ;set fan speed to zero (turned off)
G28 X0 Y0               ;move to the X/Y origin (Home)
G28 Z0                  ;move to the Z origin (Home)
G1 Z15.0 F1200          ;move Z to position 15.0 mm
G92 E0                  ;zero the extruded length
G1 E20 F200             ;extrude 20mm of feed stock
G92 E0                  ;zero the extruded length again
G1 F7200                ;set feedrate to 120 mm/s
; -- end of START GCODE --
G92 E0
G1 F2700 E-6.5
;LAYER_COUNT:151
;LAYER:0
M107
G0 F3600 X115.243 Y70.926 Z0.2
;TYPE:SKIRT
G1 F2700 E0
G1 F1800 X115.547 Y70.484 E0.01784
G1 X115.914 Y70.092 E0.0357
G1 X116.334 Y69.759 E0.05353
G1 X116.799 Y69.493 E0.07135
G1 X117.299 Y69.298 E0.0892
G1 X117.822 Y69.179 E0.10704
G1 X118.117 Y69.148 E0.1169
G1 X119.274 Y69.072 E0.15547
G1 X119.511 Y69.064 E0.16336
G1 X178.451 Y69.074 E2.12371
G1 X178.985 Y69.114 E2.14152
G1 X179.508 Y69.233 E2.15936
G1 X180.125 Y69.488 E2.18156
G1 X180.416 Y69.641 E2.1925
G1 X180.871 Y69.925 E2.21034
G1 X181.279 Y70.273 E2.22817
G1 X181.63 Y70.679 E2.24602
G1 X181.917 Y71.132 E2.26386
G1 X182.133 Y71.622 E2.28167
G1 X182.251 Y72.025 E2.29564
G1 X182.349 Y72.454 E2.31027
G1 X182.429 Y72.985 E2.32813
G1 X182.439 Y73.256 E2.33715
G1 X182.432 Y136.947 E4.45552
G1 X182.392 Y137.482 E4.47337
G1 X182.273 Y138.005 E4.49121
G1 X181.953 Y138.741 E4.5179
G1 X181.772 Y139.056 E4.52998
G1 X181.471 Y139.499 E4.5478
G1 X181.108 Y139.894 E4.56564
G1 X180.689 Y140.229 E4.58348
G1 X180.226 Y140.499 E4.60131
G1 X179.728 Y140.697 E4.61913
G1 X179.205 Y140.819 E4.637
G1 X178.876 Y140.855 E4.648
G1 X177.693 Y140.929 E4.68743
G1 X177.466 Y140.936 E4.69498
G1 X118.511 Y140.908 E6.65583
G1 X117.977 Y140.868 E6.67364
G1 X117.308 Y140.7 E6.69659
G1 X117.08 Y140.619 E6.70463
G1 X116.589 Y140.403 E6.72247
G1 X116.136 Y140.115 E6.74033
G1 X115.731 Y139.764 E6.75815
G1 X115.383 Y139.357 E6.77596
G1 X115.098 Y138.902 E6.79382
G1 X114.978 Y138.649 E6.80313
G1 X114.88 Y138.421 E6.81139
G1 X114.705 Y137.914 E6.82923
G1 X114.608 Y137.386 E6.84708
G1 X114.587 Y137 E6.85994
G1 X114.578 Y73.041 E8.98723
G1 X114.618 Y72.506 E9.00507
G1 X114.737 Y71.983 E9.02291
G1 X114.932 Y71.483 E9.04076
G1 X115.068 Y71.226 E9.05043
G1 X115.243 Y70.926 E9.06198
G0 F3600 X115.589 Y71.128
G1 F1800 X115.877 Y70.712 E9.07881
G1 X116.228 Y70.348 E9.09563
G1 X116.631 Y70.043 E9.11244
G1 X117.077 Y69.805 E9.12925
G1 X117.555 Y69.641 E9.14606
G1 X118.143 Y69.547 E9.16587
G1 X119.3 Y69.471 E9.20443
G1 X119.511 Y69.464 E9.21145
G1 X178.451 Y69.474 E11.17181
G1 X178.955 Y69.514 E11.18862
G1 X179.446 Y69.633 E11.20542
G1 X179.939 Y69.842 E11.22323
G1 X180.23 Y69.995 E11.23417
G1 X180.658 Y70.265 E11.251
G1 X181.037 Y70.598 E11.26778
G1 X181.36 Y70.988 E11.28462
G1 X181.617 Y71.423 E11.30143
G1 X181.861 Y72.114 E11.3258
G1 X181.959 Y72.543 E11.34044
G1 X182.039 Y73.256 E11.3643
G1 X182.032 Y136.947 E13.48267
G1 X181.992 Y137.451 E13.49949
G1 X181.873 Y137.943 E13.51632
G1 X181.607 Y138.541 E13.53809
G1 X181.426 Y138.856 E13.55018
G1 X181.14 Y139.273 E13.56699
G1 X180.792 Y139.64 E13.58382
G1 X180.391 Y139.948 E13.60063
G1 X179.946 Y140.188 E13.61745
G1 X179.469 Y140.356 E13.63427
G1 X178.851 Y140.456 E13.65509
G1 X177.668 Y140.53 E13.69451
G1 X177.466 Y140.536 E13.70124
G1 X118.511 Y140.508 E15.66209
G1 X118.008 Y140.468 E15.67887
G1 X117.442 Y140.323 E15.6983
G1 X117.214 Y140.242 E15.70635
G1 X116.752 Y140.036 E15.72318
G1 X116.329 Y139.76 E15.73997
G1 X115.954 Y139.42 E15.75681
G1 X115.638 Y139.025 E15.77364
G1 X115.345 Y138.491 E15.79389
G1 X115.247 Y138.263 E15.80215
G1 X115.085 Y137.784 E15.81897
G1 X115 Y137.285 E15.8358
G1 X114.987 Y136.999 E15.84532
G1 X114.978 Y73.04 E17.97261
G1 X115.018 Y72.536 E17.98943
G1 X115.137 Y72.045 E18.00623
G1 X115.414 Y71.428 E18.02872
G1 X115.589 Y71.128 E18.04027
G1 F2700 E11.54027
G0 F3600 X117.558 Y72.757
G0 X118.782 Y73.278
G0 X123.408 Y83.611
G0 X123.373 Y83.704
;TYPE:WALL-INNER
G1 F2700 E18.04027
G1 F1800 X122.784 Y83.563 E18.06042
G1 X122.192 Y83.566 E18.08011
G1 X121.619 Y83.712 E18.09978
G1 X121.097 Y83.99 E18.11945
G1 X120.656 Y84.387 E18.13918
G1 X120.325 Y84.874 E18.15877
G1 X120.118 Y85.426 E18.17837
G1 X120.05 Y86 E18.1976
G1 X120.12 Y86.587 E18.21726
G1 X120.332 Y87.142 E18.23702
G1 X120.668 Y87.628 E18.25667
G1 X121.111 Y88.021 E18.27637
G1 X121.634 Y88.295 E18.29601
G1 X122.209 Y88.437 E18.31571
G1 X122.801 Y88.437 E18.3354
G1 X123.375 Y88.295 E18.35506
G1 X123.898 Y88.021 E18.3747
G1 X124.343 Y87.628 E18.39445
G1 X124.678 Y87.141 E18.41411
G1 X124.889 Y86.588 E18.43379
G1 X124.96 Y86 E18.45349
G1 X124.889 Y85.412 E18.47319
G1 X124.678 Y84.859 E18.49288
G1 X124.343 Y84.372 E18.51254
G1 X123.899 Y83.979 E18.53226
G1 X123.373 Y83.704 E18.552
G0 F3600 X123.408 Y83.611
G0 X123.921 Y83.947
G0 X124.372 Y84.346
G0 X124.713 Y84.841
G0 X124.885 Y85.295
G0 X125.735 Y92.23
G0 X125.805 Y92.3
G1 F1800 X125.805 Y107.7 E19.06421
G1 X135.038 Y107.7 E19.3713
G1 X135.468 Y107.7 E19.3856
G1 X135.607 Y107.7 E19.39022
G1 X135.468 Y107.773
G1 X135.147 Y108.058 E19.39904
G1 X134.98 Y108.206 E19.40646
G1 X134.61 Y108.743 E19.42815
G1 X134.378 Y109.352 E19.44983
G1 X134.3 Y110 E19.47153
G1 X134.378 Y110.648 E19.49324
G1 X134.61 Y111.257 E19.51492
G1 X134.98 Y111.794 E19.53661
G1 X135.468 Y112.227 E19.55831
G1 X136.045 Y112.529 E19.57997
G1 X136.679 Y112.685 E19.60168
G1 X137.331 Y112.685 E19.62337
G1 X137.964 Y112.529 E19.64505
G1 X138.541 Y112.227 E19.66671
G1 X139.03 Y111.794 E19.68844
G1 X139.4 Y111.257 E19.71013
G1 X139.632 Y110.648 E19.7318
G1 X139.71 Y110 E19.75351
G1 X139.632 Y109.352 E19.77522
G1 X139.4 Y108.743 E19.79689
G1 X139.03 Y108.206 E19.81858
G1 X138.863 Y108.058 E19.82601
G1 X138.541 Y107.773 E19.84031
G1 X138.402 Y107.7 E19.84553
G1 X138.541 Y107.7
G1 X138.972 Y107.7 E19.85439
G1 X148.205 Y107.7 E20.16148
G1 X148.205 Y92.3 E20.67369
G1 X138.972 Y92.3 E20.98078
G1 X138.541 Y92.3 E20.99512
G1 X138.402 Y92.3 E20.99974
G1 X138.541 Y92.227
G1 X138.863 Y91.942 E21.00857
G1 X139.03 Y91.794 E21.01599
G1 X139.4 Y91.257 E21.03768
G1 X139.632 Y90.648 E21.05936
G1 X139.71 Y90 E21.08106
G1 X139.632 Y89.352 E21.10277
G1 X139.4 Y88.743 E21.12445
G1 X139.03 Y88.206 E21.14614
G1 X138.541 Y87.773 E21.16786
G1 X137.964 Y87.471 E21.18952
G1 X137.331 Y87.315 E21.21121
G1 X136.679 Y87.315 E21.23289
G1 X136.045 Y87.471 E21.25461
G1 X135.468 Y87.773 E21.27627
G1 X134.98 Y88.206 E21.29797
G1 X134.61 Y88.743 E21.31966
G1 X134.378 Y89.352 E21.34133
G1 X134.3 Y90 E21.36304
G1 X134.378 Y90.648 E21.38475
G1 X134.61 Y91.257 E21.40642
G1 X134.98 Y91.794 E21.42811
G1 X135.147 Y91.942 E21.43554
G1 X135.468 Y92.227 E21.44981
G1 X135.607 Y92.3 E21.45504
G1 X135.468 Y92.3
G1 X135.038 Y92.3 E21.46388
G1 X125.805 Y92.3 E21.77097
G0 F3600 X125.735 Y92.23
G0 X120.08 Y113.416
G0 X120.061 Y113.581
G0 X120.023 Y114.61
G0 X120.12 Y114.587
G1 F1800 X120.332 Y115.142 E21.79073
G1 X120.668 Y115.628 E21.81038
G1 X121.111 Y116.021 E21.83008
G1 X121.634 Y116.295 E21.84972
G1 X122.209 Y116.437 E21.86941
G1 X122.801 Y116.437 E21.8891
G1 X123.375 Y116.295 E21.90877
G1 X123.898 Y116.021 E21.92841
G1 X124.343 Y115.628 E21.94816
G1 X124.678 Y115.141 E21.96782
G1 X124.889 Y114.588 E21.9875
G1 X124.96 Y114 E22.0072
G1 X124.889 Y113.412 E22.0269
G1 X124.678 Y112.859 E22.04659
G1 X124.343 Y112.372 E22.06625
G1 X123.899 Y111.979 E22.08597
G1 X123.373 Y111.704 E22.10571
G1 X122.786 Y111.563 E22.12579
G1 X122.193 Y111.566 E22.14551
G1 X121.621 Y111.711 E22.16514
G1 X121.098 Y111.989 E22.18484
G1 X120.657 Y112.386 E22.20457
G1 X120.325 Y112.873 E22.22418
G1 X120.118 Y113.425 E22.24378
G1 X120.05 Y114 E22.26304
G1 X120.12 Y114.587 E22.2827
G0 F3600 X120.023 Y114.61
G0 X118.869 Y136.537
G0 X118.769 Y136.537
G1 F1800 X118.768 Y73.464 E24.38052
G1 X118.768 Y73.264 E24.38717
G1 X118.968 Y73.264 E24.39148
G1 X178.241 Y73.265 E26.36291
G1 X178.242 Y136.736 E28.47396
G1 X118.969 Y136.737 E30.44539
G1 X118.769 Y136.737 E30.45204
G1 X118.769 Y136.537 E30.45635
G0 F3600 X118.869 Y136.537
G0 X161.773 Y114.54
G0 X161.87 Y114.563
G1 F1800 X161.8 Y115.15 E30.47601
G1 X161.87 Y115.737 E30.49567
G1 X162.082 Y116.292 E30.51543
G1 X162.418 Y116.778 E30.53509
G1 X162.861 Y117.171 E30.55478
G1 X163.384 Y117.445 E30.57442
G1 X163.959 Y117.587 E30.59412
G1 X164.551 Y117.587 E30.61381
G1 X165.125 Y117.445 E30.63348
G1 X165.648 Y117.171 E30.65311
G1 X166.093 Y116.778 E30.67286
G1 X166.428 Y116.291 E30.69252
G1 X166.639 Y115.738 E30.71221
G1 X166.71 Y115.15 E30.7319
G1 X166.639 Y114.562 E30.7516
G1 X166.428 Y114.009 E30.77129
G1 X166.093 Y113.522 E30.79095
G1 X165.648 Y113.129 E30.8107
G1 X165.125 Y112.855 E30.83033
G1 X164.551 Y112.713 E30.85
G1 X163.959 Y112.713 E30.86969
G1 X163.384 Y112.855 E30.88939
G1 X162.861 Y113.129 E30.90903
G1 X162.418 Y113.522 E30.92872
G1 X162.082 Y114.008 E30.94838
G1 X161.87 Y114.563 E30.96814
G0 F3600 X161.773 Y114.54
G0 X161.723 Y94.59
G0 X161.82 Y94.613
G1 F1800 X161.75 Y95.2 E30.9878
G1 X161.82 Y95.787 E31.00746
G1 X162.032 Y96.342 E31.02722
G1 X162.368 Y96.828 E31.04687
G1 X162.811 Y97.221 E31.06657
G1 X163.334 Y97.495 E31.08621
G1 X163.909 Y97.637 E31.10591
G1 X164.501 Y97.637 E31.1256
G1 X165.075 Y97.495 E31.14526
G1 X165.598 Y97.221 E31.1649
G1 X166.043 Y96.828 E31.18465
G1 X166.378 Y96.341 E31.20431
G1 X166.589 Y95.788 E31.22399
G1 X166.66 Y95.2 E31.24369
G1 X166.589 Y94.612 E31.26339
G1 X166.378 Y94.059 E31.28308
G1 X166.043 Y93.572 E31.30274
G1 X165.598 Y93.179 E31.32248
G1 X165.075 Y92.905 E31.34212
G1 X164.501 Y92.763 E31.36179
G1 X163.909 Y92.763 E31.38148
G1 X163.334 Y92.905 E31.40118
G1 X162.811 Y93.179 E31.42081
G1 X162.368 Y93.572 E31.44051
G1 X162.032 Y94.058 E31.46016
G1 X161.82 Y94.613 E31.47992
G0 F3600 X162.211 Y94.709
;TYPE:WALL-OUTER
G1 F1800 X162.153 Y95.2 E31.49637
G1 X162.211 Y95.691 E31.51281
G1 X162.388 Y96.154 E31.5293
G1 X162.669 Y96.561 E31.54575
G1 X163.04 Y96.889 E31.56222
G1 X163.477 Y97.118 E31.57863
G1 X163.958 Y97.237 E31.59511
G1 X164.452 Y97.237 E31.61154
G1 X164.932 Y97.118 E31.62799
G1 X165.37 Y96.889 E31.64443
G1 X165.741 Y96.561 E31.6609
G1 X166.021 Y96.154 E31.67733
G1 X166.198 Y95.691 E31.69381
G1 X166.257 Y95.2 E31.71026
G1 X166.198 Y94.709 E31.72671
G1 X166.021 Y94.246 E31.7432
G1 X165.741 Y93.839 E31.75963
G1 X165.37 Y93.511 E31.7761
G1 X164.932 Y93.282 E31.79254
G1 X164.452 Y93.163 E31.80898
G1 X163.958 Y93.163 E31.82541
G1 X163.477 Y93.282 E31.8419
G1 X163.04 Y93.511 E31.8583
G1 X162.669 Y93.839 E31.87478
G1 X162.388 Y94.246 E31.89122
G1 X162.211 Y94.709 E31.90771
G0 F3600 X162.188 Y94.907
G0 X161.692 Y94.848
G0 X161.766 Y114.6
G0 X162.261 Y114.659
G1 F1800 X162.203 Y115.15 E31.92416
G1 X162.261 Y115.641 E31.9406
G1 X162.438 Y116.104 E31.95709
G1 X162.719 Y116.511 E31.97354
G1 X163.09 Y116.839 E31.99001
G1 X163.527 Y117.068 E32.00642
G1 X164.008 Y117.187 E32.0229
G1 X164.502 Y117.187 E32.03933
G1 X164.982 Y117.068 E32.05577
G1 X165.42 Y116.839 E32.07221
G1 X165.791 Y116.511 E32.08868
G1 X166.071 Y116.104 E32.10512
G1 X166.248 Y115.641 E32.1216
G1 X166.307 Y115.15 E32.13805
G1 X166.248 Y114.659 E32.1545
G1 X166.071 Y114.196 E32.17098
G1 X165.791 Y113.789 E32.18742
G1 X165.42 Y113.461 E32.20389
G1 X164.982 Y113.232 E32.22032
G1 X164.502 Y113.113 E32.23677
G1 X164.008 Y113.113 E32.2532
G1 X163.527 Y113.232 E32.26968
G1 X163.09 Y113.461 E32.28609
G1 X162.719 Y113.789 E32.30256
G1 X162.438 Y114.196 E32.31901
G1 X162.261 Y114.659 E32.3355
G0 F3600 X162.238 Y114.857
G0 X161.742 Y114.798
G0 X136.675 Y112.724
G0 X136.031 Y112.566
G0 X135.446 Y112.259
G0 X134.951 Y111.82
G0 X134.575 Y111.275
G0 X134.34 Y110.657
G0 X134.318 Y110.472
G0 X134.274 Y109.389
G0 X134.769 Y109.449
G1 F1800 X134.703 Y110 E32.35396
G1 X134.769 Y110.551 E32.37241
G1 X134.967 Y111.07 E32.39089
G1 X135.282 Y111.527 E32.40935
G1 X135.697 Y111.895 E32.4278
G1 X136.188 Y112.152 E32.44623
G1 X136.728 Y112.285 E32.46473
G1 X137.282 Y112.285 E32.48315
G1 X137.821 Y112.152 E32.50162
G1 X138.312 Y111.895 E32.52005
G1 X138.728 Y111.527 E32.53853
G1 X139.043 Y111.07 E32.55699
G1 X139.241 Y110.551 E32.57546
G1 X139.307 Y110 E32.59392
G1 X139.241 Y109.449 E32.61238
G1 X139.043 Y108.93 E32.63085
G1 X138.728 Y108.473 E32.64931
G1 X138.312 Y108.105 E32.66779
G1 X137.821 Y107.848 E32.68622
G1 X137.282 Y107.715 E32.70468
G1 X136.728 Y107.715 E32.72311
G1 X136.188 Y107.848 E32.74161
G1 X135.697 Y108.105 E32.76004
G1 X135.282 Y108.473 E32.77849
G1 X134.967 Y108.93 E32.79695
G1 X134.769 Y109.449 E32.81542
G0 F3600 X134.746 Y109.647
G0 X134.25 Y109.588
G0 X122.188 Y111.527
G0 X121.607 Y111.674
G0 X121.076 Y111.957
G0 X120.627 Y112.36
G0 X120.29 Y112.855
G0 X120.08 Y113.416
G0 X120.041 Y113.746
G0 X120.044 Y114.667
G0 X120.511 Y114.491
G1 F1800 X120.688 Y114.954 E32.83191
G1 X120.969 Y115.361 E32.84836
G1 X121.34 Y115.689 E32.86483
G1 X121.777 Y115.918 E32.88124
G1 X122.258 Y116.037 E32.89772
G1 X122.752 Y116.037 E32.91415
G1 X123.232 Y115.918 E32.9306
G1 X123.67 Y115.689 E32.94704
G1 X124.041 Y115.361 E32.96351
G1 X124.321 Y114.954 E32.97994
G1 X124.498 Y114.491 E32.99643
G1 X124.557 Y114 E33.01287
G1 X124.498 Y113.509 E33.02932
G1 X124.321 Y113.046 E33.04581
G1 X124.041 Y112.639 E33.06224
G1 X123.67 Y112.311 E33.07871
G1 X123.231 Y112.081 E33.09519
G1 X122.74 Y111.963 E33.11199
G1 X122.244 Y111.966 E33.12849
G1 X121.766 Y112.087 E33.14489
G1 X121.329 Y112.319 E33.16134
G1 X120.961 Y112.651 E33.17783
G1 X120.683 Y113.059 E33.19425
G1 X120.51 Y113.52 E33.21062
G1 X120.453 Y114 E33.2267
G1 X120.511 Y114.491 E33.24315
G0 F3600 X120.582 Y114.678
G0 X120.115 Y114.854
G0 X118.839 Y136.667
G0 X118.369 Y136.877
G1 F1800 X118.368 Y73.122 E35.36365
G1 X118.368 Y73.06 E35.36571
G1 X118.429 Y72.917 E35.37088
G1 X118.563 Y72.864 E35.37567
G1 X118.625 Y72.864 E35.37773
G1 X178.452 Y72.865 E37.36759
G1 X178.529 Y72.894 E37.37032
G1 X178.574 Y72.921 E37.37207
G1 X178.594 Y72.944 E37.37308
G1 X178.641 Y73.059 E37.37722
G1 X178.642 Y136.936 E39.50177
G1 X178.579 Y137.083 E39.50709
G1 X178.446 Y137.136 E39.51185
G1 X118.625 Y137.137 E41.50151
G1 X118.564 Y137.137 E41.50354
G1 X118.431 Y137.084 E41.5083
G1 X118.369 Y136.938 E41.51358
G1 X118.369 Y136.877 E41.5156
G0 F3600 X118.369 Y136.677
G0 X118.869 Y136.677
G0 X124.927 Y114.597
G0 X124.947 Y114.428
G0 X125.705 Y92.7
G0 X126.205 Y92.7
G1 F1800 X126.205 Y107.3 E42.0012
G1 X147.805 Y107.3 E42.71962
G1 X147.805 Y92.7 E43.20522
G1 X126.205 Y92.7 E43.92364
G0 F3600 X126.205 Y92.9
G0 X125.705 Y92.9
G0 X124.927 Y85.403
G0 X124.713 Y84.841
G0 X124.372 Y84.346
G0 X124.118 Y84.12
G0 X123.348 Y83.596
G0 X123.231 Y84.081
G1 F1800 X122.738 Y83.963 E43.9405
G1 X122.243 Y83.966 E43.95696
G1 X121.764 Y84.088 E43.9734
G1 X121.328 Y84.32 E43.98983
G1 X120.96 Y84.652 E44.00631
G1 X120.683 Y85.059 E44.02269
G1 X120.51 Y85.521 E44.0391
G1 X120.453 Y86 E44.05514
G1 X120.511 Y86.491 E44.07159
G1 X120.688 Y86.954 E44.08807
G1 X120.969 Y87.361 E44.10452
G1 X121.34 Y87.689 E44.12099
G1 X121.777 Y87.918 E44.1374
G1 X122.258 Y88.037 E44.15388
G1 X122.752 Y88.037 E44.17031
G1 X123.232 Y87.918 E44.18676
G1 X123.67 Y87.689 E44.2032
G1 X124.041 Y87.361 E44.21967
G1 X124.321 Y86.954 E44.2361
G1 X124.498 Y86.491 E44.25259
G1 X124.557 Y86 E44.26904
G1 X124.498 Y85.509 E44.28548
G1 X124.321 Y85.046 E44.30197
G1 X124.041 Y84.639 E44.3184
G1 X123.67 Y84.311 E44.33487
G1 X123.231 Y84.081 E44.35136
G0 F3600 X123.037 Y84.035
G0 X123.154 Y83.549
G0 X134.274 Y89.389
G0 X134.769 Y89.449
G1 F1800 X134.703 Y90 E44.36981
G1 X134.769 Y90.551 E44.38827
G1 X134.967 Y91.07 E44.40675
G1 X135.282 Y91.527 E44.42521
G1 X135.697 Y91.895 E44.44365
G1 X136.188 Y92.152 E44.46209
G1 X136.728 Y92.285 E44.48058
G1 X137.282 Y92.285 E44.49901
G1 X137.821 Y92.152 E44.51748
G1 X138.312 Y91.895 E44.53591
G1 X138.728 Y91.527 E44.55438
G1 X139.043 Y91.07 E44.57284
G1 X139.241 Y90.551 E44.59132
G1 X139.307 Y90 E44.60977
G1 X139.241 Y89.449 E44.62823
