;FLAVOR:RepRap
;TIME:7270
;Generated with Cura_SteamEngine 2.3.1
M104 S200
M109 S200
; -- START GCODE --
G21                     ;set units to millimetres
G90                     ;set to absolute positioning
M106 S0                 ;set fan speed to zero (turned off)
G28 X0 Y0               ;move to the X/Y origin (Home)
G28 Z0                  ;move to the Z origin (Home)
G1 Z15.0 F1200          ;move Z to position 15.0 mm
G92 E0                  ;zero the extruded length
G1 E20 F200             ;extrude 20mm of feed stock
G92 E0                  ;zero the extruded length again
G1 F7200                ;set feedrate to 120 mm/s
; -- end of START GCODE --
;LAYER_COUNT:189
;LAYER:0
M107
G1 F1500 E-6.5
G0 F3600 X104.241 Y81.052 Z.2
;TYPE:SKIRT
G1 F1500 E0
G1 F1200 X104.666 Y80.54 E0.02213
G1 X110.917 Y74.433 E0.31279
G1 X111.397 Y74.047 E0.33328
G1 X118.932 Y69.099 E0.6331
G1 X119.428 Y68.833 E0.65182
G1 X128.111 Y65.112 E0.96602
G1 X128.613 Y64.944 E0.98362
G1 X137.325 Y62.82 E1.28187
G1 X137.379 Y62.807 E1.28372
G1 X138.049 Y62.656 E1.30656
G1 X138.502 Y62.588 E1.3218
G1 X148.25 Y61.82 E1.64702
G1 X148.749 Y61.82 E1.66362
G1 X157.824 Y62.526 E1.96637
G1 X158.015 Y62.546 E1.97276
G1 X159.09 Y62.695 E2.00885
G1 X159.409 Y62.756 E2.01965
G1 X168.388 Y64.945 E2.32704
G1 X168.888 Y65.112 E2.34458
G1 X177.496 Y68.793 E2.65596
G1 X177.992 Y69.059 E2.67468
G1 X185.605 Y74.05 E2.97745
G1 X186.085 Y74.435 E2.99792
G1 X192.266 Y80.461 E3.28503
G1 X192.691 Y80.971 E3.30711
G1 X197.339 Y87.91 E3.5849
G1 X197.672 Y88.555 E3.60904
G1 X200.501 Y96.008 E3.87418
G1 X200.642 Y96.494 E3.89101
G1 X200.684 Y96.748 E3.89958
G1 X201.664 Y104.612 E4.16316
G1 X201.687 Y105.117 E4.17997
G1 X201.665 Y105.399 E4.18938
G1 X200.714 Y113.133 E4.44855
G1 X200.613 Y113.628 E4.46535
G1 X200.532 Y113.872 E4.4739
G1 X197.685 Y121.417 E4.74212
G1 X197.353 Y122.063 E4.76628
G1 X192.759 Y128.947 E5.04155
G1 X192.333 Y129.46 E5.06372
G1 X186.082 Y135.567 E5.35439
G1 X185.603 Y135.953 E5.37485
G1 X178.07 Y140.901 E5.67461
G1 X177.569 Y141.169 E5.69351
G1 X168.778 Y144.921 E6.01141
G1 X168.275 Y145.088 E6.02904
G1 X159.044 Y147.323 E6.34494
G1 X158.548 Y147.403 E6.36165
G1 X149.451 Y148.135 E6.66519
G1 X149.281 Y148.144 E6.67086
G1 X148.247 Y148.172 E6.70526
G1 X147.894 Y148.162 E6.717
G1 X138.212 Y147.355 E7.04015
G1 X137.717 Y147.274 E7.05683
G1 X128.527 Y145.024 E7.37152
G1 X128.029 Y144.858 E7.38898
G1 X119.503 Y141.208 E7.69745
G1 X119.002 Y140.938 E7.71637
G1 X111.291 Y135.858 E8.0235
G1 X110.816 Y135.476 E8.04377
G1 X104.733 Y129.539 E8.32648
G1 X104.309 Y129.03 E8.34852
G1 X99.654 Y122.081 E8.62671
G1 X99.321 Y121.434 E8.65091
G1 X96.497 Y113.985 E8.91587
G1 X96.355 Y113.5 E8.93268
G1 X96.314 Y113.247 E8.9412
G1 X95.335 Y105.394 E9.20442
G1 X95.312 Y104.889 E9.22123
G1 X95.334 Y104.608 E9.23061
G1 X96.284 Y96.873 E9.48981
G1 X96.385 Y96.378 E9.50661
G1 X96.466 Y96.134 E9.51516
G1 X99.318 Y88.574 E9.7839
G1 X99.651 Y87.926 E9.80814
G1 X104.241 Y81.052 E10.08305
G1 F1500 E3.58305
G0 F3600 X106.336 Y82.464
G0 X107.42 Y83.188
G0 X107.466 Y83.226
G0 X107.39 Y83.163
;TYPE:WALL-INNER
G1 F1500 E10.08305
G1 F1200 X113.522 Y77.184 E10.36791
G1 X121.001 Y72.275 E10.66546
G1 X129.559 Y68.614 E10.97505
G1 X138.839 Y66.363 E11.29265
G1 X148.5 Y65.601 E11.61498
G1 X158.16 Y66.363 E11.93727
G1 X167.44 Y68.614 E12.25487
G1 X175.998 Y72.275 E12.56446
G1 X183.477 Y77.184 E12.86201
G1 X189.609 Y83.163 E13.14687
G1 X194.156 Y89.968 E13.41908
G1 X196.952 Y97.34 E13.68132
G1 X197.895 Y105 E13.93801
G1 X196.952 Y112.659 E14.19468
G1 X194.156 Y120.032 E14.45694
G1 X189.609 Y126.837 E14.72916
G1 X183.479 Y132.814 E15.01392
G1 X175.995 Y137.727 E15.31168
G1 X167.44 Y141.386 E15.62115
G1 X158.16 Y143.638 E15.93876
G1 X148.5 Y144.399 E16.26105
G1 X138.839 Y143.638 E16.58337
G1 X129.559 Y141.386 E16.90099
G1 X121.004 Y137.727 E17.21046
G1 X113.52 Y132.814 E17.50822
G1 X107.39 Y126.837 E17.79298
G1 X102.843 Y120.032 E18.0652
G1 X100.047 Y112.659 E18.32746
G1 X99.105 Y105 E18.58412
G1 X100.047 Y97.34 E18.84081
G1 X102.843 Y89.968 E19.10305
G1 X107.39 Y83.163 E19.37526
G0 F3600 X107.079 Y82.908
;TYPE:WALL-OUTER
G1 F1200 X113.27 Y76.872 E19.66285
G1 X120.815 Y71.92 E19.96302
G1 X129.433 Y68.233 E20.27478
G1 X138.776 Y65.967 E20.59454
G1 X148.5 Y65.2 E20.91897
G1 X158.223 Y65.967 E21.24336
G1 X167.566 Y68.233 E21.56312
G1 X176.184 Y71.92 E21.87489
G1 X183.729 Y76.872 E22.17506
G1 X189.92 Y82.908 E22.46264
G1 X194.514 Y89.783 E22.73766
G1 X197.343 Y97.243 E23.00302
G1 X198.298 Y105 E23.26296
G1 X197.343 Y112.756 E23.52288
G1 X194.514 Y120.217 E23.78827
G1 X189.92 Y127.092 E24.06329
G1 X183.729 Y133.128 E24.35087
G1 X176.184 Y138.081 E24.65106
G1 X167.566 Y141.767 E24.96281
G1 X158.223 Y144.034 E25.28258
G1 X148.5 Y144.8 E25.60697
G1 X138.776 Y144.034 E25.93139
G1 X129.433 Y141.767 E26.25116
G1 X120.815 Y138.081 E26.56291
G1 X113.27 Y133.128 E26.8631
G1 X107.079 Y127.092 E27.15069
G1 X102.485 Y120.217 E27.4257
G1 X99.656 Y112.756 E27.69109
G1 X98.702 Y105 E27.951
G1 X99.656 Y97.243 E28.21095
G1 X102.485 Y89.783 E28.47631
G1 X107.079 Y82.908 E28.75133
G0 F3600 X107.566 Y83.242
;TYPE:SKIN
G1 F1200 X165.898 Y141.574 E31.49508
G0 X165.968 Y141.644
G0 F3600 X166.353 Y141.463
G1 F1200 X107.852 Y82.962 E34.24679
G0 X107.782 Y82.892
G0 F3600 X108.139 Y82.683
G1 F1200 X166.809 Y141.353 E37.00645
G0 X166.879 Y141.423
G0 F3600 X167.264 Y141.243
G1 F1200 X108.425 Y82.404 E39.77406
G0 X108.355 Y82.334
G0 F3600 X108.712 Y82.124
G1 F1200 X167.675 Y141.088 E42.54752
G0 X167.745 Y141.158
G0 F3600 X168.071 Y140.918
G1 F1200 X108.998 Y81.845 E45.32613
G0 X108.928 Y81.775
G0 F3600 X109.284 Y81.566
G1 F1200 X168.467 Y140.748 E48.10989
G0 X168.537 Y140.818
G0 F3600 X168.864 Y140.579
G1 F1200 X109.571 Y81.286 E50.89885
G0 X109.501 Y81.216
G0 F3600 X109.857 Y81.007
G1 F1200 X169.26 Y140.41 E53.69299
G0 X169.33 Y140.48
G0 F3600 X169.656 Y140.24
G1 F1200 X110.143 Y80.728 E56.49228
G0 X110.073 Y80.658
G0 F3600 X110.43 Y80.448
G1 F1200 X170.052 Y140.071 E59.29673
G0 X170.122 Y140.141
G0 F3600 X170.448 Y139.901
G1 F1200 X110.716 Y80.169 E62.10635
G0 X110.646 Y80.099
G0 F3600 X111.003 Y79.89
G1 F1200 X170.844 Y139.732 E64.92111
G0 X170.914 Y139.802
G0 F3600 X171.241 Y139.563
G1 F1200 X111.289 Y79.611 E67.74106
G0 X111.219 Y79.541
G0 F3600 X111.575 Y79.331
G1 F1200 X171.637 Y139.393 E70.5662
G0 X171.707 Y139.463
G0 F3600 X172.033 Y139.223
G1 F1200 X111.862 Y79.052 E73.39646
G0 X111.792 Y78.982
G0 F3600 X112.148 Y78.773
G1 F1200 X172.43 Y139.054 E76.23191
G0 X172.5 Y139.124
G0 F3600 X172.826 Y138.884
G1 F1200 X112.434 Y78.493 E79.07254
G0 X112.364 Y78.423
G0 F3600 X112.722 Y78.215
G1 F1200 X173.222 Y138.715 E81.91828
G0 X173.292 Y138.785
G0 F3600 X173.618 Y138.546
G1 F1200 X113.008 Y77.935 E84.76921
G0 X112.938 Y77.865
G0 F3600 X113.294 Y77.656
G1 F1200 X174.014 Y138.376 E87.62529
G0 X174.084 Y138.446
G0 F3600 X174.41 Y138.206
G1 F1200 X113.581 Y77.377 E90.4865
G0 X113.511 Y77.307
G0 F3600 X113.912 Y77.142
G1 F1200 X174.807 Y138.037 E93.35082
G0 X174.877 Y138.107
G0 F3600 X175.203 Y137.868
G1 F1200 X114.253 Y76.918 E96.21772
G0 X114.183 Y76.848
G0 F3600 X114.595 Y76.694
G1 F1200 X175.599 Y137.698 E99.08716
G0 X175.669 Y137.768
G0 F3600 X175.984 Y137.517
G1 F1200 X114.936 Y76.47 E101.95865
G0 X114.866 Y76.4
G0 F3600 X115.278 Y76.245
G1 F1200 X176.325 Y137.293 E104.83013
G0 X176.395 Y137.363
G0 F3600 X176.667 Y137.069
G1 F1200 X115.619 Y76.021 E107.70164
G0 X115.549 Y75.951
G0 F3600 X115.961 Y75.797
G1 F1200 X177.008 Y136.844 E110.57311
G0 X177.078 Y136.914
G0 F3600 X177.35 Y136.62
G1 F1200 X116.302 Y75.573 E113.4446
G0 X116.232 Y75.503
G0 F3600 X116.644 Y75.349
G1 F1200 X177.691 Y136.396 E116.31606
G0 X177.761 Y136.466
G0 F3600 X178.033 Y136.172
G1 F1200 X116.986 Y75.125 E119.18752
G0 X116.916 Y75.055
G0 F3600 X117.328 Y74.901
G1 F1200 X178.374 Y135.948 E122.05896
G0 X178.444 Y136.018
G0 F3600 X178.716 Y135.724
G1 F1200 X117.669 Y74.677 E124.93043
G0 X117.599 Y74.607
G0 F3600 X118.011 Y74.453
G1 F1200 X179.057 Y135.5 E127.80187
G0 X179.127 Y135.57
G0 F3600 X179.399 Y135.275
G1 F1200 X118.352 Y74.229 E130.67331
G0 X118.282 Y74.159
G0 F3600 X118.694 Y74.005
G1 F1200 X179.74 Y135.051 E133.54472
G0 X179.81 Y135.121
G0 F3600 X180.082 Y134.827
G1 F1200 X119.035 Y73.78 E136.41619
G0 X118.965 Y73.71
G0 F3600 X119.377 Y73.556
G1 F1200 X180.423 Y134.603 E139.28763
G0 X180.493 Y134.673
G0 F3600 X180.765 Y134.379
G1 F1200 X119.718 Y73.332 E142.15909
G0 X119.648 Y73.262
G0 F3600 X120.06 Y73.108
G1 F1200 X181.107 Y134.155 E145.03055
G0 X181.177 Y134.225
G0 F3600 X181.449 Y133.931
G1 F1200 X120.401 Y72.884 E147.90204
G0 X120.331 Y72.814
G0 F3600 X120.743 Y72.66
G1 F1200 X181.79 Y133.707 E150.77351
G0 X181.86 Y133.777
G0 F3600 X182.132 Y133.483
G1 F1200 X121.084 Y72.436 E153.64499
G0 X121.014 Y72.366
G0 F3600 X121.48 Y72.266
G1 F1200 X182.473 Y133.259 E156.51392
G0 X182.543 Y133.329
G0 F3600 X182.815 Y133.035
G1 F1200 X121.877 Y72.097 E159.38025
G0 X121.807 Y72.027
G0 F3600 X122.273 Y71.927
G1 F1200 X183.156 Y132.81 E162.244
G0 X183.226 Y132.88
G0 F3600 X183.476 Y132.564
G1 F1200 X122.669 Y71.757 E165.10418
G0 X122.599 Y71.687
G0 F3600 X123.065 Y71.588
G1 F1200 X183.762 Y132.285 E167.95918
G0 X183.832 Y132.355
G0 F3600 X184.049 Y132.006
G1 F1200 X123.462 Y71.419 E170.80901
G0 X123.392 Y71.349
G0 F3600 X123.858 Y71.249
G1 F1200 X184.335 Y131.726 E173.65366
G0 X184.405 Y131.796
G0 F3600 X184.622 Y131.447
G1 F1200 X124.254 Y71.079 E176.49318
G0 X124.184 Y71.009
G0 F3600 X124.65 Y70.91
G1 F1200 X184.908 Y131.168 E179.32754
G0 X184.978 Y131.238
G0 F3600 X185.194 Y130.889
G1 F1200 X125.046 Y70.741 E182.15671
G0 X124.976 Y70.671
G0 F3600 X125.442 Y70.571
G1 F1200 X185.481 Y130.609 E184.98074
G0 X185.551 Y130.679
G0 F3600 X185.767 Y130.33
G1 F1200 X125.838 Y70.401 E187.79962
G0 X125.768 Y70.331
G0 F3600 X126.234 Y70.231
G1 F1200 X186.053 Y130.051 E190.61334
G0 X186.123 Y130.121
G0 F3600 X186.34 Y129.771
G1 F1200 X126.631 Y70.062 E193.42187
G0 X126.561 Y69.992
G0 F3600 X127.027 Y69.893
G1 F1200 X186.626 Y129.492 E196.22522
G0 X186.696 Y129.562
G0 F3600 X186.913 Y129.213
G1 F1200 X127.423 Y69.723 E199.02345
G0 X127.353 Y69.653
G0 F3600 X127.82 Y69.554
G1 F1200 X187.199 Y128.933 E201.81646
G0 X187.269 Y129.003
G0 F3600 X187.485 Y128.654
G1 F1200 X128.216 Y69.384 E204.60431
G0 X128.146 Y69.314
G0 F3600 X128.612 Y69.215
G1 F1200 X187.772 Y128.375 E207.38702
G0 X187.842 Y128.445
G0 F3600 X188.058 Y128.095
G1 F1200 X129.008 Y69.045 E210.16455
G0 X128.938 Y68.975
G0 F3600 X129.404 Y68.876
G1 F1200 X188.344 Y127.816 E212.93691
G0 X188.414 Y127.886
G0 F3600 X188.631 Y127.537
G1 F1200 X129.827 Y68.733 E215.70287
G0 X129.757 Y68.663
G0 F3600 X130.283 Y68.623
G1 F1200 X188.917 Y127.258 E218.46085
G0 X188.987 Y127.328
G0 F3600 X189.204 Y126.978
G1 F1200 X130.738 Y68.512 E221.21091
G0 X130.668 Y68.442
G0 F3600 X131.193 Y68.402
G1 F1200 X189.486 Y126.695 E223.95284
G0 X189.556 Y126.765
G0 F3600 X189.713 Y126.356
G1 F1200 X131.648 Y68.291 E226.68404
G0 X131.578 Y68.221
G0 F3600 X132.103 Y68.181
G1 F1200 X189.94 Y126.017 E229.40449
G0 X190.01 Y126.087
G0 F3600 X190.166 Y125.678
G1 F1200 X132.559 Y68.071 E232.11415
G0 X132.489 Y68.001
G0 F3600 X133.014 Y67.96
G1 F1200 X190.393 Y125.339 E234.81308
G0 X190.463 Y125.409
G0 F3600 X190.619 Y125
G1 F1200 X133.469 Y67.85 E237.50124
G0 X133.399 Y67.78
G0 F3600 X133.925 Y67.74
G1 F1200 X190.845 Y124.66 E240.17858
G0 X190.915 Y124.73
G0 F3600 X191.072 Y124.322
G1 F1200 X134.379 Y67.629 E242.84525
G0 X134.309 Y67.559
G0 F3600 X134.835 Y67.518
G1 F1200 X191.299 Y123.982 E245.50114
G0 X191.369 Y124.052
G0 F3600 X191.526 Y123.643
G1 F1200 X135.29 Y67.408 E248.14629
G0 X135.22 Y67.338
G0 F3600 X135.746 Y67.298
G1 F1200 X191.752 Y123.304 E250.78064
G0 X191.822 Y123.374
G0 F3600 X191.979 Y122.965
G1 F1200 X136.201 Y67.187 E253.40426
G0 X136.131 Y67.117
G0 F3600 X136.656 Y67.077
G1 F1200 X192.205 Y122.626 E256.01712
G0 X192.275 Y122.696
G0 F3600 X192.432 Y122.287
G1 F1200 X137.111 Y66.966 E258.61925
G0 X137.041 Y66.896
G0 F3600 X137.566 Y66.856
G1 F1200 X192.659 Y121.948 E261.21063
G0 X192.729 Y122.018
G0 F3600 X192.886 Y121.609
G1 F1200 X138.022 Y66.745 E263.79126
G0 X137.952 Y66.675
G0 F3600 X138.477 Y66.635
G1 F1200 X193.112 Y121.27 E266.36113
G0 X193.182 Y121.34
G0 F3600 X193.339 Y120.931
G1 F1200 X138.942 Y66.535 E268.91977
G0 X138.872 Y66.465
G0 F3600 X139.467 Y66.494
G1 F1200 X193.565 Y120.592 E271.46438
G0 X193.635 Y120.662
G0 F3600 X193.791 Y120.252
G1 F1200 X139.991 Y66.452 E273.99496
G0 X139.921 Y66.382
G0 F3600 X140.515 Y66.41
G1 F1200 X194.011 Y119.906 E276.51125
G0 X194.081 Y119.976
G0 F3600 X194.166 Y119.496
G1 F1200 X141.04 Y66.369 E279.01016
G0 X140.97 Y66.299
G0 F3600 X141.564 Y66.328
G1 F1200 X194.322 Y119.085 E281.49171
G0 X194.392 Y119.155
G0 F3600 X194.477 Y118.675
G1 F1200 X142.088 Y66.287 E283.9559
G0 X142.018 Y66.217
G0 F3600 X142.612 Y66.245
G1 F1200 X194.633 Y118.265 E286.40279
G0 X194.703 Y118.335
G0 F3600 X194.788 Y117.855
G1 F1200 X143.137 Y66.204 E288.83229
G0 X143.067 Y66.134
G0 F3600 X143.661 Y66.162
G1 F1200 X194.944 Y117.445 E291.24449
G0 X195.014 Y117.515
G0 F3600 X195.099 Y117.035
G1 F1200 X144.186 Y66.121 E293.6393
G0 X144.116 Y66.051
G0 F3600 X144.71 Y66.079
G1 F1200 X195.255 Y116.625 E296.01681
G0 X195.325 Y116.695
G0 F3600 X195.411 Y116.215
G1 F1200 X145.234 Y66.038 E298.37698
G0 X145.164 Y65.968
G0 F3600 X145.758 Y65.997
G1 F1200 X195.566 Y115.804 E300.71977
G0 X195.636 Y115.874
G0 F3600 X195.722 Y115.394
G1 F1200 X146.283 Y65.956 E303.04521
G0 X146.213 Y65.886
G0 F3600 X146.807 Y65.914
G1 F1200 X195.877 Y114.984 E305.35331
G0 X195.947 Y115.054
G0 F3600 X196.033 Y114.574
G1 F1200 X147.332 Y65.873 E307.64406
G0 X147.262 Y65.803
G0 F3600 X147.856 Y65.831
G1 F1200 X196.188 Y114.164 E309.91747
G0 X196.258 Y114.234
G0 F3600 X196.344 Y113.754
G1 F1200 X148.38 Y65.79 E312.17355
G0 X148.31 Y65.72
G0 F3600 X148.973 Y65.818
G1 F1200 X196.5 Y113.344 E314.40905
G0 X196.57 Y113.414
G0 F3600 X196.655 Y112.934
G1 F1200 X149.588 Y65.866 E316.62296
G0 X149.518 Y65.796
G0 F3600 X150.202 Y65.915
G1 F1200 X196.789 Y112.502 E318.81427
G0 X196.859 Y112.572
G0 F3600 X196.851 Y111.998
G1 F1200 X150.816 Y65.963 E320.97962
G0 X150.746 Y65.893
G0 F3600 X151.431 Y66.012
G1 F1200 X196.913 Y111.495 E323.11897
G0 X196.983 Y111.565
G0 F3600 X196.975 Y110.991
G1 F1200 X152.044 Y66.06 E325.23239
G0 X151.974 Y65.99
G0 F3600 X152.659 Y66.109
G1 F1200 X197.037 Y110.487 E327.31979
G0 X197.107 Y110.557
G0 F3600 X197.099 Y109.984
G1 F1200 X153.273 Y66.157 E329.38126
G0 X153.203 Y66.087
G0 F3600 X153.887 Y66.206
G1 F1200 X197.161 Y109.479 E331.41671
G0 X197.231 Y109.549
G0 F3600 X197.223 Y108.976
G1 F1200 X154.501 Y66.254 E333.42622
G0 X154.431 Y66.184
G0 F3600 X155.115 Y66.303
G1 F1200 X197.284 Y108.472 E335.40972
G0 X197.354 Y108.542
G0 F3600 X197.347 Y107.968
G1 F1200 X155.729 Y66.351 E337.36728
G0 X155.659 Y66.281
G0 F3600 X156.344 Y66.4
G1 F1200 X197.409 Y107.465 E339.29885
G0 X197.479 Y107.535
G0 F3600 X197.47 Y106.961
G1 F1200 X156.958 Y66.448 E341.20444
G0 X156.888 Y66.378
G0 F3600 X157.572 Y66.497
G1 F1200 X197.533 Y106.457 E343.08406
G0 X197.603 Y106.527
G0 F3600 X197.595 Y105.954
G1 F1200 X158.198 Y66.557 E344.93717
G0 X158.128 Y66.487
G0 F3600 X158.945 Y66.738
G1 F1200 X197.656 Y105.45 E346.75804
G0 X197.726 Y105.52
G0 F3600 X197.703 Y104.931
G1 F1200 X159.692 Y66.919 E348.54599
G0 X159.622 Y66.849
G0 F3600 X160.438 Y67.1
G1 F1200 X197.624 Y104.286 E350.2951
G0 X197.694 Y104.356
G0 F3600 X197.545 Y103.641
G1 F1200 X161.185 Y67.281 E352.00536
