;FLAVOR:RepRap
;TIME:5476
;Generated with Cura_SteamEngine 2.3.1
M104 S200
M109 S200
; -- START GCODE --
G21                     ;set units to millimetres
G90                     ;set to absolute positioning
M106 S0                 ;set fan speed to zero (turned off)
G28 X0 Y0               ;move to the X/Y origin (Home)
G28 Z0                  ;move to the Z origin (Home)
G1 Z15.0 F1200          ;move Z to position 15.0 mm
G92 E0                  ;zero the extruded length
G1 E20 F200             ;extrude 20mm of feed stock
G92 E0                  ;zero the extruded length again
G1 F7200                ;set feedrate to 120 mm/s
; -- end of START GCODE --
;LAYER_COUNT:188
;LAYER:0
M107
G1 F1500 E-6.5
G0 F2400 X104.245 Y81.049 Z.2
;TYPE:SKIRT
G1 F1500 E0
G1 F1200 X104.67 Y80.538 E0.02211
G1 X110.919 Y74.433 E0.31267
G1 X111.399 Y74.047 E0.33316
G1 X118.939 Y69.096 E0.63317
G1 X119.435 Y68.83 E0.65189
G1 X128.093 Y65.12 E0.96518
G1 X128.609 Y64.949 E0.98326
G1 X138.281 Y62.637 E1.31402
G1 X138.776 Y62.559 E1.33068
G1 X148.247 Y61.821 E1.64665
G1 X148.744 Y61.821 E1.66318
G1 X157.778 Y62.523 E1.96455
G1 X157.997 Y62.547 E1.97188
G1 X159.245 Y62.731 E2.01384
G1 X159.54 Y62.789 E2.02384
G1 X168.482 Y64.98 E2.33005
G1 X168.979 Y65.146 E2.34748
G1 X177.491 Y68.79 E2.65544
G1 X177.987 Y69.056 E2.67416
G1 X185.612 Y74.056 E2.97743
G1 X186.091 Y74.441 E2.99787
G1 X192.267 Y80.462 E3.28475
G1 X192.692 Y80.972 E3.30683
G1 X197.34 Y87.91 E3.58458
G1 X197.673 Y88.556 E3.60876
G1 X200.5 Y96.005 E3.87375
G1 X200.641 Y96.49 E3.89055
G1 X200.683 Y96.744 E3.89912
G1 X201.664 Y104.612 E4.16283
G1 X201.687 Y105.117 E4.17965
G1 X201.665 Y105.398 E4.18902
G1 X200.715 Y113.128 E4.44806
G1 X200.614 Y113.624 E4.46489
G1 X200.533 Y113.868 E4.47344
G1 X197.677 Y121.435 E4.74245
G1 X197.344 Y122.082 E4.76665
G1 X192.76 Y128.947 E5.04121
G1 X192.335 Y129.459 E5.06334
G1 X186.086 Y135.563 E5.35388
G1 X185.607 Y135.949 E5.37435
G1 X178.065 Y140.903 E5.67447
G1 X177.568 Y141.169 E5.69322
G1 X168.892 Y144.887 E6.00716
G1 X168.371 Y145.06 E6.02542
G1 X158.619 Y147.374 E6.35878
G1 X158.116 Y147.451 E6.37571
G1 X148.44 Y148.166 E6.69841
G1 X147.94 Y148.164 E6.71504
G1 X138.246 Y147.361 E7.03857
G1 X137.753 Y147.281 E7.05518
G1 X128.619 Y145.056 E7.36786
G1 X128.119 Y144.89 E7.38538
G1 X119.509 Y141.211 E7.6968
G1 X119.011 Y140.944 E7.71559
G1 X111.383 Y135.94 E8.01902
G1 X110.904 Y135.555 E8.03946
G1 X104.736 Y129.54 E8.32601
G1 X104.312 Y129.03 E8.34807
G1 X99.659 Y122.087 E8.62606
G1 X99.325 Y121.44 E8.65027
G1 X96.498 Y113.984 E8.91549
G1 X96.357 Y113.499 E8.93229
G1 X96.315 Y113.246 E8.94082
G1 X95.336 Y105.39 E9.20413
G1 X95.313 Y104.885 E9.22094
G1 X95.335 Y104.604 E9.23032
G1 X96.286 Y96.869 E9.48952
G1 X96.387 Y96.373 E9.50636
G1 X96.468 Y96.129 E9.51491
G1 X99.324 Y88.565 E9.78382
G1 X99.657 Y87.917 E9.80806
G1 X104.245 Y81.049 E10.08277
G1 F1500 E3.58277
G0 F2400 X106.338 Y82.464
G0 X107.422 Y83.188
G0 X107.468 Y83.226
G0 X107.392 Y83.163
;TYPE:WALL-INNER
G1 F1500 E10.08277
G1 F1200 X113.522 Y77.186 E10.36753
G1 X121.005 Y72.274 E10.66524
G1 X129.56 Y68.615 E10.97472
G1 X138.839 Y66.364 E11.29229
G1 X148.5 Y65.601 E11.61462
G1 X158.16 Y66.364 E11.93691
G1 X167.441 Y68.615 E12.25455
G1 X175.995 Y72.274 E12.56399
G1 X183.478 Y77.186 E12.86171
G1 X189.609 Y83.163 E13.14649
G1 X194.157 Y89.97 E13.41878
G1 X196.952 Y97.34 E13.68094
G1 X197.895 Y105 E13.93764
G1 X196.952 Y112.659 E14.1943
G1 X194.157 Y120.031 E14.45652
G1 X189.609 Y126.837 E14.72878
G1 X183.478 Y132.814 E15.01357
G1 X175.995 Y137.727 E15.3113
G1 X167.441 Y141.385 E15.62073
G1 X158.16 Y143.637 E15.93838
G1 X148.5 Y144.399 E16.26067
G1 X138.839 Y143.637 E16.58299
G1 X129.56 Y141.385 E16.90057
G1 X121.005 Y137.727 E17.21003
G1 X113.522 Y132.814 E17.50777
G1 X107.392 Y126.837 E17.79253
G1 X102.843 Y120.031 E18.0648
G1 X100.048 Y112.659 E18.32703
G1 X99.105 Y105 E18.58369
G1 X100.048 Y97.34 E18.84039
G1 X102.843 Y89.97 E19.10255
G1 X107.392 Y83.163 E19.37485
G0 F2400 X107.081 Y82.908
;TYPE:WALL-OUTER
G1 F1200 X113.272 Y76.872 E19.66244
G1 X120.816 Y71.92 E19.96258
G1 X129.434 Y68.234 E20.27433
G1 X138.776 Y65.968 E20.59406
G1 X148.5 Y65.2 E20.91849
G1 X158.223 Y65.968 E21.24288
G1 X167.567 Y68.234 E21.56267
G1 X176.184 Y71.92 E21.8744
G1 X183.728 Y76.872 E22.17454
G1 X189.92 Y82.908 E22.46215
G1 X194.515 Y89.785 E22.73724
G1 X197.343 Y97.243 E23.00252
G1 X198.298 Y105 E23.26247
G1 X197.343 Y112.756 E23.52239
G1 X194.515 Y120.216 E23.78774
G1 X189.92 Y127.092 E24.0628
G1 X183.728 Y133.128 E24.35041
G1 X176.184 Y138.081 E24.65057
G1 X167.567 Y141.766 E24.96228
G1 X158.223 Y144.033 E25.28207
G1 X148.5 Y144.8 E25.60647
G1 X138.776 Y144.033 E25.93089
G1 X129.434 Y141.766 E26.25063
G1 X120.816 Y138.081 E26.56237
G1 X113.272 Y133.128 E26.86253
G1 X107.081 Y127.092 E27.15011
G1 X102.485 Y120.216 E27.42519
G1 X99.657 Y112.756 E27.69054
G1 X98.702 Y105 E27.95046
G1 X99.657 Y97.243 E28.2104
G1 X102.485 Y89.785 E28.47569
G1 X107.081 Y82.908 E28.7508
G0 F2400 X107.567 Y83.243
;TYPE:SKIN
G1 F1200 X165.898 Y141.574 E31.49451
G0 X165.968 Y141.644
G0 F2400 X165.443 Y141.684
G1 F1200 X107.332 Y83.573 E34.22788
G0 X107.262 Y83.503
G0 F2400 X107.106 Y83.913
G1 F1200 X164.987 Y141.794 E36.95042
G0 X165.057 Y141.864
G0 F2400 X164.532 Y141.905
G1 F1200 X106.879 Y84.251 E39.66226
G0 X106.809 Y84.181
G0 F2400 X106.652 Y84.591
G1 F1200 X164.077 Y142.016 E42.36336
G0 X164.147 Y142.086
G0 F2400 X163.622 Y142.126
G1 F1200 X106.426 Y84.93 E45.05369
G0 X106.356 Y84.86
G0 F2400 X106.199 Y85.269
G1 F1200 X163.167 Y142.236 E47.73326
G0 X163.237 Y142.306
G0 F2400 X162.711 Y142.346
G1 F1200 X105.973 Y85.608 E50.40204
G0 X105.903 Y85.538
G0 F2400 X105.746 Y85.947
G1 F1200 X162.256 Y142.457 E53.0601
G0 X162.326 Y142.527
G0 F2400 X161.801 Y142.568
G1 F1200 X105.52 Y86.286 E55.70741
G0 X105.45 Y86.216
G0 F2400 X105.293 Y86.625
G1 F1200 X161.346 Y142.678 E58.34397
G0 X161.416 Y142.748
G0 F2400 X160.89 Y142.788
G1 F1200 X105.066 Y86.964 E60.96976
G0 X104.996 Y86.894
G0 F2400 X104.839 Y87.303
G1 F1200 X160.436 Y142.899 E63.58485
G0 X160.506 Y142.969
G0 F2400 X159.98 Y143.01
G1 F1200 X104.613 Y87.643 E66.18914
G0 X104.543 Y87.573
G0 F2400 X104.386 Y87.981
G1 F1200 X159.525 Y143.12 E68.78271
G0 X159.595 Y143.19
G0 F2400 X159.07 Y143.23
G1 F1200 X104.16 Y88.321 E71.36549
G0 X104.09 Y88.251
G0 F2400 X103.933 Y88.659
G1 F1200 X158.614 Y143.341 E73.93754
G0 X158.684 Y143.411
G0 F2400 X158.159 Y143.452
G1 F1200 X103.707 Y88.999 E76.49882
G0 X103.637 Y88.929
G0 F2400 X103.48 Y89.337
G1 F1200 X157.639 Y143.497 E79.04631
G0 X157.709 Y143.567
G0 F2400 X157.115 Y143.539
G1 F1200 X103.253 Y89.677 E81.57982
G0 X103.183 Y89.607
G0 F2400 X103.026 Y90.016
G1 F1200 X156.59 Y143.58 E84.0993
G0 X156.66 Y143.65
G0 F2400 X156.066 Y143.621
G1 F1200 X102.864 Y90.419 E86.60176
G0 X102.794 Y90.349
G0 F2400 X102.708 Y90.829
G1 F1200 X155.542 Y143.662 E89.08689
G0 X155.612 Y143.732
G0 F2400 X155.018 Y143.704
G1 F1200 X102.553 Y91.239 E91.55468
G0 X102.483 Y91.169
G0 F2400 X102.397 Y91.649
G1 F1200 X154.493 Y143.745 E94.00512
G0 X154.563 Y143.815
G0 F2400 X153.969 Y143.787
G1 F1200 X102.241 Y92.059 E96.43824
G0 X102.171 Y91.989
G0 F2400 X102.086 Y92.469
G1 F1200 X153.444 Y143.828 E98.85399
G0 X153.514 Y143.898
G0 F2400 X152.92 Y143.869
G1 F1200 X101.93 Y92.879 E101.2524
G0 X101.86 Y92.809
G0 F2400 X101.775 Y93.29
G1 F1200 X152.396 Y143.911 E103.63346
G0 X152.466 Y143.981
G0 F2400 X151.871 Y143.952
G1 F1200 X101.619 Y93.7 E105.99716
G0 X101.549 Y93.63
G0 F2400 X101.464 Y94.11
G1 F1200 X151.347 Y143.993 E108.3435
G0 X151.417 Y144.063
G0 F2400 X150.823 Y144.034
G1 F1200 X101.308 Y94.52 E110.67251
G0 X101.238 Y94.45
G0 F2400 X101.153 Y94.93
G1 F1200 X150.299 Y144.076 E112.98419
G0 X150.369 Y144.146
G0 F2400 X149.774 Y144.117
G1 F1200 X100.997 Y95.34 E115.27851
G0 X100.927 Y95.27
G0 F2400 X100.841 Y95.75
G1 F1200 X149.25 Y144.159 E117.55552
G0 X149.32 Y144.229
G0 F2400 X148.725 Y144.2
G1 F1200 X100.686 Y96.16 E119.81515
G0 X100.616 Y96.09
G0 F2400 X100.53 Y96.57
G1 F1200 X148.15 Y144.191 E122.05507
G0 X148.22 Y144.261
G0 F2400 X147.536 Y144.142
G1 F1200 X100.375 Y96.981 E124.27338
G0 X100.305 Y96.911
G0 F2400 X100.221 Y97.393
G1 F1200 X146.922 Y144.094 E126.47006
G0 X146.992 Y144.164
G0 F2400 X146.308 Y144.045
G1 F1200 X100.159 Y97.896 E128.64076
G0 X100.089 Y97.826
G0 F2400 X100.097 Y98.4
G1 F1200 X145.693 Y143.996 E130.78546
G0 X145.763 Y144.066
G0 F2400 X145.079 Y143.948
G1 F1200 X100.035 Y98.904 E132.90419
G0 X99.965 Y98.834
G0 F2400 X99.973 Y99.407
G1 F1200 X144.465 Y143.899 E134.99696
G0 X144.535 Y143.969
G0 F2400 X143.851 Y143.851
G1 F1200 X99.912 Y99.912 E137.06371
G0 X99.842 Y99.842
G0 F2400 X99.849 Y100.415
G1 F1200 X143.237 Y143.802 E139.10453
G0 X143.307 Y143.872
G0 F2400 X142.623 Y143.754
G1 F1200 X99.788 Y100.919 E141.11936
G0 X99.718 Y100.849
G0 F2400 X99.726 Y101.423
G1 F1200 X142.008 Y143.706 E143.1082
G0 X142.078 Y143.776
G0 F2400 X141.395 Y143.657
G1 F1200 X99.663 Y101.926 E145.07112
G0 X99.593 Y101.856
G0 F2400 X99.602 Y102.43
G1 F1200 X140.78 Y143.609 E147.00803
G0 X140.85 Y143.679
G0 F2400 X140.166 Y143.561
G1 F1200 X99.54 Y102.934 E148.91897
G0 X99.47 Y102.864
G0 F2400 X99.478 Y103.438
G1 F1200 X139.552 Y143.512 E150.80393
G0 X139.622 Y143.582
G0 F2400 X138.938 Y143.464
G1 F1200 X99.416 Y103.941 E152.66295
G0 X99.346 Y103.871
G0 F2400 X99.354 Y104.446
G1 F1200 X138.206 Y143.298 E154.49043
G0 X138.276 Y143.368
G0 F2400 X137.46 Y143.116
G1 F1200 X99.292 Y104.949 E156.28571
G0 X99.222 Y104.879
G0 F2400 X99.358 Y105.58
G1 F1200 X136.712 Y142.935 E158.04275
G0 X136.782 Y143.005
G0 F2400 X135.966 Y142.754
G1 F1200 X99.437 Y106.225 E159.76096
G0 X99.367 Y106.155
G0 F2400 X99.516 Y106.87
G1 F1200 X135.218 Y142.572 E161.44028
G0 X135.288 Y142.642
G0 F2400 X134.471 Y142.391
G1 F1200 X99.595 Y107.515 E163.08074
G0 X99.525 Y107.445
G0 F2400 X99.675 Y108.161
G1 F1200 X133.725 Y142.21 E164.68232
G0 X133.795 Y142.28
G0 F2400 X132.977 Y142.028
G1 F1200 X99.755 Y108.806 E166.24498
G0 X99.685 Y108.736
G0 F2400 X99.834 Y109.45
G1 F1200 X132.231 Y141.847 E167.76884
G0 X132.301 Y141.917
G0 F2400 X131.483 Y141.666
G1 F1200 X99.913 Y110.095 E169.25382
G0 X99.843 Y110.025
G0 F2400 X99.992 Y110.74
G1 F1200 X130.736 Y141.484 E170.69992
G0 X130.806 Y141.554
G0 F2400 X129.989 Y141.303
G1 F1200 X100.071 Y111.385 E172.10717
G0 X100.001 Y111.315
G0 F2400 X100.151 Y112.031
G1 F1200 X129.121 Y141 E173.46981
G0 X129.191 Y141.07
G0 F2400 X128.132 Y140.577
G1 F1200 X100.255 Y112.7 E174.78106
G0 X100.185 Y112.63
G0 F2400 X100.6 Y113.611
G1 F1200 X127.144 Y140.154 E176.02958
G0 X127.214 Y140.224
G0 F2400 X126.155 Y139.732
G1 F1200 X100.946 Y114.523 E177.21533
G0 X100.876 Y114.453
G0 F2400 X101.292 Y115.434
G1 F1200 X125.167 Y139.309 E178.33834
G0 X125.237 Y139.379
G0 F2400 X124.179 Y138.887
G1 F1200 X101.638 Y116.345 E179.39862
G0 X101.568 Y116.275
G0 F2400 X101.983 Y117.256
G1 F1200 X123.19 Y138.464 E180.39616
G0 X123.26 Y138.534
G0 F2400 X122.202 Y138.041
G1 F1200 X102.328 Y118.168 E181.33095
G0 X102.258 Y118.098
G0 F2400 X102.674 Y119.079
G1 F1200 X121.213 Y137.618 E182.20297
G0 X121.283 Y137.688
G0 F2400 X119.65 Y136.62
G1 F1200 X103.057 Y120.028 E182.98343
G0 X102.987 Y119.958
G0 F2400 X104.197 Y121.734
G1 F1200 X118.004 Y135.54 E183.63284
G0 X118.074 Y135.61
G0 F2400 X116.358 Y134.46
G1 F1200 X105.337 Y123.439 E184.15124
G0 X105.267 Y123.369
G0 F2400 X106.477 Y125.145
G1 F1200 X114.712 Y133.38 E184.53859
G0 X114.782 Y133.45
G0 F2400 X107.854 Y82.964
G1 F1200 X166.353 Y141.463 E187.2902
G0 X166.423 Y141.533
G0 F2400 X166.808 Y141.352
G1 F1200 X108.14 Y82.684 E190.04976
G0 X108.07 Y82.614
G0 F2400 X108.427 Y82.405
G1 F1200 X167.263 Y141.242 E192.81725
G0 X167.333 Y141.312
G0 F2400 X167.674 Y141.087
G1 F1200 X108.713 Y82.126 E195.59059
G0 X108.643 Y82.056
G0 F2400 X108.999 Y81.846
G1 F1200 X168.071 Y140.918 E198.36916
G0 X168.141 Y140.988
G0 F2400 X168.467 Y140.748
G1 F1200 X109.286 Y81.567 E201.15285
G0 X109.216 Y81.497
G0 F2400 X109.572 Y81.288
G1 F1200 X168.863 Y140.579 E203.94172
G0 X168.933 Y140.649
G0 F2400 X169.26 Y140.41
G1 F1200 X109.858 Y81.008 E206.73581
G0 X109.788 Y80.938
G0 F2400 X110.145 Y80.729
G1 F1200 X169.656 Y140.24 E209.53502
G0 X169.726 Y140.31
G0 F2400 X170.052 Y140.07
G1 F1200 X110.431 Y80.45 E212.33939
G0 X110.361 Y80.38
G0 F2400 X110.718 Y80.171
G1 F1200 X170.448 Y139.901 E215.1489
G0 X170.518 Y139.971
G0 F2400 X170.844 Y139.732
G1 F1200 X111.004 Y79.891 E217.96362
G0 X110.934 Y79.821
G0 F2400 X111.29 Y79.612
G1 F1200 X171.241 Y139.563 E220.78353
G0 X171.311 Y139.633
G0 F2400 X171.637 Y139.393
G1 F1200 X111.577 Y79.333 E223.60857
G0 X111.507 Y79.263
G0 F2400 X111.863 Y79.053
G1 F1200 X172.033 Y139.223 E226.43878
G0 X172.103 Y139.293
G0 F2400 X172.43 Y139.054
G1 F1200 X112.149 Y78.774 E229.27419
G0 X112.079 Y78.704
G0 F2400 X112.436 Y78.495
G1 F1200 X172.826 Y138.884 E232.11473
G0 X172.896 Y138.954
G0 F2400 X173.222 Y138.715
G1 F1200 X112.722 Y78.215 E234.96046
G0 X112.652 Y78.145
G0 F2400 X113.009 Y77.936
G1 F1200 X173.618 Y138.546 E237.81135
G0 X173.688 Y138.616
G0 F2400 X174.014 Y138.376
G1 F1200 X113.295 Y77.657 E240.66738
G0 X113.225 Y77.587
G0 F2400 X113.581 Y77.377
G1 F1200 X174.41 Y138.206 E243.52859
G0 X174.48 Y138.276
G0 F2400 X174.807 Y138.037
G1 F1200 X113.912 Y77.143 E246.39288
G0 X113.842 Y77.073
G0 F2400 X114.254 Y76.919
G1 F1200 X175.203 Y137.868 E249.25974
G0 X175.273 Y137.938
G0 F2400 X175.599 Y137.698
G1 F1200 X114.595 Y76.694 E252.12918
G0 X114.525 Y76.624
G0 F2400 X114.937 Y76.47
G1 F1200 X175.984 Y137.517 E255.00064
G0 X176.054 Y137.587
G0 F2400 X176.325 Y137.293
G1 F1200 X115.278 Y76.246 E257.87211
G0 X115.208 Y76.176
G0 F2400 X115.621 Y76.023
G1 F1200 X176.667 Y137.069 E260.74352
G0 X176.737 Y137.139
G0 F2400 X177.008 Y136.844
G1 F1200 X115.962 Y75.799 E263.61492
G0 X115.892 Y75.729
G0 F2400 X116.304 Y75.574
G1 F1200 X177.35 Y136.62 E266.48633
G0 X177.42 Y136.69
G0 F2400 X177.691 Y136.396
G1 F1200 X116.645 Y75.35 E269.35775
G0 X116.575 Y75.28
G0 F2400 X116.987 Y75.126
G1 F1200 X178.033 Y136.172 E272.22917
G0 X178.103 Y136.242
G0 F2400 X178.374 Y135.948
G1 F1200 X117.328 Y74.902 E275.10058
G0 X117.258 Y74.832
G0 F2400 X117.67 Y74.678
G1 F1200 X178.716 Y135.724 E277.972
G0 X178.786 Y135.794
G0 F2400 X179.057 Y135.5
G1 F1200 X118.011 Y74.454 E280.84342
G0 X117.941 Y74.384
G0 F2400 X118.353 Y74.229
G1 F1200 X179.399 Y135.275 E283.71483
G0 X179.469 Y135.345
G0 F2400 X179.74 Y135.051
G1 F1200 X118.694 Y74.005 E286.58625
G0 X118.624 Y73.935
G0 F2400 X119.036 Y73.781
G1 F1200 X180.082 Y134.827 E289.45767
G0 X180.152 Y134.897
G0 F2400 X180.423 Y134.603
G1 F1200 X119.378 Y73.557 E292.32906
G0 X119.308 Y73.487
G0 F2400 X119.719 Y73.333
G1 F1200 X180.765 Y134.379 E295.20048
G0 X180.835 Y134.449
G0 F2400 X181.107 Y134.155
G1 F1200 X120.061 Y73.109 E298.07189
G0 X119.991 Y73.039
G0 F2400 X120.403 Y72.885
G1 F1200 X181.448 Y133.93 E300.94326
G0 X181.518 Y134
G0 F2400 X181.79 Y133.706
G1 F1200 X120.744 Y72.661 E303.81465
G0 X120.674 Y72.591
G0 F2400 X121.086 Y72.437
G1 F1200 X182.131 Y133.482 E306.68602
G0 X182.201 Y133.552
G0 F2400 X182.473 Y133.258
G1 F1200 X121.481 Y72.267 E309.55488
G0 X121.411 Y72.197
G0 F2400 X121.878 Y72.098
G1 F1200 X182.814 Y133.034 E312.42112
G0 X182.884 Y133.104
G0 F2400 X183.156 Y132.81
G1 F1200 X122.274 Y71.928 E315.28482
G0 X122.204 Y71.858
G0 F2400 X122.67 Y71.758
G1 F1200 X183.475 Y132.564 E318.14493
G0 X183.545 Y132.634
G0 F2400 X183.762 Y132.284
G1 F1200 X123.066 Y71.588 E320.99988
G0 X122.996 Y71.518
G0 F2400 X123.462 Y71.419
