;FLAVOR:Marlin
;TIME:2613
;Filament used: 1.21848m
;Layer height: 0.2
;Generated with Cura_SteamEngine 3.3.0-BETA
M104 S200
M109 S200
M82 ;absolute extrusion mode
; -- START GCODE --
G21                     ;set units to millimetres
G90                     ;set to absolute positioning
M106 S0                 ;set fan speed to zero (turned off)
G28 X0 Y0               ;move to the X/Y origin (Home)
G28 Z0                  ;move to the Z origin (Home)
G1 Z15.0 F1200          ;move Z to position 15.0 mm
G92 E0                  ;zero the extruded length
G1 E20 F200             ;extrude 20mm of feed stock
G92 E0                  ;zero the extruded length again
G1 F7200                ;set feedrate to 120 mm/s
; -- end of START GCODE --
G92 E0
G1 F2700 E-6.5
;LAYER_COUNT:501
;LAYER:0
M107
G0 F3600 X140.502 Y100.02 Z0.2
;TYPE:SKIRT
G1 F2700 E0
G1 F2400 X140.822 Y99.571 E0.01834
G1 X141.531 Y98.688 E0.056
G1 X141.949 Y98.231 E0.0766
G1 X142.368 Y97.873 E0.09493
G1 X143.262 Y97.193 E0.13229
G1 X143.778 Y96.85 E0.1529
G1 X144.229 Y96.622 E0.16971
G1 X145.205 Y96.191 E0.20519
G1 X145.787 Y95.978 E0.22581
G1 X146.315 Y95.854 E0.24385
G1 X147.439 Y95.657 E0.2818
G1 X148.055 Y95.59 E0.30241
G1 X148.657 Y95.601 E0.32243
G1 X149.839 Y95.697 E0.36188
G1 X150.451 Y95.787 E0.38245
G1 X150.961 Y95.925 E0.40002
G1 X151.962 Y96.257 E0.4351
G1 X152.761 Y96.606 E0.4641
G1 X153.464 Y96.992 E0.49078
G1 X153.987 Y97.324 E0.51138
G1 X154.507 Y97.764 E0.53403
G1 X155.521 Y98.754 E0.58117
G1 X155.936 Y99.215 E0.6018
G1 X156.153 Y99.514 E0.61409
G1 X156.594 Y100.171 E0.64041
G1 X156.906 Y100.706 E0.661
G1 X157.097 Y101.143 E0.67687
G1 X157.491 Y102.181 E0.71379
G1 X157.673 Y102.773 E0.73439
G1 X157.767 Y103.3 E0.7522
G1 X157.904 Y104.417 E0.78963
G1 X157.94 Y105.035 E0.81022
G1 X157.905 Y105.58 E0.82838
G1 X157.773 Y106.667 E0.8648
G1 X157.659 Y107.275 E0.88538
G1 X157.42 Y107.978 E0.91007
G1 X156.848 Y109.313 E0.95838
G1 X156.568 Y109.866 E0.979
G1 X156.185 Y110.42 E1.0014
G1 X155.487 Y111.293 E1.03857
G1 X154.881 Y111.924 E1.06767
G1 X154.29 Y112.436 E1.09368
G1 X153.797 Y112.81 E1.11426
G1 X153.392 Y113.05 E1.12992
G1 X152.402 Y113.574 E1.16717
G1 X151.838 Y113.828 E1.18775
G1 X151.317 Y113.99 E1.20589
G1 X150.225 Y114.262 E1.24332
G1 X149.616 Y114.372 E1.26391
G1 X149.069 Y114.404 E1.28213
G1 X147.952 Y114.405 E1.31928
G1 X147.334 Y114.366 E1.33988
G1 X146.968 Y114.304 E1.35222
G1 X146.661 Y114.24 E1.36265
G1 X146.434 Y114.187 E1.37041
G1 X145.649 Y113.983 E1.39738
G1 X145.061 Y113.789 E1.41798
G1 X144.606 Y113.577 E1.43467
G1 X143.596 Y113.041 E1.4727
G1 X143.069 Y112.716 E1.4933
G1 X142.66 Y112.391 E1.51067
G1 X141.841 Y111.664 E1.5471
G1 X141.405 Y111.224 E1.5677
G1 X141.078 Y110.803 E1.58543
G1 X140.443 Y109.884 E1.62258
G1 X140.125 Y109.352 E1.6432
G1 X139.82 Y108.618 E1.66963
G1 X139.369 Y107.209 E1.71884
G1 X139.219 Y106.608 E1.73944
G1 X139.147 Y105.988 E1.7602
G1 X139.094 Y104.94 E1.7951
G1 X139.103 Y104.321 E1.81569
G1 X139.177 Y103.78 E1.83385
G1 X139.398 Y102.646 E1.87228
G1 X139.555 Y102.047 E1.89288
G1 X139.751 Y101.553 E1.91055
G1 X140.207 Y100.565 E1.94674
G1 X140.502 Y100.02 E1.96736
G0 F3600 X140.854 Y100.212
G1 F2400 X141.134 Y99.821 E1.98335
G1 X141.843 Y98.938 E2.02102
G1 X142.245 Y98.502 E2.04074
G1 X142.61 Y98.191 E2.05669
G1 X143.504 Y97.511 E2.09405
G1 X143.999 Y97.185 E2.11376
G1 X144.391 Y96.988 E2.12835
G1 X145.367 Y96.557 E2.16384
G1 X145.924 Y96.355 E2.18355
G1 X146.384 Y96.248 E2.19925
G1 X147.508 Y96.051 E2.23721
G1 X148.098 Y95.988 E2.25694
G1 X148.624 Y95.999 E2.27444
G1 X149.806 Y96.095 E2.31389
G1 X150.393 Y96.183 E2.33363
G1 X150.835 Y96.305 E2.34888
G1 X151.836 Y96.637 E2.38395
G1 X152.569 Y96.956 E2.41054
G1 X153.272 Y97.342 E2.43722
G1 X153.771 Y97.662 E2.45693
G1 X154.228 Y98.051 E2.47689
G1 X155.242 Y99.041 E2.52403
G1 X155.637 Y99.483 E2.54375
G1 X155.821 Y99.737 E2.55418
G1 X156.262 Y100.394 E2.5805
G1 X156.559 Y100.907 E2.60021
G1 X156.723 Y101.285 E2.61392
G1 X157.117 Y102.323 E2.65084
G1 X157.289 Y102.89 E2.67055
G1 X157.37 Y103.348 E2.68602
G1 X157.507 Y104.465 E2.72345
G1 X157.54 Y105.057 E2.74317
G1 X157.508 Y105.531 E2.75897
G1 X157.376 Y106.618 E2.79539
G1 X157.265 Y107.201 E2.81513
G1 X157.052 Y107.821 E2.83693
G1 X156.48 Y109.156 E2.88524
G1 X156.211 Y109.684 E2.90495
G1 X155.873 Y110.171 E2.92467
G1 X155.175 Y111.044 E2.96184
G1 X154.619 Y111.622 E2.98852
G1 X154.028 Y112.134 E3.01452
G1 X153.555 Y112.491 E3.03423
G1 X153.205 Y112.697 E3.04774
G1 X152.215 Y113.221 E3.085
G1 X151.674 Y113.462 E3.1047
G1 X151.22 Y113.602 E3.1205
G1 X150.128 Y113.874 E3.15793
G1 X149.545 Y113.978 E3.17762
G1 X149.069 Y114.004 E3.19348
G1 X147.952 Y114.005 E3.23063
G1 X147.36 Y113.966 E3.25036
G1 X147.05 Y113.912 E3.26083
G1 X146.743 Y113.848 E3.27126
G1 X146.534 Y113.8 E3.27839
G1 X145.749 Y113.596 E3.30537
G1 X145.187 Y113.408 E3.32508
G1 X144.793 Y113.224 E3.33954
G1 X143.783 Y112.688 E3.37757
G1 X143.28 Y112.375 E3.39728
G1 X142.925 Y112.092 E3.41238
G1 X142.106 Y111.365 E3.4488
G1 X141.69 Y110.942 E3.46853
G1 X141.407 Y110.575 E3.48395
G1 X140.772 Y109.656 E3.5211
G1 X140.469 Y109.147 E3.5408
G1 X140.201 Y108.496 E3.56422
G1 X139.75 Y107.087 E3.61342
G1 X139.608 Y106.512 E3.63312
G1 X139.547 Y105.968 E3.65133
G1 X139.494 Y104.92 E3.68623
G1 X139.504 Y104.327 E3.70596
G1 X139.569 Y103.856 E3.72177
G1 X139.79 Y102.722 E3.7602
G1 X139.943 Y102.149 E3.77992
G1 X140.114 Y101.72 E3.79528
G1 X140.57 Y100.732 E3.83148
G1 X140.854 Y100.212 E3.85118
G0 F3600 X141.206 Y100.404
G1 F2400 X141.446 Y100.072 E3.86481
G1 X142.155 Y99.189 E3.90247
G1 X142.539 Y98.774 E3.92128
G1 X142.852 Y98.509 E3.93492
G1 X143.746 Y97.829 E3.97228
G1 X144.219 Y97.52 E3.99107
G1 X144.552 Y97.354 E4.00344
G1 X145.528 Y96.923 E4.03893
G1 X146.06 Y96.732 E4.05773
G1 X146.453 Y96.642 E4.07114
G1 X147.577 Y96.445 E4.10909
G1 X148.14 Y96.387 E4.12792
G1 X148.592 Y96.398 E4.14296
G1 X149.774 Y96.494 E4.1824
G1 X150.333 Y96.58 E4.20121
G1 X150.709 Y96.684 E4.21419
G1 X151.71 Y97.016 E4.24926
G1 X152.376 Y97.307 E4.27344
G1 X153.079 Y97.693 E4.30011
G1 X153.554 Y97.999 E4.3189
G1 X153.948 Y98.337 E4.33617
G1 X154.962 Y99.327 E4.3833
G1 X155.489 Y99.96 E4.4107
G1 X155.93 Y100.617 E4.43702
G1 X156.211 Y101.107 E4.4558
G1 X156.349 Y101.427 E4.4674
G1 X156.743 Y102.465 E4.50432
G1 X156.905 Y103.006 E4.52311
G1 X156.973 Y103.397 E4.53631
G1 X157.11 Y104.514 E4.57374
G1 X157.139 Y105.079 E4.59255
G1 X157.111 Y105.483 E4.60602
G1 X156.979 Y106.57 E4.64244
G1 X156.871 Y107.125 E4.66125
G1 X156.685 Y107.663 E4.68018
G1 X156.113 Y108.998 E4.72849
G1 X155.854 Y109.501 E4.7473
G1 X155.56 Y109.921 E4.76436
G1 X154.862 Y110.794 E4.80153
G1 X154.357 Y111.319 E4.82576
G1 X153.766 Y111.831 E4.85177
G1 X153.314 Y112.17 E4.87056
G1 X153.018 Y112.343 E4.88196
G1 X152.028 Y112.867 E4.91922
G1 X151.511 Y113.096 E4.93803
G1 X151.124 Y113.213 E4.95147
G1 X150.032 Y113.485 E4.9889
G1 X149.475 Y113.583 E5.00771
G1 X149.069 Y113.604 E5.02123
G1 X147.952 Y113.605 E5.05839
G1 X147.132 Y113.521 E5.0858
G1 X146.825 Y113.457 E5.09623
G1 X146.635 Y113.412 E5.10273
G1 X145.85 Y113.208 E5.1297
G1 X145.314 Y113.028 E5.14851
G1 X144.981 Y112.87 E5.16077
G1 X143.971 Y112.334 E5.1988
G1 X143.492 Y112.035 E5.21758
G1 X143.191 Y111.792 E5.23045
G1 X142.372 Y111.065 E5.26687
G1 X141.976 Y110.661 E5.28568
G1 X141.736 Y110.348 E5.2988
G1 X141.101 Y109.429 E5.33596
G1 X140.813 Y108.942 E5.35477
G1 X140.582 Y108.374 E5.37517
G1 X140.131 Y106.965 E5.42437
G1 X139.998 Y106.416 E5.44316
G1 X139.946 Y105.948 E5.45882
G1 X139.893 Y104.9 E5.49372
G1 X139.905 Y104.335 E5.51252
G1 X139.962 Y103.933 E5.52603
G1 X140.183 Y102.799 E5.56445
G1 X140.33 Y102.253 E5.58326
G1 X140.477 Y101.888 E5.59635
G1 X140.933 Y100.9 E5.63254
G1 X141.206 Y100.404 E5.65137
G0 F3600 X141.557 Y100.599
G1 F2400 X141.758 Y100.322 E5.66275
G1 X142.467 Y99.439 E5.70042
G1 X142.833 Y99.047 E5.71825
G1 X143.095 Y98.828 E5.72961
G1 X143.989 Y98.148 E5.76697
G1 X144.438 Y97.856 E5.78478
G1 X144.714 Y97.72 E5.79502
G1 X145.69 Y97.289 E5.8305
G1 X146.195 Y97.109 E5.84834
G1 X146.523 Y97.036 E5.85951
G1 X147.647 Y96.839 E5.89747
G1 X148.18 Y96.786 E5.91528
G1 X148.559 Y96.797 E5.92789
G1 X149.741 Y96.893 E5.96734
G1 X150.271 Y96.976 E5.98518
G1 X150.583 Y97.064 E5.99596
G1 X151.584 Y97.396 E6.03104
G1 X152.184 Y97.657 E6.0528
G1 X152.887 Y98.043 E6.07947
G1 X153.336 Y98.336 E6.09731
G1 X153.669 Y98.623 E6.11193
G1 X154.683 Y99.613 E6.15906
G1 X155.157 Y100.183 E6.18372
G1 X155.598 Y100.84 E6.21004
G1 X155.863 Y101.306 E6.22787
G1 X155.975 Y101.568 E6.23734
G1 X156.369 Y102.606 E6.27427
G1 X156.521 Y103.121 E6.29213
G1 X156.576 Y103.446 E6.30309
G1 X156.713 Y104.563 E6.34052
G1 X156.739 Y105.098 E6.35834
G1 X156.714 Y105.435 E6.36958
G1 X156.582 Y106.522 E6.406
G1 X156.478 Y107.048 E6.42383
G1 X156.317 Y107.506 E6.43998
G1 X155.745 Y108.841 E6.48828
G1 X155.498 Y109.317 E6.50612
G1 X155.248 Y109.671 E6.52054
G1 X154.55 Y110.544 E6.55771
G1 X154.095 Y111.017 E6.57954
G1 X153.504 Y111.529 E6.60555
G1 X153.074 Y111.849 E6.62338
G1 X152.831 Y111.99 E6.63272
G1 X151.841 Y112.514 E6.66998
G1 X151.35 Y112.729 E6.6878
G1 X151.027 Y112.825 E6.69901
G1 X149.935 Y113.097 E6.73644
G1 X149.407 Y113.188 E6.75426
G1 X149.068 Y113.204 E6.76555
G1 X147.951 Y113.205 E6.8027
G1 X147.213 Y113.129 E6.82738
G1 X146.906 Y113.065 E6.83781
G1 X146.736 Y113.025 E6.84361
G1 X145.951 Y112.821 E6.87059
G1 X145.443 Y112.648 E6.88844
G1 X145.168 Y112.517 E6.89857
G1 X144.158 Y111.981 E6.9366
G1 X143.705 Y111.695 E6.95442
G1 X143.456 Y111.493 E6.96508
G1 X142.637 Y110.766 E7.00151
G1 X142.264 Y110.381 E7.01934
G1 X142.065 Y110.12 E7.03025
G1 X141.43 Y109.201 E7.06741
G1 X141.159 Y108.739 E7.08522
G1 X140.963 Y108.252 E7.10268
G1 X140.512 Y106.843 E7.15189
G1 X140.387 Y106.322 E7.16971
G1 X140.346 Y105.928 E7.18288
G1 X140.293 Y104.88 E7.21778
G1 X140.305 Y104.344 E7.23562
G1 X140.354 Y104.009 E7.24688
G1 X140.575 Y102.875 E7.2853
G1 X140.717 Y102.358 E7.30314
G1 X140.84 Y102.055 E7.31401
G1 X141.296 Y101.067 E7.3502
G1 X141.557 Y100.599 E7.36803
G0 F3600 X141.907 Y100.794
G1 F2400 X142.07 Y100.572 E7.37719
G1 X142.779 Y99.689 E7.41485
G1 X143.125 Y99.322 E7.43163
G1 X143.337 Y99.146 E7.44079
G1 X144.231 Y98.466 E7.47815
G1 X144.875 Y98.086 E7.50302
G1 X145.851 Y97.655 E7.53851
G1 X146.328 Y97.488 E7.55532
G1 X146.592 Y97.43 E7.56431
G1 X147.716 Y97.233 E7.60226
G1 X148.219 Y97.185 E7.61907
G1 X148.527 Y97.196 E7.62932
G1 X149.709 Y97.292 E7.66876
G1 X150.208 Y97.372 E7.68557
G1 X150.457 Y97.444 E7.69419
G1 X151.458 Y97.776 E7.72927
G1 X151.991 Y98.008 E7.7486
G1 X152.694 Y98.394 E7.77528
G1 X153.117 Y98.672 E7.79211
G1 X153.389 Y98.909 E7.80411
G1 X154.403 Y99.899 E7.85124
G1 X154.825 Y100.406 E7.87318
G1 X155.266 Y101.063 E7.8995
G1 X155.601 Y101.71 E7.92374
G1 X155.995 Y102.748 E7.96066
G1 X156.136 Y103.234 E7.97749
G1 X156.179 Y103.494 E7.98626
G1 X156.316 Y104.611 E8.02369
G1 X156.338 Y105.117 E8.04053
G1 X156.317 Y105.387 E8.04954
G1 X156.185 Y106.474 E8.08596
G1 X156.084 Y106.969 E8.10276
G1 X155.949 Y107.348 E8.11615
G1 X155.377 Y108.683 E8.16445
G1 X155.142 Y109.131 E8.18128
G1 X154.935 Y109.421 E8.19313
G1 X154.237 Y110.294 E8.2303
G1 X153.833 Y110.715 E8.24971
G1 X153.242 Y111.227 E8.27572
G1 X152.644 Y111.636 E8.29982
G1 X151.654 Y112.16 E8.33707
G1 X151.19 Y112.361 E8.35389
G1 X150.93 Y112.437 E8.3629
G1 X149.838 Y112.709 E8.40033
G1 X149.34 Y112.792 E8.41712
G1 X149.068 Y112.804 E8.42618
G1 X147.951 Y112.805 E8.46333
G1 X147.295 Y112.738 E8.48526
G1 X146.988 Y112.674 E8.49569
G1 X146.836 Y112.638 E8.50089
G1 X146.051 Y112.434 E8.52786
G1 X145.356 Y112.164 E8.55266
G1 X144.346 Y111.628 E8.59069
G1 X143.919 Y111.356 E8.60753
G1 X143.722 Y111.194 E8.61601
G1 X142.903 Y110.467 E8.65244
G1 X142.552 Y110.103 E8.66926
G1 X142.394 Y109.893 E8.678
G1 X141.759 Y108.974 E8.71515
G1 X141.506 Y108.537 E8.73194
G1 X141.344 Y108.131 E8.74648
G1 X140.893 Y106.722 E8.79569
G1 X140.778 Y106.229 E8.81253
G1 X140.745 Y105.908 E8.82326
G1 X140.692 Y104.86 E8.85816
G1 X140.707 Y104.354 E8.875
G1 X140.747 Y104.086 E8.88401
G1 X140.968 Y102.952 E8.92244
G1 X141.104 Y102.465 E8.93925
G1 X141.204 Y102.223 E8.94796
G1 X141.66 Y101.235 E8.98416
G1 X141.907 Y100.794 E9.00097
G1 F2700 E2.50097
G1 F300 Z1.2
G0 F3600 X149.931 Y101.217 Z1.2
;TYPE:WALL-INNER
G1 F300 Z0.2
G1 F2700 E9.00097
G1 F2400 X150.799 Y101.672 E9.03356
G1 X151.527 Y102.317 E9.06591
G1 X152.083 Y103.123 E9.09848
G1 X152.427 Y104.03 E9.13074
G1 X152.545 Y105 E9.16324
G1 X152.427 Y105.97 E9.19574
G1 X152.083 Y106.877 E9.22801
G1 X151.527 Y107.683 E9.26057
G1 X150.799 Y108.328 E9.29292
G1 X149.931 Y108.783 E9.32552
G1 X148.99 Y109.015 E9.35776
G1 X148.01 Y109.015 E9.39035
G1 X147.069 Y108.783 E9.42259
G1 X146.201 Y108.328 E9.45518
G1 X145.473 Y107.683 E9.48753
G1 X144.917 Y106.877 E9.5201
G1 X144.573 Y105.97 E9.55236
G1 X144.455 Y105 E9.58486
G1 X144.573 Y104.03 E9.61736
G1 X144.917 Y103.123 E9.64963
G1 X145.473 Y102.317 E9.68219
G1 X146.201 Y101.672 E9.71454
G1 X147.069 Y101.217 E9.74714
G1 X148.01 Y100.985 E9.77937
G1 X148.99 Y100.985 E9.81197
G1 X149.931 Y101.217 E9.8442
G0 F3600 X150.075 Y100.841
;TYPE:WALL-OUTER
G1 F2400 X151.026 Y101.34 E9.87992
G1 X151.829 Y102.051 E9.9156
G1 X152.44 Y102.937 E9.95139
G1 X152.818 Y103.933 E9.98683
G1 X152.948 Y105 E10.02258
G1 X152.818 Y106.067 E10.05833
G1 X152.44 Y107.063 E10.09376
G1 X151.829 Y107.949 E10.12956
G1 X151.026 Y108.66 E10.16523
G1 X150.075 Y109.159 E10.20095
G1 X149.037 Y109.415 E10.23651
G1 X147.963 Y109.415 E10.27223
G1 X146.925 Y109.159 E10.30779
G1 X145.974 Y108.66 E10.34351
G1 X145.171 Y107.949 E10.37918
G1 X144.56 Y107.063 E10.41498
G1 X144.182 Y106.067 E10.45041
G1 X144.052 Y105 E10.48616
G1 X144.182 Y103.933 E10.52191
G1 X144.56 Y102.937 E10.55734
G1 X145.171 Y102.051 E10.59314
G1 X145.974 Y101.34 E10.62881
G1 X146.925 Y100.841 E10.66453
G1 X147.963 Y100.585 E10.70009
G1 X149.037 Y100.585 E10.73581
G1 X150.075 Y100.841 E10.77137
G0 F3600 X150.252 Y100.934
G0 X149.79 Y101.583
;TYPE:SKIN
G1 F2400 X150.574 Y101.994 E10.80081
G1 X151.233 Y102.578 E10.8301
G1 X151.735 Y103.306 E10.85951
G1 X152.045 Y104.122 E10.88854
G1 X152.151 Y105 E10.91796
G1 X152.045 Y105.878 E10.94737
G1 X151.735 Y106.694 E10.97641
G1 X151.233 Y107.422 E11.00582
G1 X150.574 Y108.006 E11.0351
G1 X149.79 Y108.417 E11.06455
G1 X148.945 Y108.625 E11.09349
G1 X148.055 Y108.625 E11.12309
G1 X147.21 Y108.417 E11.15204
G1 X146.426 Y108.006 E11.18148
G1 X145.767 Y107.422 E11.21076
G1 X145.265 Y106.694 E11.24018
G1 X144.955 Y105.878 E11.26921
G1 X144.849 Y105 E11.29862
G1 X144.955 Y104.122 E11.32804
G1 X145.265 Y103.306 E11.35707
G1 X145.767 Y102.578 E11.38648
G1 X146.426 Y101.994 E11.41577
G1 X147.21 Y101.583 E11.44521
G1 X148.055 Y101.375 E11.47415
G1 X148.945 Y101.375 E11.50376
G1 X149.79 Y101.583 E11.5327
G0 F3600 X151.634 Y103.551
G1 F2400 X149.956 Y101.873 E11.61163
G1 X149.886 Y101.803
G0 F3600 X149.121 Y101.604
G1 F2400 X151.894 Y104.376 E11.74204
G1 X151.964 Y104.446
G0 F3600 X151.967 Y105.015
G1 F2400 X148.506 Y101.554 E11.90483
G1 X148.436 Y101.484
G0 F3600 X147.967 Y101.581
G1 F2400 X151.906 Y105.52 E12.09011
G1 X151.976 Y105.59
G0 F3600 X151.81 Y105.989
G1 F2400 X147.513 Y101.693 E12.29221
G1 X147.443 Y101.623
G0 F3600 X147.099 Y101.844
G1 F2400 X151.653 Y106.399 E12.50644
G1 X151.723 Y106.469
G0 F3600 X151.461 Y106.772
G1 F2400 X146.728 Y102.039 E12.72906
G1 X146.658 Y101.969
G0 F3600 X146.39 Y102.266
G1 F2400 X151.23 Y107.106 E12.95672
G1 X151.3 Y107.176
G0 F3600 X150.969 Y107.411
G1 F2400 X146.09 Y102.532 E13.18621
G1 X146.02 Y102.462
G0 F3600 X145.816 Y102.823
G1 F2400 X150.67 Y107.678 E13.41455
G1 X150.74 Y107.748
G0 F3600 X150.347 Y107.92
G1 F2400 X145.584 Y103.158 E13.63857
G1 X145.514 Y103.088
G0 F3600 X145.376 Y103.516
G1 F2400 X149.975 Y108.115 E13.85489
G1 X150.045 Y108.185
G0 F3600 X149.578 Y108.283
G1 F2400 X145.22 Y103.925 E14.05988
G1 X145.15 Y103.855
G0 F3600 X145.104 Y104.375
G1 F2400 X149.123 Y108.394 E14.24892
G1 X149.193 Y108.464
G0 F3600 X148.608 Y108.444
G1 F2400 X145.044 Y104.88 E14.41656
G1 X144.974 Y104.81
G0 F3600 X145.088 Y105.49
