;FLAVOR:Marlin
;TIME:1561
;Filament used: 1.72678m
;Layer height: 0.2
;Generated with Cura_SteamEngine 3.3.0-BETA
M104 S200
M109 S200
M82 ;absolute extrusion mode
; -- START GCODE --
G21                     ;set units to millimetres
G90                     ;set to absolute positioning
M106 S0                 ;set fan speed to zero (turned off)
G28 X0 Y0               ;move to the X/Y origin (Home)
G28 Z0                  ;move to the Z origin (Home)
G1 Z15.0 F1200          ;move Z to position 15.0 mm
G92 E0                  ;zero the extruded length
G1 E20 F200             ;extrude 20mm of feed stock
G92 E0                  ;zero the extruded length again
G1 F7200                ;set feedrate to 120 mm/s
; -- end of START GCODE --
G92 E0
G1 F2700 E-6.5
;LAYER_COUNT:51
;LAYER:0
M107
G0 F3600 X112.496 Y90.968 Z0.2
;TYPE:SKIRT
G1 F2700 E0
G1 F2400 X113.721 Y89.477 E0.06418
G1 X114.22 Y88.979 E0.08763
G1 X115.735 Y87.736 E0.15281
G1 X116.324 Y87.342 E0.17638
G1 X118.031 Y86.432 E0.24072
G1 X118.682 Y86.163 E0.26414
G1 X120.513 Y85.609 E0.32777
G1 X121.169 Y85.476 E0.35003
G1 X122.445 Y85.338 E0.39272
G1 X122.689 Y85.32 E0.40086
G1 X124.38 Y85.253 E0.45714
G1 X124.526 Y85.25 E0.462
G1 X182.734 Y85.293 E2.39801
G1 X183.268 Y85.333 E2.41582
G1 X183.791 Y85.453 E2.43367
G1 X184.353 Y85.679 E2.45381
G1 X184.676 Y85.842 E2.46585
G1 X185.135 Y86.119 E2.48368
G1 X185.549 Y86.46 E2.50152
G1 X185.907 Y86.86 E2.51937
G1 X186.09 Y87.121 E2.52997
G1 X186.401 Y87.609 E2.54922
G1 X186.655 Y88.082 E2.56708
G1 X186.835 Y88.587 E2.58491
G1 X186.939 Y89.113 E2.60274
G1 X186.965 Y89.558 E2.61757
G1 X186.943 Y95.135 E2.80306
G1 X186.934 Y95.374 E2.81102
G1 X186.544 Y100.908 E2.99553
G1 X186.467 Y106.37 E3.17722
G1 X186.702 Y111.841 E3.35935
G1 X186.977 Y115.042 E3.46621
G1 X186.99 Y115.377 E3.47736
G1 X186.951 Y120.526 E3.64862
G1 X186.907 Y121.061 E3.66648
G1 X186.784 Y121.583 E3.68431
G1 X186.552 Y122.147 E3.7046
G1 X186.395 Y122.452 E3.71601
G1 X186.115 Y122.909 E3.73383
G1 X185.769 Y123.319 E3.75168
G1 X185.367 Y123.674 E3.76951
G1 X185.105 Y123.855 E3.78011
G1 X184.602 Y124.17 E3.79985
G1 X184.127 Y124.42 E3.8177
G1 X183.621 Y124.597 E3.83553
G1 X183.094 Y124.696 E3.85336
G1 X182.692 Y124.719 E3.86676
G1 X123.698 Y124.743 E5.8289
G1 X123.37 Y124.728 E5.83982
G1 X121.246 Y124.534 E5.91076
G1 X120.523 Y124.393 E5.93526
G1 X118.643 Y123.82 E6.00063
G1 X117.994 Y123.55 E6.02401
G1 X116.314 Y122.651 E6.08739
G1 X115.729 Y122.26 E6.11079
G1 X114.211 Y121.014 E6.17611
G1 X113.711 Y120.514 E6.19963
G1 X112.491 Y119.026 E6.26363
G1 X112.1 Y118.439 E6.28708
G1 X111.191 Y116.737 E6.35126
G1 X110.921 Y116.086 E6.3747
G1 X110.354 Y114.217 E6.43966
G1 X110.217 Y113.528 E6.46303
G1 X110.043 Y111.776 E6.52159
G1 X110.025 Y111.428 E6.53318
G1 X110 Y99.475 E6.93073
G1 X110.01 Y99.196 E6.94002
G1 X110.208 Y96.576 E7.02741
G1 X110.352 Y95.805 E7.0535
G1 X110.928 Y93.901 E7.11966
G1 X111.2 Y93.245 E7.14328
G1 X112.104 Y91.555 E7.20702
G1 X112.496 Y90.968 E7.2305
G0 F3600 X112.805 Y91.222
G1 F2400 X114.03 Y89.731 E7.29468
G1 X114.473 Y89.288 E7.31552
G1 X115.988 Y88.045 E7.3807
G1 X116.513 Y87.695 E7.40169
G1 X118.22 Y86.785 E7.46602
G1 X118.798 Y86.546 E7.48683
G1 X120.629 Y85.992 E7.55045
G1 X121.212 Y85.874 E7.57024
G1 X122.488 Y85.736 E7.61292
G1 X122.705 Y85.72 E7.62016
G1 X124.396 Y85.653 E7.67645
G1 X124.525 Y85.65 E7.68074
G1 X182.733 Y85.693 E9.61675
G1 X183.237 Y85.733 E9.63356
G1 X183.729 Y85.852 E9.6504
G1 X184.173 Y86.036 E9.66638
G1 X184.496 Y86.199 E9.67842
G1 X184.928 Y86.462 E9.69524
G1 X185.313 Y86.789 E9.71204
G1 X185.753 Y87.336 E9.73539
G1 X186.064 Y87.824 E9.75463
G1 X186.301 Y88.271 E9.77146
G1 X186.465 Y88.749 E9.78827
G1 X186.551 Y89.247 E9.80508
G1 X186.565 Y89.557 E9.8154
G1 X186.543 Y95.134 E10.00089
G1 X186.535 Y95.346 E10.00795
G1 X186.144 Y100.892 E10.19287
G1 X186.067 Y106.382 E10.37548
G1 X186.302 Y111.869 E10.55815
G1 X186.578 Y115.076 E10.66521
G1 X186.59 Y115.374 E10.67513
G1 X186.551 Y120.523 E10.84639
G1 X186.507 Y121.027 E10.86322
G1 X186.385 Y121.517 E10.88001
G1 X186.196 Y121.964 E10.89615
G1 X186.039 Y122.269 E10.90756
G1 X185.773 Y122.698 E10.92435
G1 X185.442 Y123.081 E10.94119
G1 X184.892 Y123.516 E10.96451
G1 X184.389 Y123.831 E10.98425
G1 X183.941 Y124.065 E11.00106
G1 X183.462 Y124.225 E11.01786
G1 X182.963 Y124.307 E11.03468
G1 X182.692 Y124.319 E11.0437
G1 X123.698 Y124.343 E13.00585
G1 X123.406 Y124.33 E13.01557
G1 X121.282 Y124.136 E13.08651
G1 X120.64 Y124.01 E13.10827
G1 X118.76 Y123.437 E13.17364
G1 X118.183 Y123.197 E13.19442
G1 X116.503 Y122.298 E13.2578
G1 X115.983 Y121.95 E13.27861
G1 X114.465 Y120.704 E13.34393
G1 X114.02 Y120.26 E13.36484
G1 X112.8 Y118.772 E13.42884
G1 X112.452 Y118.251 E13.44967
G1 X111.543 Y116.549 E13.51385
G1 X111.304 Y115.97 E13.53468
G1 X110.737 Y114.101 E13.59965
G1 X110.615 Y113.488 E13.62043
G1 X110.441 Y111.736 E13.67899
G1 X110.425 Y111.427 E13.68928
G1 X110.4 Y99.474 E14.08684
G1 X110.409 Y99.226 E14.0951
G1 X110.607 Y96.606 E14.18249
G1 X110.735 Y95.92 E14.2057
G1 X111.311 Y94.016 E14.27186
G1 X111.552 Y93.434 E14.29281
G1 X112.456 Y91.744 E14.35656
G1 X112.805 Y91.222 E14.37744
G1 F2700 E7.87744
G1 F300 Z1.2
G0 F3600 X118.226 Y92.456 Z1.2
;TYPE:WALL-INNER
G1 F300 Z0.2
G1 F2700 E14.37744
G1 F2400 X118.226 Y117.544 E15.21187
G1 X129.101 Y117.544 E15.57357
G1 X129.101 Y92.456 E16.408
G1 X118.226 Y92.456 E16.76971
G0 F3600 X118.156 Y92.386
G0 X129.129 Y92.428
G0 X131.931 Y100.951
G0 X132.005 Y101.017
G1 F2400 X131.183 Y102.209 E16.81787
G1 X130.669 Y103.564 E16.86607
G1 X130.495 Y105 E16.91418
G1 X130.669 Y106.436 E16.96229
G1 X131.183 Y107.791 E17.01049
G1 X132.005 Y108.983 E17.05865
G1 X133.089 Y109.943 E17.10681
G1 X134.371 Y110.615 E17.15495
G1 X135.776 Y110.961 E17.20308
G1 X137.224 Y110.961 E17.25124
G1 X138.629 Y110.615 E17.29937
G1 X139.911 Y109.943 E17.34751
G1 X140.995 Y108.983 E17.39567
G1 X141.817 Y107.791 E17.44383
G1 X142.331 Y106.436 E17.49203
G1 X142.505 Y105 E17.54014
G1 X142.331 Y103.564 E17.58825
G1 X141.817 Y102.209 E17.63645
G1 X140.995 Y101.017 E17.68461
G1 X139.911 Y100.057 E17.73277
G1 X138.629 Y99.385 E17.78091
G1 X137.224 Y99.039 E17.82904
G1 X135.776 Y99.039 E17.8772
G1 X134.371 Y99.385 E17.92533
G1 X133.089 Y100.057 E17.97347
G1 X132.005 Y101.017 E18.02163
G0 F3600 X131.931 Y100.951
G0 X132.85 Y100.202
G0 X143.922 Y92.386
G0 X143.992 Y92.456
G1 F2400 X143.992 Y117.544 E18.85606
G1 X156.392 Y117.544 E19.26849
G1 X156.392 Y92.456 E20.10292
G1 X143.992 Y92.456 E20.51534
G0 F3600 X143.922 Y92.386
G0 X156.42 Y92.428
G0 X156.773 Y99.406
G0 X156.87 Y99.383
G1 F2400 X157.099 Y99.994 E20.53704
G1 X157.466 Y100.531 E20.55868
G1 X157.952 Y100.967 E20.58039
G1 X158.528 Y101.273 E20.60209
G1 X159.161 Y101.432 E20.62379
G1 X159.81 Y101.435 E20.64538
G1 X160.445 Y101.284 E20.66709
G1 X161.024 Y100.983 E20.68879
G1 X161.514 Y100.553 E20.71048
G1 X161.888 Y100.019 E20.73216
G1 X162.122 Y99.411 E20.75383
G1 X162.203 Y98.766 E20.77545
G1 X162.13 Y98.117 E20.79717
G1 X161.901 Y97.506 E20.81887
G1 X161.534 Y96.969 E20.84051
G1 X161.048 Y96.533 E20.86222
G1 X160.472 Y96.227 E20.88392
G1 X159.839 Y96.068 E20.90563
G1 X159.19 Y96.065 E20.92721
G1 X158.555 Y96.216 E20.94892
G1 X157.976 Y96.517 E20.97062
G1 X157.486 Y96.947 E20.99231
G1 X157.112 Y97.481 E21.01399
G1 X156.878 Y98.089 E21.03566
G1 X156.797 Y98.734 E21.05728
G1 X156.87 Y99.383 E21.079
G0 F3600 X156.773 Y99.406
G0 X156.757 Y98.734
G0 X156.84 Y98.08
G0 X157.077 Y97.463
G0 X157.457 Y96.921
G0 X157.859 Y96.568
G0 X162.73 Y93.98
G0 X162.8 Y94.05
G1 F2400 X162.8 Y103.2 E21.38333
G1 X157.897 Y103.2 E21.54641
G1 X157.897 Y106.8 E21.66614
G1 X162.8 Y106.8 E21.82922
G1 X162.8 Y115.95 E22.13355
G1 X182.8 Y115.95 E22.79875
G1 X182.8 Y120.216 E22.94064
G1 X182.788 Y120.315 E22.94396
G1 X182.766 Y120.379 E22.94621
G1 X182.733 Y120.432 E22.94828
G1 X182.683 Y120.483 E22.95066
G1 X182.629 Y120.516 E22.95276
G1 X182.566 Y120.538 E22.95498
G1 X182.464 Y120.55 E22.9584
G1 X123.539 Y120.55 E24.91825
G1 X121.685 Y120.368 E24.98021
G1 X119.94 Y119.839 E25.04086
G1 X118.335 Y118.981 E25.10139
G1 X116.926 Y117.824 E25.16203
G1 X115.769 Y116.415 E25.22267
G1 X114.911 Y114.81 E25.2832
G1 X114.382 Y113.065 E25.34385
G1 X114.2 Y111.211 E25.40581
G1 X114.2 Y98.789 E25.81897
G1 X114.382 Y96.935 E25.88093
G1 X114.911 Y95.19 E25.94157
G1 X115.769 Y93.585 E26.00211
G1 X116.926 Y92.176 E26.06274
G1 X118.335 Y91.019 E26.12338
G1 X119.94 Y90.161 E26.18391
G1 X121.685 Y89.632 E26.24456
G1 X123.539 Y89.45 E26.30652
G1 X182.464 Y89.45 E28.26638
G1 X182.566 Y89.462 E28.26979
G1 X182.629 Y89.484 E28.27201
G1 X182.683 Y89.518 E28.27413
G1 X182.733 Y89.568 E28.27649
G1 X182.766 Y89.621 E28.27856
G1 X182.788 Y89.685 E28.28081
G1 X182.8 Y89.784 E28.28413
G1 X182.8 Y94.05 E28.42602
G1 X162.8 Y94.05 E29.09122
G0 F3600 X162.73 Y93.98
G0 X162.16 Y99.42
G0 X161.923 Y100.037
G0 X159.678 Y103.161
G0 X157.869 Y103.172
G0 X156.757 Y111.234
G0 X156.773 Y111.906
G0 X156.87 Y111.883
G1 F2400 X157.099 Y112.494 E29.11292
G1 X157.466 Y113.031 E29.13456
G1 X157.952 Y113.467 E29.15627
G1 X158.528 Y113.773 E29.17797
G1 X159.161 Y113.932 E29.19967
G1 X159.81 Y113.935 E29.22126
G1 X160.445 Y113.784 E29.24297
G1 X161.024 Y113.483 E29.26467
G1 X161.514 Y113.053 E29.28636
G1 X161.888 Y112.519 E29.30804
G1 X162.122 Y111.911 E29.32971
G1 X162.203 Y111.266 E29.35133
G1 X162.13 Y110.617 E29.37305
G1 X161.901 Y110.006 E29.39475
G1 X161.534 Y109.469 E29.41639
G1 X161.048 Y109.033 E29.4381
G1 X160.472 Y108.727 E29.4598
G1 X159.839 Y108.568 E29.4815
G1 X159.19 Y108.565 E29.50309
G1 X158.555 Y108.716 E29.5248
G1 X157.976 Y109.017 E29.5465
G1 X157.486 Y109.447 E29.56819
G1 X157.112 Y109.981 E29.58987
G1 X156.878 Y110.589 E29.61154
G1 X156.797 Y111.234 E29.63316
G1 X156.87 Y111.883 E29.65488
G0 F3600 X157.262 Y111.789
;TYPE:WALL-OUTER
G1 F2400 X157.457 Y112.308 E29.67332
G1 X157.769 Y112.766 E29.69175
G1 X158.183 Y113.137 E29.71024
G1 X158.673 Y113.397 E29.72869
G1 X159.211 Y113.532 E29.74714
G1 X159.764 Y113.535 E29.76553
G1 X160.304 Y113.406 E29.784
G1 X160.797 Y113.15 E29.80248
G1 X161.214 Y112.784 E29.82093
G1 X161.532 Y112.33 E29.83937
G1 X161.731 Y111.813 E29.85779
G1 X161.8 Y111.263 E29.87623
G1 X161.738 Y110.711 E29.8947
G1 X161.543 Y110.192 E29.91314
G1 X161.231 Y109.734 E29.93158
G1 X160.817 Y109.363 E29.95007
G1 X160.327 Y109.103 E29.96851
G1 X159.789 Y108.968 E29.98696
G1 X159.236 Y108.965 E30.00536
G1 X158.696 Y109.094 E30.02382
G1 X158.203 Y109.35 E30.0423
G1 X157.786 Y109.716 E30.06075
G1 X157.468 Y110.17 E30.07919
G1 X157.269 Y110.687 E30.09761
G1 X157.2 Y111.237 E30.11605
G1 X157.262 Y111.789 E30.13453
G0 F3600 X157.332 Y111.976
G0 X156.864 Y112.151
G0 X156.778 Y111.409
G0 X156.794 Y99.463
G0 X157.262 Y99.289
G1 F2400 X157.457 Y99.808 E30.15297
G1 X157.769 Y100.266 E30.1714
G1 X158.183 Y100.637 E30.18989
G1 X158.673 Y100.897 E30.20834
G1 X159.211 Y101.032 E30.22679
G1 X159.764 Y101.035 E30.24518
G1 X160.304 Y100.906 E30.26364
G1 X160.797 Y100.65 E30.28212
G1 X161.214 Y100.284 E30.30057
G1 X161.532 Y99.83 E30.31901
G1 X161.731 Y99.313 E30.33744
G1 X161.8 Y98.763 E30.35587
G1 X161.738 Y98.211 E30.37435
G1 X161.543 Y97.692 E30.39279
G1 X161.231 Y97.234 E30.41122
G1 X160.817 Y96.863 E30.42971
G1 X160.327 Y96.603 E30.44816
G1 X159.789 Y96.468 E30.46661
G1 X159.236 Y96.465 E30.485
G1 X158.696 Y96.594 E30.50347
G1 X158.203 Y96.85 E30.52194
G1 X157.786 Y97.216 E30.5404
G1 X157.468 Y97.67 E30.55883
G1 X157.269 Y98.187 E30.57726
G1 X157.2 Y98.737 E30.59569
G1 X157.262 Y99.289 E30.61417
G0 F3600 X157.332 Y99.476
G0 X156.864 Y99.651
G0 X156.757 Y98.734
G0 X156.84 Y98.08
G0 X157.077 Y97.463
G0 X157.457 Y96.921
G0 X157.954 Y96.484
G0 X158.12 Y96.398
G0 X162.7 Y94.45
G0 X163.2 Y94.45
G1 F2400 X163.2 Y103.6 E30.9185
G1 X158.297 Y103.6 E31.08157
G1 X158.297 Y106.4 E31.1747
G1 X163.2 Y106.4 E31.33778
G1 X163.2 Y115.55 E31.64211
G1 X183.2 Y115.55 E32.30731
G1 X183.2 Y120.236 E32.46317
G1 X183.18 Y120.407 E32.46889
G1 X183.13 Y120.551 E32.47396
G1 X183.045 Y120.686 E32.47927
G1 X182.936 Y120.795 E32.4844
G1 X182.801 Y120.88 E32.4897
G1 X182.657 Y120.93 E32.49477
G1 X182.484 Y120.95 E32.50056
G1 X123.52 Y120.95 E34.46171
G1 X121.605 Y120.762 E34.52571
G1 X119.785 Y120.21 E34.58897
G1 X118.113 Y119.316 E34.65203
G1 X116.642 Y118.108 E34.71534
G1 X115.434 Y116.637 E34.77865
G1 X114.54 Y114.965 E34.84171
G1 X113.988 Y113.145 E34.90497
G1 X113.8 Y111.23 E34.96897
G1 X113.8 Y98.77 E35.38339
G1 X113.988 Y96.855 E35.44739
G1 X114.54 Y95.035 E35.51064
G1 X115.434 Y93.363 E35.5737
G1 X116.642 Y91.892 E35.63701
G1 X118.113 Y90.684 E35.70032
G1 X119.785 Y89.79 E35.76338
G1 X121.605 Y89.238 E35.82664
G1 X123.52 Y89.05 E35.89064
G1 X182.484 Y89.05 E37.85179
G1 X182.657 Y89.07 E37.85758
G1 X182.801 Y89.12 E37.86265
G1 X182.936 Y89.205 E37.86796
G1 X183.045 Y89.314 E37.87309
G1 X183.13 Y89.449 E37.87839
G1 X183.18 Y89.593 E37.88346
G1 X183.2 Y89.764 E37.88919
G1 X183.2 Y94.45 E38.04504
G1 X163.2 Y94.45 E38.71025
G0 F3600 X163.2 Y94.65
G0 X162.7 Y94.65
G0 X156.42 Y92.428
G0 X144.392 Y92.356
G0 X144.392 Y92.856
G1 F2400 X144.392 Y117.144 E39.51807
G1 X155.992 Y117.144 E39.90389
G1 X155.992 Y92.856 E40.71171
G1 X144.392 Y92.856 E41.09753
G0 F3600 X144.392 Y93.056
G0 X143.892 Y93.056
G0 X133.067 Y100.025
G0 X131.976 Y100.991
G0 X131.231 Y102.071
G0 X130.565 Y103.599
G0 X131.06 Y103.66
G1 F2400 X130.898 Y105 E41.14242
G1 X131.06 Y106.34 E41.18731
G1 X131.54 Y107.604 E41.23228
G1 X132.307 Y108.716 E41.27721
G1 X133.318 Y109.611 E41.32212
G1 X134.514 Y110.238 E41.36704
G1 X135.825 Y110.561 E41.41194
G1 X137.175 Y110.561 E41.45685
G1 X138.486 Y110.238 E41.50175
G1 X139.682 Y109.611 E41.54667
G1 X140.693 Y108.716 E41.59158
G1 X141.46 Y107.604 E41.63651
G1 X141.94 Y106.34 E41.68148
G1 X142.102 Y105 E41.72637
G1 X141.94 Y103.66 E41.77126
G1 X141.46 Y102.396 E41.81623
G1 X140.693 Y101.284 E41.86116
G1 X139.682 Y100.389 E41.90607
G1 X138.486 Y99.762 E41.95099
G1 X137.175 Y99.439 E41.99589
G1 X135.825 Y99.439 E42.04079
G1 X134.514 Y99.762 E42.0857
G1 X133.318 Y100.389 E42.13062
G1 X132.307 Y101.284 E42.17553
G1 X131.54 Y102.396 E42.22046
G1 X131.06 Y103.66 E42.26543
G0 F3600 X131.036 Y103.858
G0 X130.541 Y103.797
G0 X129.129 Y92.428
G0 X118.626 Y92.356
G0 X118.626 Y92.856
G1 F2400 X118.626 Y117.144 E43.07325
G1 X128.701 Y117.144 E43.40834
G1 X128.701 Y92.856 E44.21617
G1 X118.626 Y92.856 E44.55126
G0 F3600 X118.626 Y93.056
G0 X118.126 Y93.056
G0 X117.836 Y92.066
;TYPE:SKIN
G1 F2400 X117.836 Y117.934 E45.41164
G1 X129.491 Y117.934 E45.79928
G1 X129.491 Y92.066 E46.65966
G1 X117.836 Y92.066 E47.0473
G0 F3600 X117.203 Y92.453
G1 F2400 X118.556 Y91.344 E47.10549
G1 X120.091 Y90.522 E47.1634
G1 X121.76 Y90.016 E47.22141
G1 X123.558 Y89.84 E47.2815
G1 X182.41 Y89.84 E49.23892
G1 X182.41 Y93.66 E49.36597
G1 X162.41 Y93.66 E50.03118
G1 X162.41 Y97.752 E50.16728
G1 X162.25 Y97.325 E50.18244
G1 X161.83 Y96.71 E50.20721
G1 X161.273 Y96.211 E50.23209
G1 X160.613 Y95.86 E50.25695
G1 X159.888 Y95.678 E50.28181
G1 X159.145 Y95.675 E50.30652
G1 X158.418 Y95.848 E50.33138
G1 X157.754 Y96.193 E50.35627
G1 X157.194 Y96.685 E50.38106
G1 X156.782 Y97.272 E50.40491
G1 X156.782 Y92.066 E50.57807
G1 X143.602 Y92.066 E51.01643
G1 X143.602 Y117.934 E51.87681
G1 X156.782 Y117.934 E52.31518
G1 X156.782 Y112.722 E52.48853
G1 X157.17 Y113.29 E52.51141
G1 X157.727 Y113.789 E52.53628
G1 X158.387 Y114.14 E52.56114
G1 X159.112 Y114.322 E52.586
G1 X159.855 Y114.325 E52.61072
G1 X160.582 Y114.152 E52.63557
G1 X161.246 Y113.807 E52.66046
G1 X161.806 Y113.315 E52.68525
G1 X162.235 Y112.704 E52.71008
G1 X162.41 Y112.249 E52.7263
G1 X162.41 Y116.34 E52.86237
G1 X182.41 Y116.34 E53.52757
G1 X182.41 Y120.16 E53.65462
G1 X123.558 Y120.16 E55.61205
G1 X121.76 Y119.984 E55.67213
G1 X120.091 Y119.478 E55.73014
G1 X118.556 Y118.656 E55.78805
G1 X117.203 Y117.547 E55.84624
G1 X116.094 Y116.194 E55.90443
G1 X115.272 Y114.659 E55.96234
G1 X114.766 Y112.99 E56.02035
G1 X114.59 Y111.192 E56.08043
G1 X114.59 Y98.808 E56.49233
G1 X114.766 Y97.01 E56.55242
G1 X115.272 Y95.341 E56.61042
G1 X116.094 Y93.806 E56.66834
