;FLAVOR:Marlin
;TIME:2224
;Filament used: 2.87607m
;Layer height: 0.2
;Generated with Cura_SteamEngine 3.3.0-BETA
M104 S200
M109 S200
M82 ;absolute extrusion mode
; -- START GCODE --
G21                     ;set units to millimetres
G90                     ;set to absolute positioning
M106 S0                 ;set fan speed to zero (turned off)
G28 X0 Y0               ;move to the X/Y origin (Home)
G28 Z0                  ;move to the Z origin (Home)
G1 Z15.0 F1200          ;move Z to position 15.0 mm
G92 E0                  ;zero the extruded length
G1 E20 F200             ;extrude 20mm of feed stock
G92 E0                  ;zero the extruded length again
G1 F7200                ;set feedrate to 120 mm/s
; -- end of START GCODE --
G92 E0
G1 F2700 E-6.5
;LAYER_COUNT:26
;LAYER:0
M107
G0 F3600 X82.514 Y81.544 Z0.2
;TYPE:SKIRT
G1 F2700 E0
G1 F2400 X82.96 Y81.17 E0.01936
G1 X83.999 Y80.433 E0.06173
G1 X84.467 Y80.152 E0.07988
G1 X90.991 Y76.877 E0.32268
G1 X91.523 Y76.661 E0.34178
G1 X92.718 Y76.284 E0.38345
G1 X93.258 Y76.158 E0.4019
G1 X100.492 Y75.055 E0.64528
G1 X101.064 Y75.014 E0.66435
G1 X102.325 Y75.024 E0.7063
G1 X102.858 Y75.068 E0.72408
G1 X109.752 Y76.158 E0.95623
G1 X110.262 Y76.277 E0.97365
G1 X111.131 Y76.548 E1.00392
G1 X111.537 Y76.702 E1.01836
G1 X116.556 Y78.961 E1.20143
G1 X121.636 Y81.018 E1.38371
G1 X126.796 Y82.774 E1.565
G1 X132.083 Y84.246 E1.74754
G1 X134.725 Y84.864 E1.83778
G1 X137.34 Y85.394 E1.92653
G1 X142.768 Y86.261 E2.10935
G1 X148.191 Y86.815 E2.29066
G1 X152.632 Y87.05 E2.43857
G1 X153.164 Y87.118 E2.45641
G1 X153.559 Y87.223 E2.47001
G1 X154.864 Y87.649 E2.51566
G1 X155.36 Y87.853 E2.5335
G1 X155.935 Y88.212 E2.55605
G1 X158.145 Y89.904 E2.64862
G1 X162.207 Y92.769 E2.81395
G1 X162.621 Y93.11 E2.83179
G1 X163.059 Y93.616 E2.85405
G1 X163.865 Y94.742 E2.9001
G1 X164.144 Y95.2 E2.91794
G1 X164.374 Y95.762 E2.93814
G1 X166.04 Y101.088 E3.12375
G1 X166.762 Y103.11 E3.19516
G1 X166.904 Y103.627 E3.21299
G1 X166.971 Y104.351 E3.23717
G1 X166.959 Y105.741 E3.28341
G1 X166.914 Y106.276 E3.30126
G1 X166.771 Y106.859 E3.32123
G1 X164.985 Y112.16 E3.50728
G1 X164.384 Y114.206 E3.5782
G1 X164.195 Y114.708 E3.59604
G1 X163.834 Y115.318 E3.61962
G1 X163.024 Y116.424 E3.66522
G1 X162.676 Y116.832 E3.68305
G1 X162.205 Y117.232 E3.7036
G1 X157.644 Y120.472 E3.88968
G1 X155.944 Y121.782 E3.96107
G1 X155.496 Y122.077 E3.97891
G1 X155.009 Y122.302 E3.99675
G1 X154.731 Y122.394 E4.00649
G1 X153.18 Y122.835 E4.06012
G1 X152.56 Y122.953 E4.08111
G1 X147.042 Y123.515 E4.26559
G1 X141.643 Y124.376 E4.44743
G1 X136.346 Y125.53 E4.62774
G1 X133.704 Y126.225 E4.71861
G1 X128.471 Y127.842 E4.90078
G1 X123.377 Y129.736 E5.08153
G1 X117.894 Y132.156 E5.28087
G1 X112.374 Y134.989 E5.48724
G1 X111.84 Y135.211 E5.50647
G1 X110.307 Y135.708 E5.56007
G1 X109.75 Y135.84 E5.57911
G1 X104.304 Y136.687 E5.76242
G1 X102.905 Y136.925 E5.80962
G1 X102.299 Y136.976 E5.82985
G1 X100.688 Y136.975 E5.88343
G1 X100.071 Y136.921 E5.90403
G1 X96.538 Y136.304 E6.02332
G1 X92.912 Y135.742 E6.14536
G1 X92.325 Y135.599 E6.16545
G1 X91.143 Y135.205 E6.20689
G1 X90.628 Y134.988 E6.22548
G1 X84.133 Y131.63 E6.46867
G1 X83.65 Y131.33 E6.48758
G1 X82.623 Y130.573 E6.53002
G1 X82.206 Y130.213 E6.54834
G1 X78.282 Y126.266 E6.73345
G1 X78.259 Y126.243 E6.73453
G1 X77.07 Y125.025 E6.79115
G1 X76.715 Y124.6 E6.80957
G1 X75.942 Y123.516 E6.85385
G1 X75.656 Y123.041 E6.87229
G1 X72.376 Y116.507 E7.11546
G1 X72.159 Y115.972 E7.13466
G1 X71.783 Y114.776 E7.17636
G1 X71.658 Y114.239 E7.1947
G1 X70.555 Y107.008 E7.43798
G1 X70.514 Y106.436 E7.45705
G1 X70.524 Y105.175 E7.499
G1 X70.572 Y104.619 E7.51756
G1 X71.765 Y97.373 E7.76181
G1 X71.902 Y96.818 E7.78082
G1 X72.295 Y95.641 E7.82209
G1 X72.512 Y95.128 E7.84062
G1 X75.87 Y88.633 E8.08381
G1 X76.172 Y88.148 E8.10281
G1 X76.936 Y87.113 E8.1456
G1 X77.303 Y86.689 E8.16425
G1 X82.514 Y81.544 E8.40781
G0 F3600 X82.795 Y81.829
G1 F2400 X83.192 Y81.496 E8.42504
G1 X84.231 Y80.759 E8.46741
G1 X84.646 Y80.509 E8.48353
G1 X91.17 Y77.234 E8.72632
G1 X91.643 Y77.042 E8.7433
G1 X92.838 Y76.665 E8.78498
G1 X93.319 Y76.554 E8.8014
G1 X100.553 Y75.451 E9.04478
G1 X101.06 Y75.414 E9.06169
G1 X102.321 Y75.424 E9.10363
G1 X102.796 Y75.463 E9.11948
G1 X109.69 Y76.553 E9.35163
G1 X110.143 Y76.659 E9.3671
G1 X111.012 Y76.93 E9.39738
G1 X111.373 Y77.067 E9.41022
G1 X116.399 Y79.33 E9.59355
G1 X121.499 Y81.395 E9.77655
G1 X126.67 Y83.154 E9.95822
G1 X131.976 Y84.631 E10.14141
G1 X134.652 Y85.257 E10.23281
G1 X137.271 Y85.788 E10.32169
G1 X142.718 Y86.658 E10.50516
G1 X148.149 Y87.213 E10.68673
G1 X152.611 Y87.449 E10.83535
G1 X153.112 Y87.516 E10.85216
G1 X153.435 Y87.603 E10.86329
G1 X154.74 Y88.029 E10.90894
G1 X155.207 Y88.223 E10.92576
G1 X155.692 Y88.53 E10.94485
G1 X157.911 Y90.229 E11.03781
G1 X161.976 Y93.096 E11.20325
G1 X162.365 Y93.419 E11.22007
G1 X162.734 Y93.848 E11.23889
G1 X163.54 Y94.974 E11.28495
G1 X163.801 Y95.407 E11.30176
G1 X163.992 Y95.881 E11.31876
G1 X165.663 Y101.223 E11.50493
G1 X166.385 Y103.245 E11.57634
G1 X166.517 Y103.733 E11.59315
G1 X166.571 Y104.348 E11.61369
G1 X166.559 Y105.738 E11.65992
G1 X166.515 Y106.241 E11.67671
G1 X166.392 Y106.731 E11.69352
G1 X164.604 Y112.039 E11.87981
G1 X164 Y114.094 E11.95105
G1 X163.82 Y114.566 E11.96785
G1 X163.512 Y115.082 E11.98784
G1 X162.702 Y116.188 E12.03343
G1 X162.372 Y116.571 E12.05025
G1 X161.973 Y116.906 E12.06758
G1 X157.412 Y120.146 E12.25366
G1 X155.699 Y121.466 E12.32558
G1 X155.276 Y121.742 E12.34238
G1 X154.621 Y122.009 E12.36591
G1 X153.07 Y122.45 E12.41954
G1 X152.519 Y122.556 E12.4382
G1 X146.975 Y123.121 E12.62355
G1 X141.583 Y123.981 E12.80516
G1 X136.228 Y125.148 E12.98744
G1 X133.604 Y125.838 E13.07769
G1 X128.34 Y127.464 E13.26093
G1 X123.228 Y129.365 E13.44233
G1 X117.715 Y131.798 E13.64276
G1 X112.191 Y134.633 E13.84927
G1 X111.717 Y134.83 E13.86634
G1 X110.184 Y135.327 E13.91994
G1 X109.689 Y135.445 E13.93687
G1 X104.237 Y136.293 E14.12038
G1 X102.838 Y136.531 E14.16758
G1 X102.299 Y136.576 E14.18557
G1 X100.688 Y136.575 E14.23915
G1 X100.139 Y136.527 E14.25748
G1 X96.566 Y135.903 E14.37812
G1 X92.973 Y135.346 E14.49905
G1 X92.451 Y135.22 E14.51691
G1 X91.269 Y134.826 E14.55835
G1 X90.811 Y134.633 E14.57488
G1 X84.316 Y131.275 E14.81807
G1 X83.887 Y131.008 E14.83488
G1 X82.86 Y130.251 E14.87731
G1 X82.49 Y129.931 E14.89358
G1 X78.566 Y125.984 E15.0787
G1 X78.545 Y125.963 E15.07968
G1 X77.356 Y124.745 E15.1363
G1 X77.041 Y124.368 E15.15264
G1 X76.268 Y123.284 E15.19692
G1 X76.013 Y122.862 E15.21332
G1 X72.733 Y116.328 E15.45649
G1 X72.54 Y115.852 E15.47357
G1 X72.164 Y114.656 E15.51527
G1 X72.054 Y114.179 E15.53155
G1 X70.951 Y106.948 E15.77484
G1 X70.914 Y106.44 E15.79178
G1 X70.924 Y105.179 E15.83372
G1 X70.967 Y104.684 E15.85024
G1 X72.16 Y97.438 E16.09449
G1 X72.282 Y96.945 E16.11138
G1 X72.675 Y95.768 E16.15266
G1 X72.867 Y95.311 E16.16914
G1 X76.225 Y88.816 E16.41233
G1 X76.493 Y88.386 E16.42918
G1 X77.257 Y87.351 E16.47197
G1 X77.584 Y86.974 E16.48857
G1 X82.795 Y81.829 E16.73213
G1 F2700 E10.23213
G1 F300 Z1.2
G0 F3600 X96.203 Y104.695 Z1.2
;TYPE:WALL-INNER
G1 F300 Z0.2
G1 F2700 E16.73213
G1 F2400 X96.045 Y106 E16.77585
G1 X96.203 Y107.305 E16.81957
G1 X96.67 Y108.535 E16.86333
G1 X97.417 Y109.618 E16.90709
G1 X98.402 Y110.49 E16.95085
G1 X99.566 Y111.1 E16.99456
G1 X100.842 Y111.415 E17.03827
G1 X102.158 Y111.415 E17.08204
G1 X103.434 Y111.1 E17.12575
G1 X104.598 Y110.49 E17.16946
G1 X105.583 Y109.618 E17.21322
G1 X106.33 Y108.535 E17.25698
G1 X106.797 Y107.305 E17.30073
G1 X106.955 Y106 E17.34446
G1 X106.797 Y104.695 E17.38818
G1 X106.33 Y103.465 E17.43194
G1 X105.583 Y102.382 E17.4757
G1 X104.598 Y101.51 E17.51945
G1 X103.434 Y100.9 E17.56316
G1 X102.158 Y100.585 E17.60687
G1 X100.842 Y100.585 E17.65064
G1 X99.566 Y100.9 E17.69436
G1 X98.402 Y101.51 E17.73807
G1 X97.417 Y102.382 E17.78182
G1 X96.67 Y103.465 E17.82558
G1 X96.203 Y104.695 E17.86934
G0 F3600 X96.106 Y104.672
G0 X96.635 Y103.447
G0 X97.388 Y102.356
G0 X98.38 Y101.478
G0 X99.043 Y101.131
G0 X117.887 Y92.605
G0 X117.89 Y92.506
G1 F2400 X119.542 Y91.05 E17.94258
G1 X120.311 Y90.607 E17.9721
G1 X121.769 Y90.11 E18.02333
G1 X122.915 Y89.907 E18.06204
G1 X123.42 Y90.601 E18.09059
G1 X122.73 Y91.861 E18.13837
G1 X122.062 Y92.748 E18.1753
G1 X121.64 Y93.187 E18.19555
G1 X121.315 Y93.446 E18.20937
G1 X119.398 Y94.583 E18.2835
G1 X121.258 Y98.232 E18.41973
G1 X123.282 Y97.358 E18.49305
G1 X124.151 Y97.173 E18.52261
G1 X125.688 Y97.151 E18.57373
G1 X126.842 Y97.312 E18.61249
G1 X127.106 Y98.127 E18.64098
G1 X126.064 Y99.111 E18.68865
G1 X125.141 Y99.756 E18.7261
G1 X124.625 Y100.034 E18.74559
G1 X124.22 Y100.185 E18.75997
G1 X122.05 Y100.672 E18.83394
G1 X122.692 Y104.717 E18.97016
G1 X124.887 Y104.511 E19.04349
G1 X125.765 Y104.603 E19.07285
G1 X127.236 Y105.06 E19.12408
G1 X128.286 Y105.571 E19.16292
G1 X128.286 Y106.424 E19.19129
G1 X126.981 Y107.041 E19.2393
G1 X125.923 Y107.365 E19.27611
G1 X125.335 Y107.471 E19.29598
G1 X124.903 Y107.49 E19.31036
G1 X122.692 Y107.283 E19.38422
G1 X122.05 Y111.328 E19.52044
G1 X124.201 Y111.811 E19.59377
G1 X125.013 Y112.172 E19.62332
G1 X126.268 Y113.058 E19.67442
G1 X127.109 Y113.868 E19.71325
G1 X126.845 Y114.682 E19.74171
G1 X125.422 Y114.864 E19.78943
G1 X124.3 Y114.844 E19.82675
G1 X123.708 Y114.763 E19.84663
G1 X123.306 Y114.653 E19.86049
G1 X121.258 Y113.768 E19.93469
G1 X119.398 Y117.417 E20.07092
G1 X121.292 Y118.54 E20.14415
G1 X121.956 Y119.137 E20.17385
G1 X122.874 Y120.364 E20.22482
G1 X123.423 Y121.395 E20.26367
G1 X122.92 Y122.089 E20.29218
G1 X121.507 Y121.821 E20.34001
G1 X120.453 Y121.458 E20.37709
G1 X119.916 Y121.198 E20.39693
G1 X119.554 Y120.96 E20.41134
G1 X117.89 Y119.494 E20.4851
G1 X114.994 Y122.39 E20.62132
G1 X116.45 Y124.042 E20.69456
G1 X116.893 Y124.811 E20.72408
G1 X117.391 Y126.271 E20.77539
G1 X117.593 Y127.415 E20.81402
G1 X116.899 Y127.92 E20.84257
G1 X115.639 Y127.23 E20.89035
G1 X114.752 Y126.562 E20.92728
G1 X114.313 Y126.14 E20.94754
G1 X114.054 Y125.815 E20.96136
G1 X112.917 Y123.898 E21.03549
G1 X109.268 Y125.758 E21.17171
G1 X110.142 Y127.781 E21.24501
G1 X110.327 Y128.651 E21.27459
G1 X110.349 Y130.188 E21.32572
G1 X110.188 Y131.342 E21.36447
G1 X109.373 Y131.606 E21.39297
G1 X108.389 Y130.564 E21.44063
G1 X107.746 Y129.645 E21.47794
G1 X107.464 Y129.119 E21.49779
G1 X107.315 Y128.72 E21.51196
G1 X106.828 Y126.55 E21.58593
G1 X102.783 Y127.192 E21.72215
G1 X102.989 Y129.387 E21.79547
G1 X102.897 Y130.265 E21.82484
G1 X102.44 Y131.736 E21.87607
G1 X101.929 Y132.786 E21.91491
G1 X101.076 Y132.786 E21.94328
G1 X100.459 Y131.481 E21.99129
G1 X100.135 Y130.423 E22.02809
G1 X100.029 Y129.835 E22.04796
G1 X100.01 Y129.398 E22.06251
G1 X100.217 Y127.192 E22.13621
G1 X96.172 Y126.55 E22.27243
G1 X95.69 Y128.698 E22.34565
G1 X95.328 Y129.513 E22.37531
G1 X94.442 Y130.768 E22.4264
G1 X93.632 Y131.609 E22.46524
G1 X92.818 Y131.345 E22.4937
G1 X92.636 Y129.922 E22.54142
G1 X92.656 Y128.8 E22.57874
G1 X92.737 Y128.208 E22.59861
G1 X92.847 Y127.806 E22.61247
G1 X93.732 Y125.758 E22.68668
G1 X90.083 Y123.898 E22.8229
G1 X88.96 Y125.792 E22.89614
G1 X88.363 Y126.456 E22.92584
G1 X87.136 Y127.374 E22.97681
G1 X86.105 Y127.923 E23.01566
G1 X85.411 Y127.42 E23.04416
G1 X85.678 Y126.011 E23.09186
G1 X86.043 Y124.951 E23.12915
G1 X86.302 Y124.416 E23.14892
G1 X86.54 Y124.054 E23.16333
G1 X88.006 Y122.39 E23.23709
G1 X85.11 Y119.494 E23.37331
G1 X83.458 Y120.95 E23.44655
G1 X82.689 Y121.393 E23.47606
G1 X81.231 Y121.89 E23.5273
G1 X80.085 Y122.093 E23.56601
G1 X79.58 Y121.399 E23.59455
G1 X80.27 Y120.139 E23.64233
G1 X80.938 Y119.252 E23.67927
G1 X81.36 Y118.813 E23.69952
G1 X81.685 Y118.554 E23.71334
G1 X83.602 Y117.417 E23.78747
G1 X81.742 Y113.768 E23.9237
G1 X79.718 Y114.642 E23.99702
G1 X78.849 Y114.827 E24.02657
G1 X77.312 Y114.849 E24.0777
G1 X76.158 Y114.688 E24.11645
G1 X75.894 Y113.873 E24.14495
G1 X76.936 Y112.889 E24.19261
G1 X77.859 Y112.244 E24.23007
G1 X78.375 Y111.966 E24.24956
G1 X78.78 Y111.815 E24.26394
G1 X80.95 Y111.328 E24.33791
G1 X80.308 Y107.283 E24.47413
G1 X78.113 Y107.489 E24.54746
G1 X77.235 Y107.397 E24.57682
G1 X75.764 Y106.94 E24.62805
G1 X74.714 Y106.429 E24.66689
G1 X74.714 Y105.576 E24.69526
G1 X76.019 Y104.959 E24.74327
G1 X77.077 Y104.635 E24.78007
G1 X77.665 Y104.529 E24.79995
G1 X78.097 Y104.51 E24.81433
G1 X80.308 Y104.717 E24.88819
G1 X80.95 Y100.672 E25.02441
G1 X78.799 Y100.189 E25.09773
G1 X77.987 Y99.828 E25.12729
G1 X76.732 Y98.942 E25.17838
G1 X75.891 Y98.132 E25.21722
G1 X76.155 Y97.318 E25.24568
G1 X77.578 Y97.136 E25.2934
G1 X78.7 Y97.156 E25.33072
G1 X79.292 Y97.237 E25.35059
G1 X79.694 Y97.347 E25.36446
G1 X81.742 Y98.232 E25.43866
G1 X83.602 Y94.583 E25.57488
G1 X81.708 Y93.46 E25.64812
G1 X81.044 Y92.863 E25.67782
G1 X80.126 Y91.636 E25.72879
G1 X79.577 Y90.605 E25.76764
G1 X80.08 Y89.911 E25.79614
G1 X81.493 Y90.179 E25.84398
G1 X82.547 Y90.542 E25.88106
G1 X83.084 Y90.802 E25.9009
G1 X83.446 Y91.04 E25.91531
G1 X85.11 Y92.506 E25.98907
G1 X88.006 Y89.61 E26.12529
G1 X86.55 Y87.958 E26.19853
G1 X86.107 Y87.189 E26.22805
G1 X85.609 Y85.729 E26.27935
G1 X85.407 Y84.585 E26.31799
G1 X86.101 Y84.08 E26.34654
G1 X87.361 Y84.77 E26.39432
G1 X88.248 Y85.438 E26.43125
G1 X88.687 Y85.86 E26.4515
G1 X88.946 Y86.185 E26.46533
G1 X90.083 Y88.102 E26.53946
G1 X93.732 Y86.242 E26.67568
G1 X92.857 Y84.217 E26.74905
G1 X92.673 Y83.349 E26.77856
G1 X92.651 Y81.812 E26.82969
G1 X92.812 Y80.658 E26.86844
G1 X93.627 Y80.394 E26.89694
G1 X94.611 Y81.436 E26.9446
G1 X95.256 Y82.359 E26.98206
G1 X95.533 Y82.872 E27.00145
G1 X95.685 Y83.28 E27.01593
G1 X96.172 Y85.45 E27.0899
G1 X100.217 Y84.808 E27.22612
G1 X100.011 Y82.61 E27.29955
G1 X100.103 Y81.736 E27.32878
G1 X100.56 Y80.264 E27.38004
G1 X101.071 Y79.214 E27.41888
G1 X101.924 Y79.214 E27.44725
G1 X102.541 Y80.519 E27.49526
G1 X102.865 Y81.577 E27.53206
G1 X102.971 Y82.165 E27.55194
G1 X102.99 Y82.597 E27.56632
G1 X102.783 Y84.808 E27.64018
G1 X106.828 Y85.45 E27.7764
G1 X107.311 Y83.299 E27.84972
G1 X107.672 Y82.487 E27.87928
G1 X108.558 Y81.232 E27.93037
G1 X109.368 Y80.391 E27.96921
G1 X110.182 Y80.655 E27.99767
G1 X110.364 Y82.078 E28.04539
G1 X110.344 Y83.2 E28.08271
G1 X110.263 Y83.792 E28.10258
G1 X110.154 Y84.19 E28.11631
G1 X109.268 Y86.242 E28.19065
G1 X112.917 Y88.102 E28.32687
G1 X114.04 Y86.208 E28.40011
G1 X114.637 Y85.544 E28.42981
G1 X115.864 Y84.626 E28.48077
G1 X116.895 Y84.077 E28.51962
G1 X117.589 Y84.58 E28.54813
G1 X117.322 Y85.989 E28.59583
G1 X116.958 Y87.047 E28.63304
G1 X116.698 Y87.584 E28.65289
G1 X116.46 Y87.946 E28.6673
G1 X114.994 Y89.61 E28.74106
G1 X117.89 Y92.506 E28.87728
G0 F3600 X117.907 Y91.958
;TYPE:WALL-OUTER
G1 F2400 X119.308 Y90.724 E28.93937
G1 X120.148 Y90.239 E28.97163
G1 X121.668 Y89.722 E29.02503
G1 X123.092 Y89.469 E29.07314
G1 X123.893 Y90.571 E29.11845
G1 X123.068 Y92.077 E29.17556
G1 X122.364 Y93.011 E29.21446
G1 X121.912 Y93.482 E29.23617
G1 X121.543 Y93.776 E29.25187
G1 X119.925 Y94.736 E29.31444
G1 X121.444 Y97.716 E29.42569
G1 X123.159 Y96.975 E29.48783
G1 X124.108 Y96.774 E29.52009
G1 X125.711 Y96.751 E29.57341
G1 X127.146 Y96.951 E29.6216
G1 X127.565 Y98.244 E29.66681
G1 X126.315 Y99.423 E29.72396
G1 X125.355 Y100.095 E29.76294
G1 X124.785 Y100.401 E29.78445
G1 X124.338 Y100.568 E29.80032
G1 X122.504 Y100.98 E29.86284
G1 X123.028 Y104.284 E29.97411
G1 X124.892 Y104.109 E30.03638
G1 X125.845 Y104.209 E30.06825
G1 X127.385 Y104.687 E30.12188
G1 X128.686 Y105.32 E30.17
G1 X128.686 Y106.678 E30.21517
G1 X127.131 Y107.413 E30.27237
G1 X126.011 Y107.756 E30.31133
G1 X125.379 Y107.87 E30.33269
G1 X124.898 Y107.891 E30.34871
G1 X123.028 Y107.716 E30.41118
G1 X122.504 Y111.02 E30.52244
G1 X124.329 Y111.43 E30.58465
G1 X125.212 Y111.822 E30.61679
G1 X126.523 Y112.748 E30.67017
G1 X127.566 Y113.753 E30.71834
G1 X127.146 Y115.047 E30.76359
G1 X125.445 Y115.265 E30.82063
G1 X124.271 Y115.244 E30.85968
G1 X123.626 Y115.155 E30.88134
G1 X123.174 Y115.032 E30.89692
G1 X121.444 Y114.284 E30.95961
G1 X119.925 Y117.264 E31.07086
