;FLAVOR:Marlin
;TIME:2877
;Filament used: 4.00963m
;Layer height: 0.2
;Generated with Cura_SteamEngine 3.2.1
M104 S200
M109 S200
M82 ;absolute extrusion mode
; -- START GCODE --
G21                     ;set units to millimetres
G90                     ;set to absolute positioning
M106 S0                 ;set fan speed to zero (turned off)
G28 X0 Y0               ;move to the X/Y origin (Home)
G28 Z0                  ;move to the Z origin (Home)
G1 Z15.0 F1200          ;move Z to position 15.0 mm
G92 E0                  ;zero the extruded length
G1 E20 F200             ;extrude 20mm of feed stock
G92 E0                  ;zero the extruded length again
G1 F7200                ;set feedrate to 120 mm/s
; -- end of START GCODE --
;LAYER_COUNT:51
;LAYER:0
M107
G0 F3600 X103.663 Y61.047 Z0.2
;TYPE:SKIRT
G1 F2400 X103.929 Y60.617 E0.01682
G1 X104.259 Y60.234 E0.03363
G1 X104.646 Y59.908 E0.05046
G1 X105.079 Y59.647 E0.06728
G1 X105.547 Y59.457 E0.08408
G1 X106.04 Y59.344 E0.1009
G1 X106.51 Y59.309 E0.11658
G1 X126.491 Y59.31 E0.78115
G1 X126.961 Y59.345 E0.79682
G1 X131.159 Y59.968 E0.93798
G1 X136.626 Y60.515 E1.12072
G1 X142.09 Y60.75 E1.30262
G1 X147.578 Y60.676 E1.48517
G1 X153.02 Y60.293 E1.66662
G1 X160.074 Y59.339 E1.90337
G1 X160.503 Y59.31 E1.91767
G1 X190.491 Y59.309 E2.91508
G1 X190.995 Y59.349 E2.93189
G1 X191.486 Y59.468 E2.9487
G1 X191.953 Y59.662 E2.96551
G1 X192.383 Y59.928 E2.98233
G1 X192.766 Y60.258 E2.99915
G1 X193.092 Y60.645 E3.01598
G1 X193.353 Y61.078 E3.03279
G1 X193.543 Y61.546 E3.04959
G1 X193.656 Y62.039 E3.06641
G1 X193.691 Y62.51 E3.08212
G1 X193.688 Y72.517 E3.41496
G1 X193.667 Y72.882 E3.42712
G1 X193.322 Y75.882 E3.52756
G1 X192.934 Y81.36 E3.71021
G1 X192.856 Y86.848 E3.89276
G1 X193.087 Y92.309 E4.07456
G1 X193.674 Y98.182 E4.27087
G1 X193.69 Y98.5 E4.28146
G1 X193.69 Y118.491 E4.94636
G1 X193.65 Y118.995 E4.96318
G1 X193.531 Y119.486 E4.97998
G1 X193.337 Y119.953 E4.9968
G1 X193.071 Y120.383 E5.01362
G1 X192.741 Y120.766 E5.03043
G1 X192.354 Y121.092 E5.04726
G1 X191.921 Y121.353 E5.06408
G1 X191.453 Y121.543 E5.08088
G1 X191.184 Y121.615 E5.09014
G1 X184.132 Y123.182 E5.33041
G1 X181.524 Y123.901 E5.42039
G1 X176.301 Y125.581 E5.60287
G1 X171.183 Y127.553 E5.7853
G1 X166.171 Y129.818 E5.96823
G1 X163.75 Y131.038 E6.0584
G1 X161.361 Y132.329 E6.14871
G1 X156.641 Y135.142 E6.33147
G1 X152.105 Y138.206 E6.51353
G1 X147.736 Y141.534 E6.6962
G1 X143.598 Y145.071 E6.87726
G1 X138.72 Y149.79 E7.10299
G1 X138.33 Y150.112 E7.11982
G1 X137.894 Y150.368 E7.13663
G1 X137.423 Y150.552 E7.15345
G1 X136.93 Y150.66 E7.17024
G1 X136.495 Y150.69 E7.18474
G1 X116.509 Y150.69 E7.84948
G1 X116.005 Y150.65 E7.86629
G1 X115.514 Y150.531 E7.8831
G1 X115.047 Y150.337 E7.89991
G1 X114.617 Y150.071 E7.91673
G1 X114.119 Y149.618 E7.93912
G1 X112.759 Y148.09 E8.00716
G1 X108.941 Y144.106 E8.19069
G1 X104.336 Y139.843 E8.39941
G1 X103.994 Y139.472 E8.41619
G1 X103.714 Y139.051 E8.43301
G1 X103.503 Y138.591 E8.44984
G1 X103.368 Y138.104 E8.46665
G1 X103.31 Y137.495 E8.487
G1 X103.31 Y127.501 E8.8194
G1 X103.314 Y127.347 E8.82452
G1 X103.402 Y125.532 E8.88496
G1 X103.475 Y119.995 E9.06914
G1 X103.312 Y115.636 E9.21422
G1 X103.31 Y115.508 E9.21848
G1 X103.335 Y104.902 E9.57123
G1 X103.337 Y104.786 E9.57509
G1 X103.508 Y100.368 E9.72215
G1 X103.429 Y94.862 E9.9053
G1 X103.314 Y92.681 E9.97794
G1 X103.31 Y92.513 E9.98353
G1 X103.31 Y62.509 E10.98146
G1 X103.35 Y62.005 E10.99828
G1 X103.469 Y61.514 E11.01508
G1 X103.663 Y61.047 E11.0319
G1 F1500 E4.5319
G0 F3600 X105.835 Y63.114
G0 X107.114 Y63.114
G0 X115.83 Y71.83
G0 X115.9 Y71.9
;TYPE:WALL-INNER
G1 F1500 E11.0319
G1 F2400 X115.9 Y91.9 E11.6971
G1 X107.1 Y91.9 E11.98979
G1 X107.1 Y63.1 E12.94769
G1 X125.9 Y63.1 E13.57298
G1 X125.9 Y71.9 E13.86567
G1 X115.9 Y71.9 E14.19827
G0 F3600 X116.3 Y72.3
;TYPE:WALL-OUTER
G1 F2400 X116.3 Y92.3 E14.86347
G1 X106.7 Y92.3 E15.18277
G1 X106.7 Y62.7 E16.16727
G1 X126.3 Y62.7 E16.81917
G1 X126.3 Y72.3 E17.13846
G1 X116.3 Y72.3 E17.47106
G0 F3600 X116.3 Y72.5
G0 X115.8 Y72.5
G0 X115.51 Y71.51
;TYPE:SKIN
G1 F2400 X115.51 Y91.51 E18.13627
G1 X107.49 Y91.51 E18.40301
G1 X107.49 Y63.49 E19.33496
G1 X125.51 Y63.49 E19.93431
G1 X125.51 Y71.51 E20.20106
G1 X115.51 Y71.51 E20.53366
G0 F3600 X125.329 Y64.235
G1 F2400 X124.764 Y63.67 E20.56023
G0 F3600 X124.198 Y63.67
G1 F2400 X125.329 Y64.801 E20.61343
G1 X125.399 Y64.871
G0 F3600 X125.329 Y65.367
G1 F2400 X123.632 Y63.67 E20.69325
G1 X123.562 Y63.6
G0 F3600 X123.066 Y63.67
G1 F2400 X125.329 Y65.932 E20.79967
G1 X125.399 Y66.002
G0 F3600 X125.329 Y66.498
G1 F2400 X122.501 Y63.67 E20.9327
G1 X122.431 Y63.6
G0 F3600 X121.935 Y63.67
G1 F2400 X125.329 Y67.064 E21.09234
G1 X125.399 Y67.134
G0 F3600 X125.329 Y67.629
G1 F2400 X121.369 Y63.67 E21.27858
G1 X121.299 Y63.6
G0 F3600 X120.804 Y63.67
G1 F2400 X125.329 Y68.195 E21.49142
G1 X125.399 Y68.265
G0 F3600 X125.329 Y68.761
G1 F2400 X120.238 Y63.67 E21.73089
G1 X120.168 Y63.6
G0 F3600 X119.672 Y63.67
G1 F2400 X125.329 Y69.326 E21.99695
G1 X125.399 Y69.396
G0 F3600 X125.329 Y69.892
G1 F2400 X119.107 Y63.67 E22.28962
G1 X119.037 Y63.6
G0 F3600 X118.541 Y63.67
G1 F2400 X125.329 Y70.458 E22.6089
G1 X125.399 Y70.528
G0 F3600 X125.329 Y71.023
G1 F2400 X117.975 Y63.67 E22.95479
G1 X117.905 Y63.6
G0 F3600 X117.41 Y63.67
G1 F2400 X125.07 Y71.33 E23.31509
G1 X125.14 Y71.4
G0 F3600 X124.504 Y71.33
G1 F2400 X116.844 Y63.67 E23.6754
G1 X116.774 Y63.6
G0 F3600 X116.278 Y63.67
G1 F2400 X123.938 Y71.33 E24.0357
G1 X124.008 Y71.4
G0 F3600 X123.373 Y71.33
G1 F2400 X115.713 Y63.67 E24.396
G1 X115.643 Y63.6
G0 F3600 X115.147 Y63.67
G1 F2400 X122.807 Y71.33 E24.7563
G1 X122.877 Y71.4
G0 F3600 X122.241 Y71.33
G1 F2400 X114.581 Y63.67 E25.11661
G1 X114.511 Y63.6
G0 F3600 X114.016 Y63.67
G1 F2400 X121.676 Y71.33 E25.47691
G1 X121.746 Y71.4
G0 F3600 X121.11 Y71.33
G1 F2400 X113.45 Y63.67 E25.83721
G1 X113.38 Y63.6
G0 F3600 X112.884 Y63.67
G1 F2400 X120.544 Y71.33 E26.19752
G1 X120.614 Y71.4
G0 F3600 X119.979 Y71.33
G1 F2400 X112.318 Y63.67 E26.55784
G1 X112.248 Y63.6
G0 F3600 X111.753 Y63.67
G1 F2400 X119.413 Y71.33 E26.91815
G1 X119.483 Y71.4
G0 F3600 X118.847 Y71.33
G1 F2400 X111.187 Y63.67 E27.27845
G1 X111.117 Y63.6
G0 F3600 X110.621 Y63.67
G1 F2400 X118.281 Y71.33 E27.63875
G1 X118.351 Y71.4
G0 F3600 X117.716 Y71.33
G1 F2400 X110.056 Y63.67 E27.99905
G1 X109.986 Y63.6
G0 F3600 X109.49 Y63.67
G1 F2400 X117.15 Y71.33 E28.35936
G1 X117.22 Y71.4
G0 F3600 X116.584 Y71.33
G1 F2400 X108.924 Y63.67 E28.71966
G1 X108.854 Y63.6
G0 F3600 X108.359 Y63.67
G1 F2400 X116.019 Y71.33 E29.07996
G1 X116.089 Y71.4
G0 F3600 X115.453 Y71.33
G1 F2400 X107.793 Y63.67 E29.44027
G1 X107.723 Y63.6
G0 F3600 X107.669 Y64.111
G1 F2400 X115.329 Y71.771 E29.80057
G1 X115.399 Y71.841
G0 F3600 X115.329 Y72.337
G1 F2400 X107.669 Y64.676 E30.16089
G1 X107.599 Y64.606
G0 F3600 X107.669 Y65.242
G1 F2400 X115.329 Y72.902 E30.5212
G1 X115.399 Y72.972
G0 F3600 X115.329 Y73.468
G1 F2400 X107.669 Y65.808 E30.8815
G1 X107.599 Y65.738
G0 F3600 X107.669 Y66.373
G1 F2400 X115.329 Y74.034 E31.24183
G1 X115.399 Y74.104
G0 F3600 X115.329 Y74.599
G1 F2400 X107.669 Y66.939 E31.60213
G1 X107.599 Y66.869
G0 F3600 X107.669 Y67.505
G1 F2400 X115.329 Y75.165 E31.96243
G1 X115.399 Y75.235
G0 F3600 X115.329 Y75.731
G1 F2400 X107.669 Y68.071 E32.32274
G1 X107.599 Y68.001
G0 F3600 X107.669 Y68.636
G1 F2400 X115.329 Y76.296 E32.68304
G1 X115.399 Y76.366
G0 F3600 X115.329 Y76.862
G1 F2400 X107.669 Y69.202 E33.04334
G1 X107.599 Y69.132
G0 F3600 X107.669 Y69.768
G1 F2400 X115.329 Y77.428 E33.40364
G1 X115.399 Y77.498
G0 F3600 X115.329 Y77.993
G1 F2400 X107.669 Y70.333 E33.76395
G1 X107.599 Y70.263
G0 F3600 X107.669 Y70.899
G1 F2400 X115.329 Y78.559 E34.12425
G1 X115.399 Y78.629
G0 F3600 X115.329 Y79.125
G1 F2400 X107.669 Y71.465 E34.48455
G1 X107.599 Y71.395
G0 F3600 X107.669 Y72.03
G1 F2400 X115.329 Y79.69 E34.84486
G1 X115.399 Y79.76
G0 F3600 X115.329 Y80.256
G1 F2400 X107.669 Y72.596 E35.20516
G1 X107.599 Y72.526
G0 F3600 X107.669 Y73.162
G1 F2400 X115.329 Y80.822 E35.56546
G1 X115.399 Y80.892
G0 F3600 X115.329 Y81.387
G1 F2400 X107.669 Y73.727 E35.92577
G1 X107.599 Y73.657
G0 F3600 X107.669 Y74.293
G1 F2400 X115.329 Y81.953 E36.28607
G1 X115.399 Y82.023
G0 F3600 X115.329 Y82.519
G1 F2400 X107.669 Y74.859 E36.64637
G1 X107.599 Y74.789
G0 F3600 X107.669 Y75.424
G1 F2400 X115.329 Y83.085 E37.0067
G1 X115.399 Y83.155
G0 F3600 X115.329 Y83.65
G1 F2400 X107.669 Y75.99 E37.367
G1 X107.599 Y75.92
G0 F3600 X107.669 Y76.556
G1 F2400 X115.329 Y84.216 E37.7273
G1 X115.399 Y84.286
G0 F3600 X115.329 Y84.782
G1 F2400 X107.669 Y77.122 E38.08761
G1 X107.599 Y77.052
G0 F3600 X107.669 Y77.687
G1 F2400 X115.329 Y85.347 E38.44791
G1 X115.399 Y85.417
G0 F3600 X115.329 Y85.913
G1 F2400 X107.669 Y78.253 E38.80821
G1 X107.599 Y78.183
G0 F3600 X107.669 Y78.819
G1 F2400 X115.329 Y86.479 E39.16851
G1 X115.399 Y86.549
G0 F3600 X115.329 Y87.044
G1 F2400 X107.669 Y79.384 E39.52882
G1 X107.599 Y79.314
G0 F3600 X107.669 Y79.95
G1 F2400 X115.329 Y87.61 E39.88912
G1 X115.399 Y87.68
G0 F3600 X115.329 Y88.176
G1 F2400 X107.669 Y80.516 E40.24942
G1 X107.599 Y80.446
G0 F3600 X107.669 Y81.081
G1 F2400 X115.329 Y88.741 E40.60973
G1 X115.399 Y88.811
G0 F3600 X115.329 Y89.307
G1 F2400 X107.669 Y81.647 E40.97003
G1 X107.599 Y81.577
G0 F3600 X107.669 Y82.213
G1 F2400 X115.329 Y89.873 E41.33033
G1 X115.399 Y89.943
G0 F3600 X115.329 Y90.438
G1 F2400 X107.669 Y82.778 E41.69064
G1 X107.599 Y82.708
G0 F3600 X107.669 Y83.344
G1 F2400 X115.329 Y91.004 E42.05094
G1 X115.399 Y91.074
G0 F3600 X115.088 Y91.329
G1 F2400 X107.669 Y83.91 E42.39991
G1 X107.599 Y83.84
G0 F3600 X107.669 Y84.475
G1 F2400 X114.523 Y91.329 E42.7223
G1 X114.593 Y91.399
G0 F3600 X113.957 Y91.329
G1 F2400 X107.669 Y85.041 E43.01806
G1 X107.599 Y84.971
G0 F3600 X107.669 Y85.607
G1 F2400 X113.391 Y91.329 E43.28721
G1 X113.461 Y91.399
G0 F3600 X112.825 Y91.329
G1 F2400 X107.669 Y86.172 E43.52976
G1 X107.599 Y86.102
G0 F3600 X107.669 Y86.738
G1 F2400 X112.26 Y91.329 E43.7457
G1 X112.33 Y91.399
G0 F3600 X111.694 Y91.329
G1 F2400 X107.669 Y87.304 E43.93503
G1 X107.599 Y87.234
G0 F3600 X107.669 Y87.87
G1 F2400 X111.128 Y91.329 E44.09773
G1 X111.198 Y91.399
G0 F3600 X110.563 Y91.329
G1 F2400 X107.669 Y88.435 E44.23385
G1 X107.599 Y88.365
G0 F3600 X107.669 Y89.001
G1 F2400 X109.997 Y91.329 E44.34335
G1 X110.067 Y91.399
G0 F3600 X109.431 Y91.329
G1 F2400 X107.669 Y89.567 E44.42623
G1 X107.599 Y89.497
G0 F3600 X107.669 Y90.132
G1 F2400 X108.866 Y91.329 E44.48254
G1 X108.936 Y91.399
G0 F3600 X108.3 Y91.329
G1 F2400 X107.669 Y90.698 E44.51222
G1 X107.599 Y90.628
G0 F3600 X107.669 Y91.264
G1 F2400 X107.734 Y91.329 E44.51527
G1 F1500 E38.01527
G0 F3600 X115.886 Y91.886
G0 X115.886 Y93.165
G0 X115.886 Y104.835
G0 X115.886 Y106.12
G0 X145.83 Y114.83
G0 X145.9 Y114.9
;TYPE:WALL-INNER
G1 F1500 E44.51527
G1 F2400 X107.1 Y114.9 E45.80577
G1 X107.1 Y106.1 E46.09846
G1 X145.9 Y106.1 E47.38895
G1 X145.9 Y114.9 E47.68164
G0 F3600 X146.3 Y115.3
;TYPE:WALL-OUTER
G1 F2400 X106.7 Y115.3 E48.99874
G1 X106.7 Y105.7 E49.31804
G1 X146.3 Y105.7 E50.63514
G1 X146.3 Y115.3 E50.95444
G0 F3600 X146.1 Y115.3
G0 X145.83 Y114.83
G0 X145.51 Y114.51
;TYPE:SKIN
G1 F2400 X107.49 Y114.51 E52.21899
G1 X107.49 Y106.49 E52.48573
G1 X145.51 Y106.49 E53.75028
G1 X145.51 Y114.51 E54.01703
G0 F3600 X145.329 Y106.862
G1 F2400 X145.136 Y106.669 E54.02611
G0 F3600 X144.57 Y106.669
G1 F2400 X145.329 Y107.428 E54.06181
G1 X145.399 Y107.498
G0 F3600 X145.329 Y107.994
G1 F2400 X144.005 Y106.669 E54.12411
G1 X143.935 Y106.599
G0 F3600 X143.439 Y106.669
G1 F2400 X145.329 Y108.559 E54.21301
G1 X145.399 Y108.629
G0 F3600 X145.329 Y109.125
G1 F2400 X142.873 Y106.669 E54.32853
G1 X142.803 Y106.599
G0 F3600 X142.308 Y106.669
G1 F2400 X145.329 Y109.691 E54.47065
G1 X145.399 Y109.761
G0 F3600 X145.329 Y110.257
G1 F2400 X141.742 Y106.669 E54.6394
G1 X141.672 Y106.599
G0 F3600 X141.176 Y106.669
G1 F2400 X145.329 Y110.822 E54.83474
G1 X145.399 Y110.892
G0 F3600 X145.329 Y111.388
G1 F2400 X140.611 Y106.669 E55.05669
G1 X140.541 Y106.599
G0 F3600 X140.045 Y106.669
G1 F2400 X145.329 Y111.954 E55.30525
G1 X145.399 Y112.024
G0 F3600 X145.329 Y112.519
G1 F2400 X139.479 Y106.669 E55.58042
G1 X139.409 Y106.599
G0 F3600 X138.913 Y106.669
G1 F2400 X145.329 Y113.085 E55.88221
G1 X145.399 Y113.155
G0 F3600 X145.329 Y113.651
G1 F2400 X138.348 Y106.669 E56.2106
G1 X138.278 Y106.599
G0 F3600 X137.782 Y106.669
G1 F2400 X145.329 Y114.216 E56.56558
G1 X145.399 Y114.286
G0 F3600 X144.876 Y114.329
G1 F2400 X137.216 Y106.669 E56.92589
G1 X137.146 Y106.599
G0 F3600 X136.651 Y106.669
G1 F2400 X144.31 Y114.329 E57.28617
G1 X144.38 Y114.399
G0 F3600 X143.744 Y114.329
G1 F2400 X136.085 Y106.669 E57.64645
G1 X136.015 Y106.599
G0 F3600 X135.519 Y106.669
G1 F2400 X143.179 Y114.329 E58.00675
G1 X143.249 Y114.399
G0 F3600 X142.613 Y114.329
G1 F2400 X134.954 Y106.669 E58.36703
G1 X134.884 Y106.599
G0 F3600 X134.388 Y106.669
G1 F2400 X142.047 Y114.329 E58.72731
G1 X142.117 Y114.399
G0 F3600 X141.482 Y114.329
G1 F2400 X133.822 Y106.669 E59.08761
G1 X133.752 Y106.599
G0 F3600 X133.257 Y106.669
G1 F2400 X140.916 Y114.329 E59.44789
G1 X140.986 Y114.399
G0 F3600 X140.35 Y114.329
G1 F2400 X132.691 Y106.669 E59.80817
G1 X132.621 Y106.599
G0 F3600 X132.125 Y106.669
G1 F2400 X139.785 Y114.329 E60.16847
G1 X139.855 Y114.399
G0 F3600 X139.219 Y114.329
G1 F2400 X131.56 Y106.669 E60.52875
G1 X131.49 Y106.599
G0 F3600 X130.994 Y106.669
G1 F2400 X138.653 Y114.329 E60.88903
G1 X138.723 Y114.399
G0 F3600 X138.088 Y114.329
G1 F2400 X130.428 Y106.669 E61.24933
G1 X130.358 Y106.599
G0 F3600 X129.862 Y106.669
G1 F2400 X137.522 Y114.329 E61.60964
G1 X137.592 Y114.399
G0 F3600 X136.956 Y114.329
G1 F2400 X129.297 Y106.669 E61.96992
G1 X129.227 Y106.599
G0 F3600 X128.731 Y106.669
G1 F2400 X136.39 Y114.329 E62.3302
G1 X136.46 Y114.399
G0 F3600 X135.825 Y114.329
G1 F2400 X128.165 Y106.669 E62.6905
G1 X128.095 Y106.599
G0 F3600 X127.6 Y106.669
G1 F2400 X135.259 Y114.329 E63.05078
G1 X135.329 Y114.399
G0 F3600 X134.693 Y114.329
G1 F2400 X127.034 Y106.669 E63.41106
G1 X126.964 Y106.599
G0 F3600 X126.468 Y106.669
G1 F2400 X134.128 Y114.329 E63.77136
G1 X134.198 Y114.399
G0 F3600 X133.562 Y114.329
G1 F2400 X125.903 Y106.669 E64.13164
G1 X125.833 Y106.599
G0 F3600 X125.337 Y106.669
G1 F2400 X132.996 Y114.329 E64.49192
G1 X133.066 Y114.399
G0 F3600 X132.431 Y114.329
G1 F2400 X124.771 Y106.669 E64.85222
G1 X124.701 Y106.599
G0 F3600 X124.206 Y106.669
G1 F2400 X131.865 Y114.329 E65.2125
G1 X131.935 Y114.399
G0 F3600 X131.299 Y114.329
G1 F2400 X123.64 Y106.669 E65.57278
G1 X123.57 Y106.599
G0 F3600 X123.074 Y106.669
G1 F2400 X130.734 Y114.329 E65.93308
G1 X130.804 Y114.399
G0 F3600 X130.168 Y114.329
G1 F2400 X122.509 Y106.669 E66.29336
G1 X122.439 Y106.599
G0 F3600 X121.943 Y106.669
G1 F2400 X129.602 Y114.329 E66.65364
G1 X129.672 Y114.399
G0 F3600 X129.037 Y114.329
G1 F2400 X121.377 Y106.669 E67.01395
G1 X121.307 Y106.599
G0 F3600 X120.812 Y106.669
G1 F2400 X128.471 Y114.329 E67.37422
G1 X128.541 Y114.399
G0 F3600 X127.905 Y114.329
G1 F2400 X120.246 Y106.669 E67.7345
G1 X120.176 Y106.599
G0 F3600 X119.68 Y106.669
G1 F2400 X127.34 Y114.329 E68.09481
G1 X127.41 Y114.399
G0 F3600 X126.774 Y114.329
G1 F2400 X119.114 Y106.669 E68.45511
G1 X119.044 Y106.599
G0 F3600 X118.549 Y106.669
G1 F2400 X126.208 Y114.329 E68.81539
G1 X126.278 Y114.399
G0 F3600 X125.642 Y114.329
G1 F2400 X117.983 Y106.669 E69.17567
G1 X117.913 Y106.599
G0 F3600 X117.417 Y106.669
G1 F2400 X125.077 Y114.329 E69.53597
G1 X125.147 Y114.399
G0 F3600 X124.511 Y114.329
G1 F2400 X116.852 Y106.669 E69.89625
G1 X116.782 Y106.599
G0 F3600 X116.286 Y106.669
G1 F2400 X123.945 Y114.329 E70.25653
G1 X124.015 Y114.399
G0 F3600 X123.38 Y114.329
G1 F2400 X115.72 Y106.669 E70.61683
G1 X115.65 Y106.599
G0 F3600 X115.155 Y106.669
G1 F2400 X122.814 Y114.329 E70.97711
G1 X122.884 Y114.399
G0 F3600 X122.248 Y114.329
G1 F2400 X114.589 Y106.669 E71.33739
G1 X114.519 Y106.599
G0 F3600 X114.023 Y106.669
G1 F2400 X121.683 Y114.329 E71.6977
G1 X121.753 Y114.399
G0 F3600 X121.117 Y114.329
