;FLAVOR:RepRap
;TIME:513
;Filament used: 0.693268m
;Layer height: 0.3
;Generated with Cura_SteamEngine master
M104 S200
M109 S200
; -- START GCODE --
M800        ; Custom GCODE to fire start print procedure
; -- end of START GCODE --
;LAYER_COUNT:78
;LAYER:0
M107
G0 F3600 X137.363 Y96.752 Z0.2
;TYPE:SKIRT
G1 F3000 X137.77 Y96.268 E0.02103
G1 X138.236 Y95.84 E0.04208
G1 X138.819 Y95.433 E0.06573
G1 X138.973 Y95.341 E0.07169
G1 X139.535 Y95.051 E0.09273
G1 X140.129 Y94.835 E0.11375
G1 X140.745 Y94.696 E0.13475
G1 X141.537 Y94.633 E0.16118
G1 X155.459 Y94.634 E0.62422
G1 X156.09 Y94.674 E0.64525
G1 X156.711 Y94.793 E0.66628
G1 X157.312 Y94.99 E0.68732
G1 X157.883 Y95.261 E0.70834
G1 X158.415 Y95.602 E0.72936
G1 X158.942 Y96.047 E0.7523
G1 X159.15 Y96.249 E0.76194
G1 X159.575 Y96.717 E0.78297
G1 X159.937 Y97.235 E0.80399
G1 X160.231 Y97.795 E0.82503
G1 X160.452 Y98.387 E0.84604
G1 X160.597 Y99.003 E0.86709
G1 X160.667 Y99.848 E0.89529
G1 X160.642 Y110.252 E1.24133
G1 X160.601 Y110.883 E1.26236
G1 X160.48 Y111.503 E1.28337
G1 X160.282 Y112.104 E1.30442
G1 X160.009 Y112.674 E1.32544
G1 X159.667 Y113.206 E1.34648
G1 X159.261 Y113.69 E1.36749
G1 X158.851 Y114.074 E1.38617
G1 X158.716 Y114.187 E1.39203
G1 X158.207 Y114.561 E1.41303
G1 X157.654 Y114.868 E1.43407
G1 X157.067 Y115.103 E1.4551
G1 X156.456 Y115.262 E1.4761
G1 X155.829 Y115.343 E1.49713
G1 X155.512 Y115.353 E1.50768
G1 X141.542 Y115.366 E1.97232
G1 X140.911 Y115.327 E1.99335
G1 X140.29 Y115.208 E2.01438
G1 X139.689 Y115.012 E2.0354
G1 X139.117 Y114.742 E2.05644
G1 X138.585 Y114.401 E2.07746
G1 X138.113 Y114.01 E2.09784
G1 X137.914 Y113.823 E2.10693
G1 X137.482 Y113.362 E2.12794
G1 X137.111 Y112.85 E2.14897
G1 X136.808 Y112.295 E2.17
G1 X136.577 Y111.706 E2.19104
G1 X136.422 Y111.093 E2.21207
G1 X136.338 Y110.157 E2.24333
G1 X136.383 Y99.703 E2.59104
G1 X136.426 Y99.073 E2.61204
G1 X136.548 Y98.453 E2.63306
G1 X136.747 Y97.853 E2.65408
G1 X137.02 Y97.283 E2.6751
G1 X137.363 Y96.752 E2.69613
G0 F3600 X137.76 Y96.891
G1 F3000 X138.164 Y96.439 E2.71629
G1 X138.624 Y96.044 E2.73646
G1 X139.024 Y95.776 E2.75247
G1 X139.178 Y95.684 E2.75844
G1 X139.718 Y95.408 E2.77861
G1 X140.289 Y95.205 E2.79876
G1 X140.882 Y95.08 E2.81892
G1 X141.537 Y95.033 E2.84076
G1 X155.459 Y95.034 E3.30381
G1 X156.064 Y95.074 E3.32397
G1 X156.659 Y95.193 E3.34416
G1 X157.232 Y95.39 E3.36431
G1 X157.775 Y95.66 E3.38448
G1 X158.278 Y95.999 E3.40465
G1 X158.664 Y96.334 E3.42165
G1 X158.872 Y96.536 E3.4313
G1 X159.278 Y96.986 E3.45146
G1 X159.621 Y97.486 E3.47162
G1 X159.896 Y98.026 E3.49178
G1 X160.097 Y98.598 E3.51194
G1 X160.222 Y99.192 E3.53213
G1 X160.267 Y99.847 E3.55397
G1 X160.242 Y110.251 E3.90001
G1 X160.201 Y110.856 E3.92018
G1 X160.08 Y111.45 E3.94034
G1 X159.882 Y112.023 E3.9605
G1 X159.611 Y112.565 E3.98066
G1 X159.271 Y113.067 E4.00082
G1 X158.867 Y113.52 E4.02101
G1 X158.595 Y113.767 E4.03323
G1 X158.46 Y113.88 E4.03909
G1 X157.97 Y114.238 E4.05927
G1 X157.438 Y114.528 E4.07942
G1 X156.872 Y114.746 E4.0996
G1 X156.282 Y114.887 E4.11977
G1 X155.511 Y114.953 E4.14551
G1 X141.541 Y114.966 E4.61015
G1 X140.936 Y114.927 E4.63032
G1 X140.342 Y114.808 E4.65047
G1 X139.768 Y114.612 E4.67064
G1 X139.225 Y114.343 E4.6908
G1 X138.722 Y114.004 E4.71097
G1 X138.387 Y113.718 E4.72562
G1 X138.188 Y113.531 E4.7347
G1 X137.774 Y113.088 E4.75487
G1 X137.423 Y112.594 E4.77503
G1 X137.139 Y112.058 E4.7952
G1 X136.929 Y111.489 E4.81537
G1 X136.795 Y110.898 E4.83553
G1 X136.738 Y110.159 E4.86018
G1 X136.783 Y99.705 E5.20789
G1 X136.826 Y99.1 E5.22806
G1 X136.947 Y98.506 E5.24822
G1 X137.146 Y97.934 E5.26837
G1 X137.419 Y97.392 E5.28855
G1 X137.76 Y96.891 E5.30871
G0 F3600 X138.156 Y97.037
G1 F3000 X138.556 Y96.618 E5.32797
G1 X139.229 Y96.119 E5.35584
G1 X139.383 Y96.027 E5.36181
G1 X139.9 Y95.765 E5.38108
G1 X140.447 Y95.577 E5.40032
G1 X141.016 Y95.465 E5.41961
G1 X141.537 Y95.433 E5.43697
G1 X155.459 Y95.434 E5.90002
G1 X156.037 Y95.474 E5.91929
G1 X156.604 Y95.593 E5.93856
G1 X157.149 Y95.789 E5.95782
G1 X157.662 Y96.058 E5.97709
G1 X158.133 Y96.396 E5.99637
G1 X158.385 Y96.621 E6.00761
G1 X158.593 Y96.823 E6.01725
G1 X158.98 Y97.254 E6.03652
G1 X159.304 Y97.735 E6.0558
G1 X159.558 Y98.255 E6.07505
G1 X159.739 Y98.806 E6.09434
G1 X159.842 Y99.376 E6.11361
G1 X159.867 Y99.846 E6.12926
G1 X159.842 Y110.25 E6.4753
G1 X159.801 Y110.828 E6.49457
G1 X159.68 Y111.395 E6.51386
G1 X159.483 Y111.939 E6.5331
G1 X159.213 Y112.452 E6.55238
G1 X158.874 Y112.922 E6.57166
G1 X158.338 Y113.461 E6.59694
G1 X158.203 Y113.574 E6.60279
G1 X157.734 Y113.914 E6.62206
G1 X157.223 Y114.187 E6.64133
G1 X156.679 Y114.386 E6.6606
G1 X156.113 Y114.509 E6.67986
G1 X155.511 Y114.553 E6.69994
G1 X141.541 Y114.566 E7.16458
G1 X140.963 Y114.527 E7.18385
G1 X140.396 Y114.408 E7.20312
G1 X139.851 Y114.213 E7.22237
G1 X139.337 Y113.944 E7.24167
G1 X138.661 Y113.427 E7.26997
G1 X138.462 Y113.24 E7.27905
G1 X138.068 Y112.815 E7.29833
G1 X137.736 Y112.34 E7.3176
G1 X137.473 Y111.824 E7.33687
G1 X137.284 Y111.276 E7.35615
G1 X137.171 Y110.708 E7.37541
G1 X137.138 Y110.161 E7.39364
G1 X137.183 Y99.707 E7.74134
G1 X137.225 Y99.129 E7.76062
G1 X137.347 Y98.563 E7.77987
G1 X137.545 Y98.018 E7.79916
G1 X137.817 Y97.507 E7.81841
G1 X138.156 Y97.037 E7.83769
G0 F3600 X138.551 Y97.191
G1 F3000 X138.947 Y96.808 E7.85601
G1 X139.434 Y96.463 E7.87586
G1 X139.588 Y96.371 E7.88183
G1 X140.08 Y96.123 E7.90015
G1 X140.603 Y95.949 E7.91849
G1 X141.146 Y95.853 E7.93683
G1 X141.537 Y95.833 E7.94985
G1 X155.459 Y95.834 E8.4129
G1 X156.009 Y95.874 E8.43124
G1 X156.547 Y95.993 E8.44956
G1 X157.062 Y96.189 E8.46789
G1 X157.543 Y96.457 E8.4862
G1 X158.106 Y96.908 E8.5102
G1 X158.314 Y97.11 E8.51984
G1 X158.681 Y97.521 E8.53817
G1 X158.984 Y97.982 E8.55652
G1 X159.217 Y98.481 E8.57483
G1 X159.376 Y99.008 E8.59314
G1 X159.456 Y99.554 E8.6115
G1 X159.467 Y99.845 E8.62118
G1 X159.442 Y110.249 E8.96722
G1 X159.401 Y110.799 E8.98556
G1 X159.28 Y111.336 E9.00387
G1 X159.084 Y111.851 E9.0222
G1 X158.814 Y112.332 E9.04055
G1 X158.479 Y112.769 E9.05886
G1 X158.081 Y113.154 E9.07728
G1 X157.946 Y113.267 E9.08313
G1 X157.499 Y113.589 E9.10146
G1 X157.01 Y113.843 E9.11978
G1 X156.49 Y114.024 E9.1381
G1 X155.948 Y114.127 E9.15645
G1 X155.511 Y114.153 E9.17101
G1 X141.541 Y114.166 E9.63565
G1 X140.991 Y114.127 E9.65399
G1 X140.453 Y114.008 E9.67232
G1 X139.938 Y113.813 E9.69063
G1 X139.456 Y113.545 E9.70898
G1 X138.935 Y113.135 E9.73103
G1 X138.736 Y112.948 E9.74011
G1 X138.363 Y112.543 E9.75842
G1 X138.052 Y112.088 E9.77675
G1 X137.811 Y111.592 E9.79509
G1 X137.643 Y111.067 E9.81343
G1 X137.554 Y110.524 E9.83173
G1 X137.538 Y110.163 E9.84375
G1 X137.583 Y99.709 E10.19145
G1 X137.625 Y99.159 E10.2098
G1 X137.747 Y98.622 E10.22811
G1 X137.944 Y98.108 E10.24642
G1 X138.215 Y97.627 E10.26478
G1 X138.551 Y97.191 E10.28309
G0 F3600 X138.946 Y97.355
G1 F3000 X139.336 Y97.01 E10.30041
G1 X139.639 Y96.806 E10.31256
G1 X139.793 Y96.714 E10.31853
G1 X140.26 Y96.482 E10.33587
G1 X140.756 Y96.324 E10.35318
G1 X141.271 Y96.243 E10.37052
G1 X141.537 Y96.233 E10.37938
G1 X155.459 Y96.234 E10.84242
G1 X155.979 Y96.274 E10.85977
G1 X156.486 Y96.393 E10.87709
G1 X156.97 Y96.588 E10.89445
G1 X157.417 Y96.855 E10.91177
G1 X157.828 Y97.195 E10.92951
G1 X158.036 Y97.397 E10.93915
G1 X158.381 Y97.788 E10.95649
G1 X158.662 Y98.226 E10.9738
G1 X158.873 Y98.703 E10.99115
G1 X159.008 Y99.206 E11.00847
G1 X159.067 Y99.844 E11.02978
G1 X159.042 Y110.248 E11.37582
G1 X159.001 Y110.768 E11.39317
G1 X158.881 Y111.275 E11.4105
G1 X158.684 Y111.758 E11.42785
G1 X158.417 Y112.205 E11.44517
G1 X158.084 Y112.606 E11.4625
G1 X157.824 Y112.847 E11.47429
G1 X157.689 Y112.96 E11.48015
G1 X157.265 Y113.263 E11.49748
G1 X156.8 Y113.498 E11.51481
G1 X156.304 Y113.658 E11.53215
G1 X155.79 Y113.741 E11.54946
G1 X155.51 Y113.753 E11.55878
G1 X141.54 Y113.766 E12.02343
G1 X141.021 Y113.727 E12.04074
G1 X140.513 Y113.608 E12.05809
G1 X140.03 Y113.414 E12.0754
G1 X139.581 Y113.147 E12.09278
G1 X139.209 Y112.844 E12.10874
G1 X139.01 Y112.657 E12.11782
G1 X138.658 Y112.272 E12.13517
G1 X138.37 Y111.838 E12.15249
G1 X138.151 Y111.365 E12.16983
G1 X138.008 Y110.864 E12.18716
G1 X137.938 Y110.164 E12.21056
G1 X137.983 Y99.71 E12.55826
G1 X138.025 Y99.191 E12.57558
G1 X138.146 Y98.684 E12.59292
G1 X138.343 Y98.202 E12.61024
G1 X138.612 Y97.755 E12.62759
G1 X138.946 Y97.355 E12.64492
G0 F3600 X139.009 Y97.891
G1 F3000 X139.339 Y97.529 E12.66121
G1 X139.844 Y97.15 E12.68221
G1 X139.998 Y97.058 E12.68818
G1 X140.438 Y96.842 E12.70448
G1 X140.906 Y96.7 E12.72075
G1 X141.537 Y96.633 E12.74185
G1 X155.459 Y96.634 E13.2049
G1 X155.947 Y96.674 E13.22119
G1 X156.422 Y96.793 E13.23747
G1 X156.871 Y96.987 E13.25374
G1 X157.283 Y97.252 E13.27003
G1 X157.549 Y97.482 E13.28173
G1 X157.757 Y97.684 E13.29137
G1 X158.079 Y98.052 E13.30764
G1 X158.337 Y98.468 E13.32392
G1 X158.524 Y98.921 E13.34022
G1 X158.635 Y99.398 E13.35651
G1 X158.667 Y99.843 E13.37135
G1 X158.642 Y110.247 E13.71739
G1 X158.601 Y110.735 E13.73367
G1 X158.481 Y111.21 E13.74997
G1 X158.286 Y111.658 E13.76622
G1 X158.02 Y112.069 E13.7825
G1 X157.568 Y112.54 E13.80422
G1 X157.433 Y112.653 E13.81007
G1 X157.033 Y112.936 E13.82637
G1 X156.592 Y113.15 E13.84267
G1 X156.123 Y113.289 E13.85894
G1 X155.51 Y113.353 E13.87944
G1 X141.54 Y113.366 E14.34408
G1 X141.052 Y113.327 E14.36037
G1 X140.577 Y113.208 E14.37665
G1 X140.127 Y113.014 E14.39295
G1 X139.716 Y112.75 E14.4092
G1 X139.483 Y112.552 E14.41937
G1 X139.284 Y112.365 E14.42845
G1 X138.955 Y112.002 E14.44475
G1 X138.691 Y111.59 E14.46102
G1 X138.496 Y111.141 E14.4773
G1 X138.378 Y110.666 E14.49358
G1 X138.338 Y110.166 E14.51026
G1 X138.383 Y99.712 E14.85797
G1 X138.425 Y99.224 E14.87426
G1 X138.546 Y98.75 E14.89053
G1 X138.742 Y98.302 E14.9068
G1 X139.009 Y97.891 E14.9231
G0 F3600 X139.405 Y98.038
G1 F3000 X139.73 Y97.718 E14.93827
G1 X140.05 Y97.493 E14.95128
G1 X140.204 Y97.401 E14.95724
G1 X140.614 Y97.202 E14.9724
G1 X141.052 Y97.079 E14.98753
G1 X141.537 Y97.033 E15.00374
G1 X155.459 Y97.034 E15.46678
G1 X155.913 Y97.074 E15.48194
G1 X156.353 Y97.193 E15.4971
G1 X156.765 Y97.386 E15.51224
G1 X157.27 Y97.769 E15.53332
G1 X157.478 Y97.971 E15.54296
G1 X157.776 Y98.316 E15.55812
G1 X158.009 Y98.707 E15.57326
G1 X158.17 Y99.133 E15.58841
G1 X158.254 Y99.581 E15.60357
G1 X158.267 Y99.842 E15.61226
G1 X158.242 Y110.246 E15.9583
G1 X158.201 Y110.7 E15.97346
G1 X158.081 Y111.14 E15.98863
G1 X157.887 Y111.552 E16.00378
G1 X157.623 Y111.923 E16.01892
G1 X157.311 Y112.234 E16.03357
G1 X157.176 Y112.347 E16.03943
G1 X156.802 Y112.607 E16.05458
G1 X156.389 Y112.799 E16.06973
G1 X155.948 Y112.915 E16.08489
G1 X155.509 Y112.953 E16.09955
G1 X141.539 Y112.966 E16.56419
G1 X141.086 Y112.926 E16.57932
G1 X140.645 Y112.808 E16.5945
G1 X140.233 Y112.615 E16.60963
G1 X139.757 Y112.261 E16.62936
G1 X139.558 Y112.074 E16.63845
G1 X139.254 Y111.734 E16.65362
G1 X139.015 Y111.346 E16.66877
G1 X138.847 Y110.923 E16.68391
G1 X138.755 Y110.476 E16.69909
G1 X138.738 Y110.168 E16.70935
G1 X138.783 Y99.714 E17.05705
G1 X138.825 Y99.26 E17.07222
G1 X138.945 Y98.821 E17.08736
G1 X139.141 Y98.409 E17.10253
G1 X139.405 Y98.038 E17.11768
G0 F3600 X139.539 Y98.526
G1 F3000 X139.8 Y98.198 E17.13162
G1 X140.255 Y97.836 E17.15096
G1 X140.409 Y97.744 E17.15692
G1 X140.787 Y97.565 E17.17083
G1 X141.193 Y97.46 E17.18478
G1 X141.537 Y97.433 E17.19626
G1 X155.459 Y97.434 E17.65931
G1 X155.876 Y97.474 E17.67324
G1 X156.278 Y97.592 E17.68717
G1 X156.651 Y97.785 E17.70114
G1 X156.992 Y98.056 E17.71563
G1 X157.2 Y98.258 E17.72527
G1 X157.471 Y98.577 E17.73919
G1 X157.677 Y98.942 E17.75313
G1 X157.81 Y99.339 E17.76706
G1 X157.867 Y99.841 E17.78386
G1 X157.842 Y110.245 E18.1299
G1 X157.801 Y110.662 E18.14384
G1 X157.682 Y111.064 E18.15778
G1 X157.489 Y111.436 E18.17172
G1 X157.228 Y111.764 E18.18566
G1 X157.054 Y111.927 E18.19359
G1 X156.919 Y112.04 E18.19945
G1 X156.574 Y112.277 E18.21337
G1 X156.189 Y112.444 E18.22733
G1 X155.78 Y112.536 E18.24127
G1 X155.509 Y112.553 E18.2503
G1 X141.539 Y112.566 E18.71495
G1 X141.122 Y112.526 E18.72888
G1 X140.72 Y112.409 E18.74281
G1 X140.347 Y112.217 E18.75676
G1 X140.03 Y111.969 E18.77015
G1 X139.831 Y111.782 E18.77923
G1 X139.555 Y111.467 E18.79316
G1 X139.343 Y111.106 E18.80708
G1 X139.203 Y110.711 E18.82102
G1 X139.138 Y110.17 E18.83914
G1 X139.183 Y99.716 E19.18685
G1 X139.225 Y99.299 E19.20079
G1 X139.345 Y98.897 E19.21474
G1 X139.539 Y98.526 E19.22867
G0 F3600 X140.46 Y98.18
G1 F3000 X140.614 Y98.088 E19.23463
G1 X140.958 Y97.929 E19.24724
G1 X141.327 Y97.845 E19.25982
G1 X141.537 Y97.833 E19.26682
G1 X155.459 Y97.834 E19.72987
G1 X155.836 Y97.874 E19.74248
G1 X156.196 Y97.992 E19.75508
G1 X156.524 Y98.183 E19.7677
G1 X156.713 Y98.343 E19.77594
G1 X156.921 Y98.545 E19.78558
G1 X157.164 Y98.836 E19.79819
G1 X157.34 Y99.171 E19.81078
G1 X157.442 Y99.536 E19.82338
G1 X157.467 Y99.84 E19.83353
G1 X157.442 Y110.244 E20.17957
G1 X157.401 Y110.621 E20.19218
G1 X157.282 Y110.981 E20.20479
G1 X157.091 Y111.308 E20.21739
G1 X156.797 Y111.62 E20.23165
G1 X156.662 Y111.733 E20.2375
G1 X156.348 Y111.945 E20.2501
G1 X155.996 Y112.085 E20.2627
G1 X155.509 Y112.153 E20.27906
G1 X141.539 Y112.166 E20.7437
G1 X141.162 Y112.126 E20.75631
G1 X140.802 Y112.009 E20.7689
G1 X140.474 Y111.819 E20.78151
G1 X140.304 Y111.678 E20.78885
G1 X140.105 Y111.491 E20.79794
G1 X139.858 Y111.204 E20.81053
G1 X139.676 Y110.871 E20.82315
G1 X139.568 Y110.508 E20.83575
G1 X139.538 Y110.171 E20.847
G1 X139.583 Y99.717 E21.19471
G1 X139.625 Y99.341 E21.20729
G1 X139.744 Y98.981 E21.2199
G1 X139.936 Y98.654 E21.23251
G1 X140.192 Y98.375 E21.24511
G1 X140.46 Y98.18 E21.25613
G0 F3600 X140.819 Y98.431
G1 F3000 X141.124 Y98.295 E21.26724
G1 X141.537 Y98.233 E21.28113
G1 X155.459 Y98.234 E21.74418
G1 X155.791 Y98.274 E21.7553
G1 X156.104 Y98.391 E21.76641
G1 X156.434 Y98.63 E21.77996
G1 X156.642 Y98.832 E21.78961
G1 X156.853 Y99.091 E21.80072
G1 X156.995 Y99.393 E21.81182
G1 X157.067 Y99.839 E21.82684
G1 X157.042 Y110.243 E22.17288
G1 X157.001 Y110.575 E22.18401
G1 X156.883 Y110.887 E22.1951
G1 X156.695 Y111.163 E22.20621
G1 X156.541 Y111.314 E22.21339
G1 X156.406 Y111.427 E22.21924
G1 X156.126 Y111.609 E22.23035
G1 X155.811 Y111.72 E22.24146
G1 X155.508 Y111.753 E22.25159
G1 X141.538 Y111.766 E22.71624
G1 X141.207 Y111.726 E22.72733
G1 X140.894 Y111.609 E22.73844
G1 X140.578 Y111.386 E22.75131
G1 X140.379 Y111.199 E22.76039
G1 X140.165 Y110.943 E22.77149
G1 X140.017 Y110.643 E22.78261
G1 X139.938 Y110.173 E22.79846
G1 X139.983 Y99.719 E23.14617
G1 X140.024 Y99.387 E23.15729
G1 X140.143 Y99.075 E23.1684
G1 X140.332 Y98.8 E23.1795
G1 X140.665 Y98.523 E23.19391
G1 X140.819 Y98.431 E23.19987
G0 F3600 X140.87 Y98.867
G1 F3000 X141.024 Y98.775 E23.20584
G1 X141.284 Y98.665 E23.21523
G1 X141.537 Y98.633 E23.22371
G1 X155.459 Y98.634 E23.68676
G1 X155.738 Y98.674 E23.69613
G1 X155.995 Y98.79 E23.70551
G1 X156.156 Y98.917 E23.71233
G1 X156.364 Y99.119 E23.72197
G1 X156.536 Y99.342 E23.73134
G1 X156.64 Y99.604 E23.74072
G1 X156.667 Y99.838 E23.74855
G1 X156.642 Y110.242 E24.09459
G1 X156.602 Y110.522 E24.104
G1 X156.485 Y110.778 E24.11336
G1 X156.284 Y111.007 E24.12349
G1 X156.149 Y111.12 E24.12935
G1 X155.909 Y111.269 E24.13875
G1 X155.508 Y111.353 E24.15237
G1 X141.538 Y111.366 E24.61702
G1 X141.259 Y111.326 E24.62639
G1 X141.001 Y111.21 E24.6358
G1 X140.852 Y111.095 E24.64206
G1 X140.653 Y110.908 E24.65114
G1 X140.477 Y110.687 E24.66054
G1 X140.369 Y110.427 E24.6699
G1 X140.338 Y110.175 E24.67835
G1 X140.383 Y99.721 E25.02605
G1 X140.424 Y99.442 E25.03543
G1 X140.541 Y99.185 E25.04482
G1 X140.726 Y98.971 E25.05423
G1 X140.87 Y98.867 E25.06014
G0 F3600 X141.075 Y99.21
G1 F3000 X141.229 Y99.118 E25.06611
G1 X141.537 Y99.033 E25.07673
G1 X155.459 Y99.034 E25.53978
G1 X155.674 Y99.074 E25.54705
G1 X155.877 Y99.204 E25.55507
G1 X156.085 Y99.406 E25.56472
G1 X156.211 Y99.583 E25.57194
G1 X156.267 Y99.837 E25.58059
G1 X156.242 Y110.241 E25.92663
G1 X156.202 Y110.456 E25.93391
G1 X156.027 Y110.7 E25.94389
G1 X155.892 Y110.813 E25.94975
G1 X155.702 Y110.92 E25.957
