;FLAVOR:Marlin
;TIME:1009
;Filament used: 0.905548m
;Layer height: 0.2
;Generated with Cura_SteamEngine 3.2.1
M104 S200
M109 S200
M82 ;absolute extrusion mode
; -- START GCODE --
G21                     ;set units to millimetres
G90                     ;set to absolute positioning
M106 S0                 ;set fan speed to zero (turned off)
G28 X0 Y0               ;move to the X/Y origin (Home)
G28 Z0                  ;move to the Z origin (Home)
G1 Z15.0 F1200          ;move Z to position 15.0 mm
G92 E0                  ;zero the extruded length
G1 E20 F200             ;extrude 20mm of feed stock
G92 E0                  ;zero the extruded length again
G1 F7200                ;set feedrate to 120 mm/s
; -- end of START GCODE --
;LAYER_COUNT:34
;LAYER:0
M107
G0 F3600 X118.637 Y94.03 Z0.2
;TYPE:SKIRT
G1 F2400 X119.044 Y93.543 E0.02111
G1 X120.484 Y92.103 E0.08884
G1 X120.97 Y91.696 E0.10993
G1 X122.65 Y90.524 E0.17806
G1 X123.2 Y90.209 E0.19914
G1 X125.064 Y89.348 E0.26743
G1 X125.662 Y89.133 E0.28857
G1 X127.644 Y88.614 E0.35671
G1 X128.268 Y88.508 E0.37776
G1 X130.29 Y88.346 E0.44523
G1 X130.872 Y88.347 E0.46459
G1 X132.676 Y88.495 E0.52479
G1 X139.639 Y88.857 E0.75669
G1 X145.093 Y88.784 E0.93811
G1 X150.523 Y88.404 E1.11915
G1 X155.931 Y87.717 E1.30047
G1 X161.917 Y86.595 E1.50303
G1 X162.608 Y86.533 E1.52611
G1 X167.429 Y86.571 E1.68646
G1 X167.964 Y86.615 E1.70431
G1 X168.486 Y86.738 E1.72215
G1 X169.153 Y87.026 E1.74631
G1 X173.211 Y89.286 E1.9008
G1 X173.443 Y89.427 E1.90983
G1 X175.281 Y90.641 E1.9831
G1 X175.694 Y90.959 E2.00043
G1 X177.538 Y92.605 E2.08265
G1 X177.894 Y92.972 E2.09965
G1 X178.567 Y93.771 E2.1344
G1 X178.806 Y94.088 E2.1476
G1 X179.718 Y95.451 E2.20215
G1 X179.964 Y95.879 E2.21857
G1 X181.008 Y98.026 E2.29797
G1 X181.257 Y98.704 E2.32199
G1 X181.578 Y99.953 E2.36489
G1 X181.672 Y100.481 E2.38272
G1 X181.691 Y100.849 E2.39498
G1 X181.691 Y105.922 E2.56371
G1 X181.651 Y106.457 E2.58155
G1 X181.532 Y106.98 E2.59939
G1 X181.387 Y107.371 E2.61326
G1 X180.349 Y109.732 E2.69904
G1 X180.144 Y110.128 E2.71387
G1 X179.408 Y111.361 E2.76163
G1 X179.163 Y111.72 E2.77609
G1 X177.813 Y113.463 E2.84942
G1 X177.519 Y113.798 E2.86424
G1 X171.941 Y119.404 E3.12727
G1 X169.417 Y122.188 E3.25226
G1 X169.028 Y122.557 E3.27009
G1 X168.589 Y122.865 E3.28793
G1 X168.109 Y123.104 E3.30576
G1 X167.557 Y123.278 E3.32501
G1 X166.761 Y123.461 E3.35218
G1 X166.23 Y123.542 E3.37004
G1 X165.694 Y123.544 E3.38787
G1 X164.917 Y123.4 E3.41415
G1 X162.106 Y122.554 E3.51179
G1 X156.756 Y121.151 E3.69575
G1 X154.147 Y120.588 E3.78452
G1 X148.755 Y119.654 E3.96653
G1 X143.348 Y119.031 E4.14756
G1 X137.881 Y118.713 E4.3297
G1 X135.165 Y118.67 E4.42005
G1 X130.912 Y118.756 E4.56153
G1 X130.617 Y118.75 E4.57134
G1 X128.53 Y118.621 E4.64089
G1 X127.902 Y118.526 E4.66202
G1 X125.915 Y118.043 E4.73003
G1 X125.316 Y117.841 E4.75105
G1 X123.451 Y117.021 E4.81881
G1 X122.893 Y116.714 E4.84
G1 X121.189 Y115.57 E4.90826
G1 X120.697 Y115.173 E4.92929
G1 X119.224 Y113.753 E4.99734
G1 X118.808 Y113.273 E5.01846
G1 X117.609 Y111.618 E5.08644
G1 X117.282 Y111.072 E5.1076
G1 X116.387 Y109.219 E5.17605
G1 X116.163 Y108.627 E5.1971
G1 X115.612 Y106.666 E5.26485
G1 X115.495 Y106.042 E5.28597
G1 X115.296 Y104.005 E5.35404
G1 X115.29 Y103.37 E5.37516
G1 X115.453 Y101.318 E5.44362
G1 X115.559 Y100.692 E5.46474
G1 X116.074 Y98.723 E5.53243
G1 X116.288 Y98.126 E5.55353
G1 X117.146 Y96.266 E5.62166
G1 X117.462 Y95.715 E5.64278
G1 X118.637 Y94.03 E5.71111
G0 F3600 X118.965 Y94.259
G1 F2400 X119.327 Y93.826 E5.72988
G1 X120.767 Y92.386 E5.79761
G1 X121.199 Y92.025 E5.81634
G1 X122.879 Y90.853 E5.88447
G1 X123.368 Y90.572 E5.90322
G1 X125.232 Y89.711 E5.97152
G1 X125.763 Y89.52 E5.99028
G1 X127.745 Y89.001 E6.05843
G1 X128.3 Y88.907 E6.07715
G1 X130.322 Y88.745 E6.14462
G1 X130.84 Y88.746 E6.16185
G1 X132.625 Y88.893 E6.22142
G1 X139.639 Y89.257 E6.45502
G1 X145.109 Y89.184 E6.63697
G1 X150.568 Y88.802 E6.81898
G1 X155.984 Y88.114 E7.00056
G1 X161.99 Y86.988 E7.2038
G1 X162.605 Y86.933 E7.22434
G1 X167.426 Y86.971 E7.38469
G1 X167.93 Y87.015 E7.40152
G1 X168.42 Y87.138 E7.41832
G1 X168.958 Y87.375 E7.43788
G1 X173.016 Y89.635 E7.59237
G1 X173.223 Y89.761 E7.60043
G1 X175.061 Y90.975 E7.67369
G1 X175.428 Y91.258 E7.6891
G1 X177.272 Y92.904 E7.77131
G1 X177.588 Y93.229 E7.78639
G1 X178.261 Y94.028 E7.82114
G1 X178.474 Y94.31 E7.83289
G1 X179.386 Y95.673 E7.88744
G1 X179.604 Y96.054 E7.90204
G1 X180.648 Y98.201 E7.98144
G1 X180.869 Y98.803 E8.00277
G1 X181.19 Y100.052 E8.04566
G1 X181.277 Y100.551 E8.06251
G1 X181.291 Y100.849 E8.07243
G1 X181.291 Y105.922 E8.24116
G1 X181.251 Y106.426 E8.25798
G1 X181.132 Y106.917 E8.27478
G1 X181.02 Y107.21 E8.28521
G1 X179.982 Y109.571 E8.37099
G1 X179.801 Y109.923 E8.38416
G1 X179.065 Y111.156 E8.43192
G1 X178.847 Y111.475 E8.44477
G1 X177.497 Y113.218 E8.5181
G1 X177.235 Y113.516 E8.53129
G1 X171.654 Y119.124 E8.79444
G1 X169.121 Y121.919 E8.9199
G1 X168.753 Y122.266 E8.93672
G1 X168.335 Y122.55 E8.95353
G1 X167.877 Y122.765 E8.97036
G1 X167.467 Y122.889 E8.98461
G1 X166.671 Y123.072 E9.01177
G1 X166.171 Y123.146 E9.02858
G1 X165.665 Y123.14 E9.04541
G1 X165.032 Y123.017 E9.06686
G1 X162.213 Y122.169 E9.16477
G1 X156.85 Y120.763 E9.34917
G1 X154.226 Y120.196 E9.43846
G1 X148.815 Y119.259 E9.62111
G1 X143.382 Y118.633 E9.80301
G1 X137.886 Y118.313 E9.98612
G1 X135.163 Y118.27 E10.0767
G1 X130.904 Y118.356 E10.21838
G1 X130.642 Y118.351 E10.2271
G1 X128.555 Y118.222 E10.29664
G1 X127.996 Y118.137 E10.31545
G1 X126.009 Y117.654 E10.38346
G1 X125.477 Y117.474 E10.40214
G1 X123.612 Y116.654 E10.4699
G1 X123.116 Y116.382 E10.48872
G1 X121.412 Y115.238 E10.55698
G1 X120.975 Y114.885 E10.57566
G1 X119.502 Y113.465 E10.64371
G1 X119.132 Y113.038 E10.66251
G1 X117.933 Y111.383 E10.73048
G1 X117.643 Y110.898 E10.74927
G1 X116.748 Y109.045 E10.81772
G1 X116.548 Y108.519 E10.83643
G1 X115.997 Y106.558 E10.90418
G1 X115.893 Y106.003 E10.92296
G1 X115.694 Y103.966 E10.99104
G1 X115.689 Y103.402 E11.0098
G1 X115.852 Y101.35 E11.07826
G1 X115.946 Y100.793 E11.09705
G1 X116.461 Y98.824 E11.16474
G1 X116.651 Y98.294 E11.18347
G1 X117.509 Y96.434 E11.2516
G1 X117.79 Y95.944 E11.27038
G1 X118.965 Y94.259 E11.33871
G1 F1500 E4.83871
G0 F3600 X121.675 Y95.096
G0 X121.717 Y95.108
G0 X128.518 Y97.207
G0 X128.587 Y96.765
G0 X128.977 Y98.908
G0 X129.494 Y99.614
G0 X131.434 Y99.614
G0 X132.362 Y98.385
G0 X132.433 Y98.415
G0 X136.517 Y99.675
G0 X136.567 Y99.698
G0 X136.631 Y99.711
G0 X165.437 Y108.601
G0 X165.48 Y108.613
G0 X165.779 Y108.707
;TYPE:SUPPORT
G1 F1500 E11.33871
G1 F2400 X165.86 Y108.731 E11.34152
G1 X165.913 Y108.759 E11.34351
G1 X166.076 Y108.882 E11.3503
G1 X166.262 Y109.069 E11.35908
G1 X166.411 Y109.269 E11.36737
G1 X166.435 Y109.312 E11.36901
G1 X166.545 Y109.606 E11.37945
G1 X166.579 Y109.984 E11.39207
G1 X166.557 Y110.287 E11.40218
G1 X166.532 Y110.356 E11.40462
G1 X166.236 Y110.755 E11.42114
G1 X166.113 Y110.839 E11.4261
G1 X166.071 Y110.641 E11.43283
G1 X165.999 Y110.057 E11.4524
G1 X165.944 Y109.871 E11.45885
G1 X165.921 Y109.742 E11.46321
G1 X165.868 Y109.225 E11.48049
G1 X165.797 Y108.758 E11.4962
G1 X165.779 Y108.707 E11.498
G0 F3600 X166.034 Y109.306
G1 F2400 X166.238 Y109.306 E11.50479
G1 F1500 E5.00479
G0 F3600 X166.507 Y110.846
G0 X166.513 Y110.89
G0 X167.463 Y116.326
G0 X167.47 Y116.37
G0 X167.534 Y116.726
G1 F1500 E11.50479
G1 F2400 X167.723 Y117.912 E11.54473
G1 X167.704 Y117.999 E11.54769
G1 X167.189 Y118.72 E11.57716
G1 X167.12 Y118.85 E11.58206
G1 X166.78 Y119.376 E11.60289
G1 X166.72 Y119.49 E11.60718
G1 X166.624 Y119.624 E11.61266
G1 X166.56 Y119.665 E11.61519
G1 X165.947 Y119.763 E11.63583
G1 X165.877 Y119.748 E11.63821
G1 X165.654 Y119.59 E11.6473
G1 X165.625 Y119.558 E11.64874
G1 X165.016 Y119.031 E11.67553
G1 X164.34 Y118.525 E11.70361
G1 X164.303 Y118.464 E11.70599
G1 X164.08 Y117.085 E11.75245
G1 X164.973 Y117.045 E11.78218
G1 X165.822 Y116.959 E11.81056
G1 X167.534 Y116.726 E11.86803
G0 F3600 X167.464 Y117.304
G1 F2400 X164.276 Y117.304 E11.97406
G0 F3600 X165.292 Y117.173
G1 F2400 X165.292 Y119.059 E12.03679
G1 F1500 E5.53679
G0 F3600 X160.027 Y116.849
G0 X160.062 Y115.564
G0 X155.066 Y113.277
G0 X155.084 Y113.375
;TYPE:WALL-INNER
G1 F1500 E12.03679
G1 F2400 X154.972 Y113.54 E12.04342
G1 X154.706 Y113.93 E12.05912
G1 X154.676 Y113.908 E12.06036
G1 X154.551 Y113.879 E12.06463
G1 X154.477 Y113.849 E12.06728
G1 X154.286 Y113.79 E12.07393
G1 X154.053 Y113.746 E12.08182
G1 X153.982 Y113.654 E12.08568
G1 X153.831 Y113.522 E12.09236
G1 X153.698 Y113.436 E12.09762
G1 X153.444 Y113.293 E12.10732
G1 X153.48 Y112.578 E12.13113
G1 X153.922 Y112.588 E12.14583
G1 X154.306 Y112.537 E12.15872
G1 X154.528 Y112.448 E12.16667
G1 X154.711 Y112.327 E12.17397
G1 X154.865 Y112.166 E12.18138
G1 X154.983 Y111.968 E12.18905
G1 X155.046 Y111.755 E12.19643
G1 X155.066 Y111.552 E12.20322
G1 X155.053 Y111.347 E12.21005
G1 X155 Y111.119 E12.21784
G1 X154.835 Y110.863 E12.22797
G1 X154.643 Y110.729 E12.23575
G1 X154.436 Y110.651 E12.24311
G1 X154.19 Y110.627 E12.25133
G1 X154.221 Y108.75 E12.31377
G1 X154.198 Y107.546 E12.35382
G1 X154.375 Y107.537 E12.35972
G1 X154.599 Y107.506 E12.36724
G1 X154.8 Y107.45 E12.37418
G1 X155.039 Y107.325 E12.38315
G1 X155.181 Y107.189 E12.38969
G1 X155.298 Y107.028 E12.39631
G1 X155.324 Y106.957 E12.39882
G1 X155.37 Y106.834 E12.40319
G1 X155.375 Y106.801 E12.4043
G1 X155.404 Y106.637 E12.40984
G1 X155.402 Y106.6 E12.41107
G1 X155.389 Y106.366 E12.41887
G1 X155.387 Y106.347 E12.4195
G1 X155.35 Y106.211 E12.42419
G1 X155.332 Y106.148 E12.42637
G1 X155.24 Y105.963 E12.43324
G1 X155.137 Y105.824 E12.439
G1 X154.838 Y105.503 E12.45359
G1 X154.139 Y105.503 E12.47683
G1 X153.495 Y105.542 E12.49829
G1 X153.085 Y105.638 E12.5123
G1 X152.845 Y105.785 E12.52166
G1 X152.609 Y106.003 E12.53235
G1 X152.417 Y106.271 E12.54331
G1 X152.325 Y106.519 E12.55211
G1 X152.28 Y106.72 E12.55896
G1 X152.235 Y107.275 E12.57748
G1 X152.22 Y109.32 E12.6455
G1 X152.223 Y111.219 E12.70866
G1 X152.223 Y111.293 E12.71112
G1 X152.393 Y111.674 E12.725
G1 X152.525 Y111.94 E12.73487
G1 X152.314 Y111.777
G1 X152.023 Y111.552 E12.73953
G1 X151.965 Y111.507 E12.74177
G1 X151.562 Y111.194 E12.75875
G1 X150.506 Y110.135 E12.80849
G1 X150.548 Y110.087 E12.81061
G1 X150.055 Y109.635 E12.83285
G1 X149.663 Y109.209 E12.85211
G1 X149.283 Y108.679 E12.8738
G1 X149.09 Y108.392 E12.8853
G1 X148.565 Y107.689 E12.91449
G1 X147.623 Y108.304 E12.9519
G1 X147.669 Y108.385 E12.955
G1 X147.623 Y108.385
G1 X140.44 Y108.385 E13.19391
G1 X139.165 Y110.348 E13.27176
G1 X137.831 Y111.77 E13.33661
G1 X136.286 Y112.924 E13.40075
G1 X134.539 Y113.799 E13.46574
G1 X132.685 Y114.349 E13.53006
G1 X131.417 Y114.491 E13.57249
G1 X131.296 Y114.504 E13.57654
G1 X131.127 Y114.523 E13.5822
G1 X130.898 Y114.549 E13.58986
G1 X130.748 Y114.566 E13.59489
G1 X130.706 Y114.564 E13.59628
G1 X130.741 Y114.55
G1 X130.89 Y114.486
G1 X131.106 Y114.345
G1 X131.262 Y114.205 E13.59776
G1 X131.339 Y114.111 E13.60133
G1 X131.396 Y114.04 E13.60436
G1 X131.507 Y113.85 E13.61167
G1 X131.585 Y113.635 E13.61928
G1 X131.622 Y113.405 E13.62703
G1 X131.615 Y113.103 E13.63708
G1 X131.598 Y112.938 E13.64259
G1 X131.548 Y112.722 E13.64997
G1 X131.472 Y112.544 E13.6564
G1 X131.363 Y112.369 E13.66326
G1 X131.211 Y112.213 E13.67051
G1 X131.152 Y112.174 E13.67286
G1 X131.17 Y112.137 E13.67423
G1 X131.29 Y111.682 E13.68988
G1 X131.33 Y111.266 E13.70378
G1 X131.321 Y111.098 E13.70937
G1 X135.189 Y111.098 E13.83802
G1 X135.189 Y109.822 E13.88046
G1 X135.398 Y109.731 E13.88805
G1 X135.648 Y109.544 E13.89843
G1 X135.868 Y109.274 E13.91001
G1 X136.05 Y108.896 E13.92397
G1 X136.145 Y108.499 E13.93754
G1 X136.164 Y108.101 E13.9508
G1 X136.117 Y107.744 E13.96277
G1 X136.033 Y107.466 E13.97243
G1 X135.896 Y107.194 E13.98256
G1 X135.615 Y106.848 E13.99739
G1 X135.615 Y105.003 E14.05875
G1 X134.307 Y105.003 E14.10226
G1 X134.227 Y105.003 E14.10492
G1 X134.227 Y104.664 E14.11619
G1 X134.287 Y104.612 E14.11864
G1 X134.881 Y104.089 E14.14497
G1 X136.245 Y102.41 E14.21692
G1 X136.889 Y101.374 E14.25749
G1 X137.09 Y100.929 E14.27373
G1 X137.383 Y100.918 E14.28348
G1 X137.923 Y100.767 E14.30213
G1 X138.164 Y100.651 E14.31103
G1 X138.519 Y100.383 E14.32582
G1 X138.839 Y100.021 E14.34189
G1 X139.063 Y99.656 E14.35613
G1 X139.18 Y99.37 E14.36641
G1 X139.24 Y99.126 E14.37477
G1 X139.26 Y98.886 E14.38278
G1 X139.238 Y98.677 E14.38977
G1 X139.177 Y98.464 E14.39714
G1 X139.06 Y98.254 E14.40513
G1 X138.894 Y98.075 E14.41325
G1 X138.686 Y97.935 E14.42159
G1 X138.161 Y97.731 E14.44033
G1 X138.161 Y97.682 E14.44195
G1 X138.097 Y97.414 E14.45112
G1 X138.002 Y97.243 E14.45763
G1 X137.88 Y97.104 E14.46378
G1 X137.727 Y96.994 E14.47004
G1 X137.564 Y96.926 E14.47592
G1 X137.399 Y96.89 E14.48154
G1 X137.178 Y96.889 E14.48889
G1 X136.92 Y96.94 E14.49763
G1 X136.517 Y97.114 E14.51223
G1 X136.127 Y97.383 E14.52799
G1 X135.826 Y97.673 E14.54189
G1 X135.642 Y97.912 E14.55192
G1 X135.52 Y98.127 E14.56015
G1 X135.437 Y98.345 E14.56791
G1 X135.396 Y98.548 E14.57479
G1 X135.395 Y98.638 E14.57779
G1 X135.374 Y98.727 E14.58083
G1 X135.347 Y98.928 E14.58757
G1 X135.352 Y99.232 E14.59769
G1 X134.573 Y99.881 E14.63141
G1 X134.33 Y100.083 E14.64192
G1 X134.227 Y100.197 E14.64703
G1 X134.227 Y100.083
G1 X134.227 Y99.767 E14.65401
G1 X134.227 Y98.354 E14.701
G1 X133.777 Y98.354 E14.71597
G1 X133.678 Y98.354 E14.71926
G1 X133.647 Y98.354 E14.7203
G1 X133.678 Y98.152 E14.7218
G1 X133.678 Y98.053 E14.72452
G1 X133.681 Y97.469 E14.74394
G1 X133.567 Y96.615 E14.7726
G1 X133.55 Y96.551 E14.7748
G1 X133.546 Y96.539 E14.77522
G1 X133.707 Y96.508 E14.77633
G1 X134.175 Y96.313 E14.79319
G1 X134.597 Y96.027 E14.81015
G1 X134.955 Y95.657 E14.82727
G1 X135.229 Y95.22 E14.84443
G1 X135.396 Y94.772 E14.86033
G1 X135.518 Y94.066 E14.88416
G1 X135.554 Y93.862 E14.89105
G1 X135.563 Y93.805 E14.89297
G1 X135.801 Y93.92 E14.90176
G1 X136.168 Y94.099 E14.91534
G1 X137.743 Y95.247 E14.98016
G1 X139.085 Y96.645 E15.04462
G1 X140.378 Y98.585 E15.12216
G1 X147.688 Y98.585 E15.36529
G1 X147.828 Y98.585 E15.36995
G1 X147.688 Y98.809 E15.37444
G1 X147.953 Y99.278 E15.39236
G1 X147.723 Y99.398 E15.40099
G1 X147.448 Y99.614 E15.41262
G1 X147.317 Y99.907 E15.42329
G1 X147.301 Y100.165 E15.43189
G1 X147.31 Y100.355 E15.43822
G1 X147.357 Y100.555 E15.44505
G1 X147.438 Y100.721 E15.4512
G1 X147.552 Y100.865 E15.4573
G1 X147.711 Y100.983 E15.46389
G1 X147.91 Y101.068 E15.47109
G1 X147.923 Y101.069 E15.47152
G1 X148.141 Y101.101 E15.47885
G1 X148.204 Y101.11 E15.48097
G1 X148.247 Y101.115 E15.48241
G1 X148.285 Y101.121 E15.48368
G1 X148.272 Y101.163 E15.48463
G1 X148.269 Y101.176
G1 X148.211 Y101.365 E15.48886
G1 X148.16 Y101.458 E15.49239
G1 X148.047 Y101.661 E15.50012
G1 X147.642 Y102.237 E15.52354
G1 X147.544 Y102.414 E15.53027
G1 X147.454 Y102.548 E15.53564
G1 X147.378 Y102.711 E15.54162
G1 X147.266 Y103.176 E15.55753
G1 X147.228 Y103.762 E15.57706
G1 X147.29 Y104.308 E15.59533
G1 X147.389 Y104.591 E15.60531
G1 X147.525 Y104.849 E15.61501
G1 X147.731 Y105.142 E15.62692
G1 X147.95 Y105.372 E15.63748
G1 X148.146 Y105.527 E15.64579
G1 X148.394 Y105.652 E15.65503
G1 X148.682 Y105.696 E15.66472
G1 X148.97 Y105.704 E15.6743
G1 X149.285 Y105.681 E15.68481
G1 X149.469 Y105.621 E15.69125
G1 X149.642 Y105.509 E15.6981
G1 X149.853 Y105.261 E15.70893
G1 X149.951 Y105.097 E15.71528
G1 X149.996 Y104.974 E15.71964
G1 X150.013 Y104.924 E15.7214
G1 X150.037 Y104.761 E15.72688
G1 X150.039 Y104.746 E15.72738
G1 X150.036 Y104.682 E15.72951
G1 X150.035 Y104.667 E15.73001
G1 X150.027 Y104.552 E15.73385
G1 X150.129 Y104.631
G1 X150.182 Y104.673 E15.73407
G1 X150.195 Y104.679 E15.73454
G1 X150.23 Y104.695 E15.73582
G1 X150.394 Y104.77 E15.74182
G1 X150.407 Y104.776 E15.7423
G1 X150.422 Y104.779 E15.74281
G1 X150.642 Y104.827 E15.7503
G1 X150.862 Y104.827 E15.75761
G1 X151.087 Y104.776 E15.76529
G1 X151.313 Y104.667 E15.77363
G1 X151.549 Y104.466 E15.78394
G1 X151.68 Y104.291 E15.79121
G1 X151.775 Y104.09 E15.79861
G1 X151.819 Y103.867 E15.80617
G1 X151.818 Y103.63 E15.81405
