;FLAVOR:RepRap
;TIME:897
;Filament used: 0.835141m
;Layer height: 0.2
;Generated with Cura_SteamEngine 3.2.1
T0
M190 S60
M104 S200
M109 S200
M82 ;absolute extrusion mode
G28 ;Home
G1 Z15.0 F6000 ;Move the platform down 15mm
;Prime the extruder
G92 E0
G1 F200 E3
G92 E0
M83 ;relative extrusion mode
;LAYER_COUNT:34
;LAYER:0
M107
G0 F3600 X72.464 Y86.702 Z0.3
;TYPE:SKIRT
G1 F2400 X74.14 Y85.531 E0.102
G1 X74.691 Y85.215 E0.03169
G1 X76.557 Y84.352 E0.10257
G1 X77.154 Y84.137 E0.03166
G1 X79.14 Y83.616 E0.10243
G1 X79.765 Y83.51 E0.03163
G1 X81.791 Y83.347 E0.1014
G1 X82.335 Y83.344 E0.02714
G1 X88.474 Y83.779 E0.30704
G1 X93.934 Y83.858 E0.27243
G1 X99.39 Y83.627 E0.27244
G1 X104.787 Y83.092 E0.27058
G1 X110.222 Y82.24 E0.27446
G1 X113.373 Y81.604 E0.16037
G1 X114.113 Y81.533 E0.03709
G1 X118.922 Y81.57 E0.23993
G1 X119.456 Y81.614 E0.02673
G1 X119.978 Y81.737 E0.02676
G1 X120.619 Y82.01 E0.03476
G1 X122.919 Y83.266 E0.13074
G1 X123.036 Y83.333 E0.00673
G1 X126.1 Y85.158 E0.17793
G1 X126.437 Y85.386 E0.0203
G1 X127.527 Y86.215 E0.06832
G1 X127.807 Y86.451 E0.01827
G1 X129.103 Y87.663 E0.08853
G1 X129.424 Y88.005 E0.0234
G1 X130.175 Y88.918 E0.05898
G1 X130.388 Y89.205 E0.01783
G1 X131.218 Y90.447 E0.07453
G1 X131.443 Y90.834 E0.02233
G1 X132.357 Y92.657 E0.10174
G1 X132.605 Y93.296 E0.0342
G1 X133.056 Y94.9 E0.08313
G1 X133.162 Y95.425 E0.02672
G1 X133.19 Y95.884 E0.02294
G1 X133.175 Y101.069 E0.25868
G1 X133.133 Y101.604 E0.02677
G1 X133.013 Y102.127 E0.02677
G1 X132.832 Y102.593 E0.02494
G1 X131.646 Y105.111 E0.13886
G1 X131.424 Y105.514 E0.02295
G1 X130.255 Y107.346 E0.10842
G1 X129.88 Y107.835 E0.03074
G1 X128.349 Y109.514 E0.11336
G1 X127.87 Y109.952 E0.03238
G1 X126.734 Y110.817 E0.07124
G1 X126.426 Y111.027 E0.0186
G1 X125.484 Y111.601 E0.05503
G1 X125.221 Y111.747 E0.01501
G1 X121.206 Y113.755 E0.22396
G1 X120.481 Y114.024 E0.03858
G1 X119.334 Y114.315 E0.05904
G1 X118.988 Y114.385 E0.01761
G1 X116.916 Y114.699 E0.10455
G1 X116.47 Y114.739 E0.02234
G1 X113.398 Y114.818 E0.15331
G1 X113.212 Y114.818 E0.00928
G1 X111.399 Y114.771 E0.09048
G1 X110.981 Y114.736 E0.02093
G1 X103.659 Y113.685 E0.36904
G1 X98.242 Y113.262 E0.27108
G1 X92.801 Y113.144 E0.27152
G1 X87.332 Y113.337 E0.27302
G1 X82.581 Y113.744 E0.2379
G1 X82.043 Y113.75 E0.02684
G1 X79.994 Y113.618 E0.10244
G1 X79.366 Y113.521 E0.0317
G1 X77.395 Y113.037 E0.10125
G1 X76.803 Y112.836 E0.03119
G1 X74.937 Y112.014 E0.10173
G1 X74.379 Y111.706 E0.0318
G1 X72.685 Y110.567 E0.10184
G1 X72.193 Y110.17 E0.03154
G1 X70.714 Y108.742 E0.10257
G1 X70.298 Y108.261 E0.03173
G1 X69.102 Y106.607 E0.10183
G1 X68.777 Y106.062 E0.03166
G1 X67.885 Y104.213 E0.10242
G1 X67.661 Y103.62 E0.03163
G1 X67.109 Y101.65 E0.10207
G1 X66.992 Y101.026 E0.03167
G1 X66.796 Y99.002 E0.10145
G1 X66.79 Y98.368 E0.03163
G1 X66.954 Y96.315 E0.10275
G1 X67.06 Y95.691 E0.03158
G1 X67.574 Y93.726 E0.10133
G1 X67.787 Y93.132 E0.03148
G1 X68.643 Y91.272 E0.10215
G1 X68.96 Y90.719 E0.0318
G1 X70.133 Y89.036 E0.10235
G1 X70.54 Y88.549 E0.03166
G1 X71.98 Y87.108 E0.10164
G1 X72.464 Y86.702 E0.03152
G0 F3600 X72.693 Y87.03
G1 F2400 X74.369 Y85.859 E0.102
G1 X74.859 Y85.578 E0.02818
G1 X76.725 Y84.715 E0.10257
G1 X77.256 Y84.524 E0.02815
G1 X79.242 Y84.003 E0.10243
G1 X79.797 Y83.908 E0.02809
G1 X81.823 Y83.745 E0.1014
G1 X82.306 Y83.743 E0.0241
G1 X88.457 Y84.179 E0.30764
G1 X93.945 Y84.258 E0.27383
G1 X99.41 Y84.027 E0.27289
G1 X104.853 Y83.487 E0.27289
G1 X110.271 Y82.638 E0.2736
G1 X113.452 Y81.996 E0.1619
G1 X114.11 Y81.933 E0.03298
G1 X118.919 Y81.97 E0.23993
G1 X119.422 Y82.014 E0.02519
G1 X119.913 Y82.137 E0.02525
G1 X120.428 Y82.361 E0.02802
G1 X122.728 Y83.617 E0.13074
G1 X122.832 Y83.677 E0.00599
G1 X125.896 Y85.502 E0.17793
G1 X126.195 Y85.704 E0.018
G1 X127.285 Y86.533 E0.06832
G1 X127.534 Y86.743 E0.01625
G1 X128.83 Y87.955 E0.08853
G1 X129.115 Y88.259 E0.02079
G1 X129.866 Y89.172 E0.05898
G1 X130.056 Y89.427 E0.01587
G1 X130.886 Y90.669 E0.07453
G1 X131.086 Y91.013 E0.01985
G1 X132 Y92.836 E0.10174
G1 X132.22 Y93.404 E0.03039
G1 X132.671 Y95.008 E0.08313
G1 X132.769 Y95.504 E0.02522
G1 X132.79 Y95.883 E0.01894
G1 X132.775 Y101.068 E0.25868
G1 X132.734 Y101.572 E0.02523
G1 X132.613 Y102.063 E0.02523
G1 X132.47 Y102.423 E0.01933
G1 X131.284 Y104.941 E0.13886
G1 X131.087 Y105.298 E0.02034
G1 X129.918 Y107.13 E0.10842
G1 X129.585 Y107.565 E0.02733
G1 X128.054 Y109.244 E0.11336
G1 X127.628 Y109.634 E0.02881
G1 X126.492 Y110.499 E0.07124
G1 X126.218 Y110.686 E0.01655
G1 X125.276 Y111.26 E0.05503
G1 X125.042 Y111.389 E0.01333
G1 X121.027 Y113.397 E0.22396
G1 X120.383 Y113.637 E0.03429
G1 X119.236 Y113.928 E0.05904
G1 X118.928 Y113.99 E0.01567
G1 X116.856 Y114.304 E0.10455
G1 X116.459 Y114.339 E0.01988
G1 X113.387 Y114.418 E0.15331
G1 X113.222 Y114.418 E0.00823
G1 X111.409 Y114.371 E0.09048
G1 X111.037 Y114.34 E0.01862
G1 X103.698 Y113.287 E0.36989
G1 X98.265 Y112.862 E0.27188
G1 X92.795 Y112.744 E0.27296
G1 X87.304 Y112.937 E0.27412
G1 X82.547 Y113.345 E0.2382
G1 X82.068 Y113.35 E0.0239
G1 X80.019 Y113.218 E0.10244
G1 X79.462 Y113.133 E0.02811
G1 X77.491 Y112.649 E0.10125
G1 X76.964 Y112.469 E0.02778
G1 X75.098 Y111.647 E0.10173
G1 X74.602 Y111.375 E0.02822
G1 X72.908 Y110.236 E0.10184
G1 X72.471 Y109.882 E0.02806
G1 X70.992 Y108.454 E0.10257
G1 X70.622 Y108.027 E0.02819
G1 X69.426 Y106.373 E0.10183
G1 X69.137 Y105.888 E0.02817
G1 X68.245 Y104.039 E0.10242
G1 X68.046 Y103.512 E0.0281
G1 X67.494 Y101.542 E0.10207
G1 X67.39 Y100.987 E0.02817
G1 X67.194 Y98.963 E0.10145
G1 X67.189 Y98.4 E0.02809
G1 X67.353 Y96.347 E0.10275
G1 X67.447 Y95.792 E0.02808
G1 X67.961 Y93.827 E0.10133
G1 X68.15 Y93.299 E0.02798
G1 X69.006 Y91.439 E0.10215
G1 X69.288 Y90.947 E0.02829
G1 X70.461 Y89.264 E0.10235
G1 X70.822 Y88.832 E0.02809
G1 X72.262 Y87.391 E0.10164
G1 X72.693 Y87.03 E0.02805
G1 F1500 E-6.5
G0 F3600 X74.219 Y89.038
G0 X74.951 Y90.092
G0 X77.954 Y93.284
G0 X78.024 Y93.354
;TYPE:WALL-INNER
G1 F1500 E6.5
G1 F2400 X78.024 Y95.119 E0.08806
G1 X78.024 Y95.312 E0.00963
G1 X78.024 Y95.542 E0.01147
G1 X77.809 Y95.312 E0.001
G1 X77.659 Y95.191 E0.00761
G1 X76.719 Y94.432 E0.06028
G1 X76.758 Y94.006 E0.02134
G1 X76.704 Y93.657 E0.01762
G1 X76.704 Y93.551 E0.00529
G1 X76.663 Y93.343 E0.01058
G1 X76.578 Y93.122 E0.01181
G1 X76.454 Y92.908 E0.01234
G1 X76.24 Y92.634 E0.01735
G1 X75.967 Y92.38 E0.0186
G1 X75.582 Y92.113 E0.02337
G1 X75.175 Y91.938 E0.0221
G1 X74.916 Y91.888 E0.01316
G1 X74.702 Y91.892 E0.01068
G1 X74.536 Y91.925 E0.00844
G1 X74.373 Y91.996 E0.00887
G1 X74.221 Y92.101 E0.00922
G1 X74.097 Y92.244 E0.00944
G1 X74.015 Y92.39 E0.00835
G1 X73.965 Y92.539 E0.00784
G1 X73.939 Y92.732 E0.00972
G1 X73.414 Y92.934 E0.02806
G1 X73.203 Y93.075 E0.01266
G1 X73.04 Y93.253 E0.01204
G1 X72.922 Y93.461 E0.01193
G1 X72.86 Y93.68 E0.01136
G1 X72.84 Y93.888 E0.01043
G1 X72.86 Y94.126 E0.01192
G1 X72.92 Y94.37 E0.01254
G1 X73.037 Y94.656 E0.01542
G1 X73.261 Y95.021 E0.02137
G1 X73.581 Y95.383 E0.0241
G1 X73.936 Y95.651 E0.02219
G1 X74.183 Y95.77 E0.01368
G1 X74.386 Y95.822 E0.01045
G1 X74.594 Y95.89 E0.01092
G1 X74.758 Y95.913 E0.00826
G1 X75.045 Y96.475 E0.03148
G1 X75.793 Y97.539 E0.06489
G1 X77.337 Y99.219 E0.11384
G1 X77.853 Y99.619 E0.03257
G1 X78.024 Y99.752 E0.01081
G1 X78.024 Y100.003 E0.01252
G1 X77.807 Y100.003 E0.00892
G1 X76.636 Y100.003 E0.05842
G1 X76.636 Y101.933 E0.09629
G1 X76.559 Y101.987 E0.00469
G1 X76.411 Y102.15 E0.01098
G1 X76.289 Y102.359 E0.01207
G1 X76.199 Y102.611 E0.01335
G1 X76.13 Y103.192 E0.02919
G1 X76.178 Y104.135 E0.04711
G1 X76.143 Y104.732 E0.02984
G1 X76.787 Y104.876 E0.03292
G1 X77.009 Y104.893 E0.01111
G1 X77.009 Y106.098 E0.06012
G1 X80.558 Y106.098 E0.17706
G1 X80.557 Y106.276 E0.00888
G1 X80.879 Y107.373 E0.05704
G1 X80.738 Y107.489 E0.00911
G1 X80.572 Y107.674 E0.0124
G1 X80.444 Y107.866 E0.01151
G1 X80.359 Y108.05 E0.01011
G1 X80.305 Y108.255 E0.01058
G1 X80.289 Y108.48 E0.01125
G1 X80.325 Y108.719 E0.01206
G1 X80.425 Y108.959 E0.01297
G1 X80.586 Y109.175 E0.01344
G1 X80.597 Y109.191 E0.00097
G1 X80.783 Y109.349 E0.01218
G1 X81.013 Y109.486 E0.01336
G1 X80.775 Y109.471
G1 X80.58 Y109.458 E0.00056
G1 X80.302 Y109.439 E0.01169
G1 X80.283 Y109.435 E0.00097
G1 X78.42 Y108.975 E0.09574
G1 X76.638 Y108.183 E0.09729
G1 X75.031 Y107.095 E0.09682
G1 X73.64 Y105.742 E0.09681
G1 X72.507 Y104.165 E0.09688
G1 X71.669 Y102.414 E0.09685
G1 X71.149 Y100.536 E0.09722
G1 X70.969 Y98.612 E0.09641
G1 X71.13 Y96.673 E0.09707
G1 X71.627 Y94.795 E0.09692
G1 X72.446 Y93.036 E0.0968
G1 X73.56 Y91.448 E0.09678
G1 X74.939 Y90.077 E0.09701
G1 X76.531 Y88.973 E0.09665
G1 X76.701 Y88.895 E0.00933
G1 X76.936 Y88.787 E0.0129
G1 X76.941 Y88.821 E0.00171
G1 X76.98 Y89.042 E0.0112
G1 X77.099 Y89.73 E0.03483
G1 X77.261 Y90.162 E0.02302
G1 X77.56 Y90.632 E0.02779
G1 X77.958 Y91.023 E0.02784
G1 X78.423 Y91.315 E0.02739
G1 X78.847 Y91.473 E0.02257
G1 X78.822 Y91.718 E0.01229
G1 X78.839 Y92.567 E0.04237
G1 X78.926 Y93.124 E0.02813
G1 X78.962 Y93.354 E0.01161
G1 X78.73 Y93.354 E0.00717
G1 X78.729 Y93.354 E0.00005
G1 X78.024 Y93.354 E0.03517
G1 F1500 E-6.5
G0 F3600 X77.954 Y93.284
G0 X78.947 Y93.342
G0 X80.216 Y93.193
G0 X80.674 Y93.166
G0 X81.94 Y93.341
G0 X81.955 Y93.287
G0 X82.028 Y93.354
G1 F1500 E6.5
G1 F2400 X81.925 Y93.354 E0.00514
G1 X81.926 Y93.341
G1 X81.988 Y92.899 E0.02227
G1 X82.028 Y93.354 E0.00299
G1 F1500 E-6.5
G0 F3600 X81.955 Y93.287
G0 X81.988 Y92.919
G0 X82.007 Y92.314
G0 X82.075 Y90.24
G0 X82.059 Y90.183
G1 F1500 E6.5
G1 F2400 X82.085 Y90.026 E0.00794
G1 X82.109 Y90.175
G1 X82.115 Y90.207
G1 X82.204 Y90.435 E0.01221
G1 X82.26 Y90.576 E0.00757
G1 X82.28 Y90.608 E0.00188
G1 X82.393 Y90.786 E0.01052
G1 X82.353 Y90.852 E0.00385
G1 X82.249 Y91.132 E0.0149
G1 X82.158 Y91.379 E0.01313
G1 X82.08 Y91.771 E0.01994
G1 X82.02 Y92.071 E0.01526
G1 X82.007 Y92.334 E0.01314
G1 X81.995 Y92.072
G1 X81.979 Y91.751
G1 X81.914 Y91.43 E0.00228
G1 X81.861 Y91.172 E0.01075
G1 X81.838 Y91.063 E0.00556
G1 X81.736 Y90.815 E0.01338
G1 X81.89 Y90.582 E0.01393
G1 X81.91 Y90.551 E0.00184
G1 X81.95 Y90.451
G1 X82.059 Y90.183
G1 F1500 E-6.5
G0 F3600 X82.075 Y90.24
G0 X82.085 Y90.046
G0 X82.092 Y89.319
G0 X82.24 Y88.559
G0 X82.3 Y88.638
G1 F1500 E6.5
G1 F2400 X82.277 Y88.713 E0.00391
G1 X82.092 Y89.339 E0.03257
G1 X81.896 Y88.717 E0.01697
G1 X81.863 Y88.613 E0.00544
G1 X79.049 Y88.568 E0.14041
G1 X77.277 Y88.646 E0.08849
G1 X77.276 Y88.647 E0.00007
G1 X77.243 Y88.647 E0.00165
G1 X77.273 Y88.633 E0.00085
G1 X78.302 Y88.162 E0.05646
G1 X80.18 Y87.675 E0.09679
G1 X82.114 Y87.525 E0.09678
G1 X84.048 Y87.716 E0.09696
G1 X85.86 Y88.231 E0.09398
G1 X85.913 Y88.246 E0.00275
G1 X85.94 Y88.259 E0.0015
G1 X86.795 Y88.674 E0.04742
G1 X86.738 Y88.672 E0.00285
G1 X85.926 Y88.634 E0.04056
G1 X85.895 Y88.633 E0.00152
G1 X85.84 Y88.631 E0.0027
G1 X85.014 Y88.591 E0.04126
G1 X82.3 Y88.638 E0.13542
G1 F1500 E-6.5
G0 F3600 X82.24 Y88.559
G0 X82.092 Y89.319
G0 X83.328 Y89.871
G0 X83.359 Y90.016
G0 X83.367 Y90.06
G0 X83.593 Y91.116
G0 X83.644 Y91.119
G0 X83.917 Y92.553
G0 X83.962 Y92.842
G0 X84.325 Y94.539
G0 X84.474 Y94.607
G0 X82.569 Y99.066
G0 X82.569 Y101.256
G0 X86.267 Y103.627
G0 X86.908 Y104.748
G0 X86.759 Y106.168
G0 X86.689 Y106.098
G1 F1500 E6.5
G1 F2400 X86.689 Y104.822 E0.06366
G1 X86.898 Y104.731 E0.01137
G1 X87.148 Y104.544 E0.01558
G1 X87.368 Y104.274 E0.01738
G1 X87.55 Y103.896 E0.02093
G1 X87.645 Y103.499 E0.02037
G1 X87.664 Y103.101 E0.01988
G1 X87.617 Y102.744 E0.01796
G1 X87.533 Y102.466 E0.01449
G1 X87.396 Y102.194 E0.01519
G1 X87.115 Y101.848 E0.02224
G1 X87.115 Y100.003 E0.09205
G1 X85.807 Y100.003 E0.06526
G1 X85.727 Y100.003 E0.00399
G1 X85.727 Y99.664 E0.01691
G1 X85.787 Y99.612 E0.00368
G1 X86.381 Y99.089 E0.03948
G1 X87.745 Y97.41 E0.10792
G1 X88.389 Y96.374 E0.06086
G1 X88.59 Y95.929 E0.02436
G1 X88.883 Y95.918 E0.01463
G1 X89.423 Y95.767 E0.02797
G1 X89.664 Y95.651 E0.01334
G1 X90.019 Y95.383 E0.02219
G1 X90.339 Y95.021 E0.0241
G1 X90.563 Y94.656 E0.02137
G1 X90.68 Y94.37 E0.01542
G1 X90.74 Y94.126 E0.01254
G1 X90.76 Y93.886 E0.01202
G1 X90.738 Y93.677 E0.01048
G1 X90.677 Y93.464 E0.01105
G1 X90.56 Y93.254 E0.01199
G1 X90.394 Y93.075 E0.01218
G1 X90.186 Y92.935 E0.01251
G1 X89.661 Y92.731 E0.0281
G1 X89.661 Y92.682 E0.00244
G1 X89.597 Y92.414 E0.01375
G1 X89.502 Y92.243 E0.00976
G1 X89.38 Y92.104 E0.00923
G1 X89.227 Y91.994 E0.0094
G1 X89.064 Y91.926 E0.00881
G1 X88.899 Y91.89 E0.00843
G1 X88.678 Y91.889 E0.01103
G1 X88.42 Y91.94 E0.01312
G1 X88.017 Y92.114 E0.0219
G1 X87.627 Y92.383 E0.02364
G1 X87.326 Y92.673 E0.02085
G1 X87.142 Y92.912 E0.01505
G1 X87.02 Y93.127 E0.01233
G1 X86.937 Y93.345 E0.01164
G1 X86.896 Y93.548 E0.01033
G1 X86.895 Y93.638 E0.00449
G1 X86.874 Y93.727 E0.00456
G1 X86.847 Y93.928 E0.01012
G1 X86.852 Y94.232 E0.01517
G1 X86.073 Y94.881 E0.05058
G1 X85.83 Y95.083 E0.01577
G1 X85.727 Y95.197 E0.00767
G1 X85.727 Y95.083
G1 X85.727 Y94.767 E0.01047
G1 X85.727 Y93.354 E0.07049
G1 X85.277 Y93.354 E0.02245
G1 X85.178 Y93.354 E0.00494
G1 X85.147 Y93.354 E0.00155
G1 X85.178 Y93.152 E0.00226
G1 X85.178 Y93.053 E0.00407
G1 X85.181 Y92.469 E0.02914
G1 X85.067 Y91.615 E0.04298
G1 X85.05 Y91.551 E0.0033
G1 X85.046 Y91.539 E0.00063
G1 X85.207 Y91.508 E0.00166
G1 X85.675 Y91.313 E0.02529
G1 X86.097 Y91.027 E0.02543
G1 X86.455 Y90.657 E0.02569
G1 X86.729 Y90.22 E0.02573
G1 X86.896 Y89.772 E0.02385
G1 X87.018 Y89.067 E0.0357
G1 X87.054 Y88.861 E0.01043
G1 X87.063 Y88.805 E0.00283
G1 X87.302 Y88.921 E0.01325
G1 X87.659 Y89.095 E0.01981
G1 X89.235 Y90.24 E0.09719
G1 X90.577 Y91.637 E0.09665
G1 X91.878 Y93.585 E0.11687
G1 X99.188 Y93.585 E0.3647
G1 X99.328 Y93.585 E0.00698
G1 X99.188 Y93.809 E0.00675
G1 X99.453 Y94.279 E0.02692
G1 X99.238 Y94.391 E0.01209
G1 X99.095 Y94.491 E0.00871
G1 X98.937 Y94.641 E0.01087
G1 X98.814 Y94.911 E0.0148
G1 X98.802 Y95.168 E0.01284
G1 X98.81 Y95.352 E0.00919
G1 X98.855 Y95.55 E0.01013
G1 X98.937 Y95.722 E0.00951
G1 X99.059 Y95.871 E0.00961
G1 X99.211 Y95.98 E0.00933
G1 X99.402 Y96.067 E0.01047
G1 X99.65 Y96.101 E0.01249
G1 X99.74 Y96.113 E0.00453
G1 X99.771 Y96.118 E0.00157
G1 X99.786 Y96.121 E0.00076
G1 X99.761 Y96.185
G1 X99.702 Y96.386 E0.00413
G1 X99.658 Y96.465 E0.00393
G1 X99.55 Y96.657 E0.01099
G1 X99.153 Y97.223 E0.03449
G1 X99.047 Y97.408 E0.01064
G1 X98.948 Y97.558 E0.00897
G1 X98.875 Y97.724 E0.00905
G1 X98.766 Y98.179 E0.02334
G1 X98.728 Y98.759 E0.029
G1 X98.787 Y99.297 E0.027
G1 X98.885 Y99.578 E0.01485
G1 X99.022 Y99.845 E0.01497
G1 X99.231 Y100.143 E0.01816
G1 X99.455 Y100.376 E0.01613
G1 X99.648 Y100.528 E0.01226
G1 X99.893 Y100.652 E0.0137
G1 X100.18 Y100.696 E0.01449
G1 X100.461 Y100.704 E0.01402
G1 X100.697 Y100.694 E0.01178
G1 X100.943 Y100.635 E0.01262
G1 X101.124 Y100.521 E0.01067
G1 X101.264 Y100.374 E0.01013
G1 X101.361 Y100.249 E0.00789
G1 X101.448 Y100.098 E0.00869
G1 X101.496 Y99.975 E0.00659
G1 X101.513 Y99.929 E0.00245
G1 X101.537 Y99.764 E0.00832
G1 X101.539 Y99.746 E0.0009
G1 X101.536 Y99.683 E0.00315
G1 X101.527 Y99.552 E0.00655
G1 X101.629 Y99.633
G1 X101.68 Y99.674
G1 X101.725 Y99.694 E0.00246
G1 X101.903 Y99.773 E0.00972
G1 X101.921 Y99.777 E0.00092
G1 X102.139 Y99.827 E0.01116
G1 X102.364 Y99.827 E0.01123
G1 X102.588 Y99.776 E0.01146
G1 X102.811 Y99.668 E0.01236
G1 X103.04 Y99.474 E0.01497
G1 X103.175 Y99.299 E0.01103
G1 X103.269 Y99.101 E0.01093
G1 X103.319 Y98.878 E0.0114
G1 X103.318 Y98.633 E0.01222
G1 X103.299 Y98.567 E0.00343
G1 X103.264 Y98.446 E0.00628
G1 X103.24 Y98.367 E0.00412
G1 X103.197 Y98.289 E0.00444
G1 X103.114 Y98.141 E0.00847
G1 X103.075 Y98.095 E0.00301
G1 X103.115 Y98.031 E0.00377
G1 X103.129 Y98.048
G1 X103.168 Y98.095
G1 X103.286 Y98.238
G1 X103.324 Y98.272
G1 X103.455 Y98.389
G1 X103.47 Y98.399
G1 X103.595 Y98.481 E0.00202
G1 X103.803 Y98.57 E0.01129
G1 X104.286 Y98.585 E0.02411
G1 X104.524 Y98.573 E0.01189
G1 X104.776 Y98.535 E0.01271
G1 X105.077 Y98.408 E0.0163
G1 X105.253 Y98.306 E0.01015
G1 X105.436 Y98.17 E0.01138
G1 X105.447 Y98.157 E0.00085
G1 X105.509 Y98.087 E0.00467
G1 X105.527 Y98.131
G1 X105.548 Y98.179
G1 X105.594 Y98.285
G1 X105.776 Y98.46 E0.0126
G1 X105.954 Y98.55 E0.00995
