;FLAVOR:Marlin
;TIME:1089
;Filament used: 1.39824m
;Layer height: 0.2
;POSTPROCESSED
;TYPE:CUSTOM
; -- Pause at height (5.00 mm) --
M25        ; Pauses the print and waits for the user to resume it
;Generated with Cura_SteamEngine 3.3.0-BETA
M104 S200
M109 S200
M82 ;absolute extrusion mode
; -- START GCODE --
G21                     ;set units to millimetres
G90                     ;set to absolute positioning
M106 S0                 ;set fan speed to zero (turned off)
G28 X0 Y0               ;move to the X/Y origin (Home)
G28 Z0                  ;move to the Z origin (Home)
G1 Z15.0 F1200          ;move Z to position 15.0 mm
G92 E0                  ;zero the extruded length
G1 E20 F200             ;extrude 20mm of feed stock
G92 E0                  ;zero the extruded length again
G1 F7200                ;set feedrate to 120 mm/s
; -- end of START GCODE --
G92 E0
G1 F2700 E-6.5
;LAYER_COUNT:26
;LAYER:0
M107
G0 F3600 X104.757 Y136.594 Z0.2
;TYPE:SKIRT
G1 F2700 E0
G1 F2400 X105.199 Y136.291 E0.01782
G1 X105.681 Y136.056 E0.03566
G1 X106.193 Y135.896 E0.0535
G1 X106.723 Y135.813 E0.07134
G1 X107.01 Y135.802 E0.0809
G1 X189.991 Y135.803 E2.84085
G1 X190.526 Y135.843 E2.8587
G1 X191.049 Y135.962 E2.87654
G1 X191.548 Y136.157 E2.89436
G1 X192.013 Y136.425 E2.91221
G1 X192.433 Y136.758 E2.93004
G1 X192.799 Y137.15 E2.94787
G1 X193.102 Y137.592 E2.9657
G1 X193.337 Y138.075 E2.98356
G1 X193.497 Y138.586 E3.00137
G1 X193.58 Y139.116 E3.01921
G1 X193.591 Y139.404 E3.0288
G1 X193.587 Y149.431 E3.3623
G1 X193.564 Y149.835 E3.37576
G1 X193.445 Y150.885 E3.4109
G1 X193.271 Y151.654 E3.43713
G1 X192.9 Y152.729 E3.47495
G1 X192.688 Y153.222 E3.4928
G1 X192.544 Y153.472 E3.5024
G1 X191.943 Y154.427 E3.53993
G1 X191.624 Y154.859 E3.55779
G1 X191.438 Y155.059 E3.56687
G1 X190.649 Y155.846 E3.60394
G1 X190.243 Y156.195 E3.62174
G1 X189.991 Y156.365 E3.63185
G1 X188.983 Y156.984 E3.6712
G1 X188.276 Y157.318 E3.6972
G1 X187.287 Y157.66 E3.73201
G1 X186.508 Y157.836 E3.75857
G1 X185.365 Y157.963 E3.79682
G1 X184.967 Y157.985 E3.81008
G1 X111.963 Y157.98 E6.2382
G1 X111.538 Y157.955 E6.25236
G1 X110.435 Y157.824 E6.28931
G1 X109.909 Y157.721 E6.30713
G1 X109.624 Y157.63 E6.31709
G1 X108.533 Y157.231 E6.35572
G1 X107.824 Y156.88 E6.38204
G1 X106.911 Y156.294 E6.41812
G1 X106.302 Y155.801 E6.44418
G1 X105.545 Y155.039 E6.4799
G1 X105.051 Y154.417 E6.50632
G1 X104.454 Y153.467 E6.54364
G1 X104.203 Y152.993 E6.56148
G1 X104.104 Y152.741 E6.57049
G1 X103.737 Y151.692 E6.60745
G1 X103.598 Y151.174 E6.62529
G1 X103.557 Y150.904 E6.63437
G1 X103.433 Y149.799 E6.67135
G1 X103.411 Y149.398 E6.68471
G1 X103.41 Y139.402 E7.01718
G1 X103.45 Y138.868 E7.03499
G1 X103.569 Y138.345 E7.05283
G1 X103.764 Y137.845 E7.07068
G1 X104.031 Y137.38 E7.08851
G1 X104.365 Y136.96 E7.10636
G1 X104.757 Y136.594 E7.1242
G0 F3600 X105.146 Y136.801
G1 F2400 X105.578 Y136.54 E7.14099
G1 X106.047 Y136.35 E7.15782
G1 X106.54 Y136.237 E7.17464
G1 X107.01 Y136.202 E7.19032
G1 X189.991 Y136.203 E9.95027
G1 X190.495 Y136.243 E9.96709
G1 X190.986 Y136.362 E9.98389
G1 X191.453 Y136.556 E10.00071
G1 X191.883 Y136.822 E10.01753
G1 X192.266 Y137.152 E10.03435
G1 X192.592 Y137.539 E10.05118
G1 X192.853 Y137.972 E10.06799
G1 X193.043 Y138.44 E10.08479
G1 X193.156 Y138.933 E10.10161
G1 X193.191 Y139.404 E10.11732
G1 X193.187 Y149.431 E10.45082
G1 X193.167 Y149.79 E10.46278
G1 X193.048 Y150.84 E10.49793
G1 X192.893 Y151.524 E10.52125
G1 X192.522 Y152.599 E10.55908
G1 X192.205 Y153.259 E10.58343
G1 X191.604 Y154.214 E10.62096
G1 X191.156 Y154.776 E10.64486
G1 X190.367 Y155.563 E10.68193
G1 X189.782 Y156.024 E10.7067
G1 X188.774 Y156.643 E10.74604
G1 X188.145 Y156.94 E10.76918
G1 X187.156 Y157.282 E10.80399
G1 X186.463 Y157.438 E10.82761
G1 X185.32 Y157.565 E10.86586
G1 X184.967 Y157.585 E10.87762
G1 X111.963 Y157.58 E13.30574
G1 X111.586 Y157.558 E13.31831
G1 X110.483 Y157.427 E13.35525
G1 X109.761 Y157.254 E13.37994
G1 X108.67 Y156.855 E13.41858
G1 X108.041 Y156.543 E13.44193
G1 X107.128 Y155.957 E13.47802
G1 X106.586 Y155.519 E13.50119
G1 X105.829 Y154.757 E13.53692
G1 X105.39 Y154.205 E13.56038
G1 X104.793 Y153.255 E13.59769
G1 X104.482 Y152.609 E13.62154
G1 X104.115 Y151.56 E13.6585
G1 X103.955 Y150.86 E13.68239
G1 X103.831 Y149.755 E13.71937
G1 X103.811 Y149.398 E13.73126
G1 X103.81 Y139.402 E14.06373
G1 X103.85 Y138.898 E14.08055
G1 X103.969 Y138.407 E14.09735
G1 X104.163 Y137.94 E14.11417
G1 X104.429 Y137.51 E14.13099
G1 X104.759 Y137.127 E14.1478
G1 X105.146 Y136.801 E14.16463
G1 F2700 E7.66463
G1 F300 Z1.2
G0 F3600 X147.057 Y147.894 Z1.2
;TYPE:WALL-INNER
G1 F300 Z0.2
G1 F2700 E14.16463
G1 F2400 X146.441 Y148.32 E14.18954
G1 X145.945 Y148.88 E14.21442
G1 X145.597 Y149.542 E14.2393
G1 X145.418 Y150.269 E14.2642
G1 X145.418 Y151.016 E14.28905
G1 X145.597 Y151.745 E14.31401
G1 X145.945 Y152.407 E14.33889
G1 X146.441 Y152.967 E14.36377
G1 X147.057 Y153.392 E14.38866
G1 X147.083 Y153.402 E14.38959
G1 X147.758 Y153.657 E14.41359
G1 X148.5 Y153.747 E14.43845
G1 X149.242 Y153.657 E14.46331
G1 X149.917 Y153.402 E14.4873
G1 X149.943 Y153.392 E14.48823
G1 X150.559 Y152.967 E14.51312
G1 X151.055 Y152.407 E14.538
G1 X151.403 Y151.745 E14.56288
G1 X151.582 Y151.016 E14.58785
G1 X151.582 Y150.269 E14.61269
G1 X151.403 Y149.542 E14.63759
G1 X151.055 Y148.88 E14.66247
G1 X150.559 Y148.32 E14.68735
G1 X149.943 Y147.894 E14.71226
G1 X149.242 Y147.629 E14.73719
G1 X148.5 Y147.539 E14.76205
G1 X147.758 Y147.629 E14.78691
G1 X147.057 Y147.894 E14.81183
G0 F3600 X147.011 Y147.806
G0 X147.749 Y147.591
G0 X148.356 Y147.518
G0 X189.301 Y149.349
G0 X189.4 Y149.354
G1 F2400 X189.286 Y150.376 E14.84603
G1 X188.961 Y151.3 E14.87861
G1 X188.439 Y152.132 E14.91128
G1 X187.739 Y152.832 E14.94421
G1 X186.907 Y153.354 E14.97687
G1 X185.983 Y153.679 E15.00945
G1 X184.961 Y153.793 E15.04365
G1 X149.964 Y153.793 E16.20766
G1 X149.242 Y153.793 E16.22388
G1 X148.5 Y153.793 E16.22947
G1 X147.758 Y153.793 E16.23506
G1 X147.036 Y153.793 E16.25128
G1 X112.039 Y153.793 E17.41528
G1 X111.017 Y153.679 E17.44949
G1 X110.094 Y153.354 E17.48203
G1 X109.259 Y152.83 E17.51482
G1 X108.563 Y152.134 E17.54756
G1 X108.039 Y151.299 E17.58035
G1 X107.714 Y150.376 E17.61289
G1 X107.6 Y149.354 E17.6471
G1 X107.6 Y139.993 E17.95844
G1 X189.4 Y139.993 E20.67912
G1 X189.4 Y149.354 E20.99047
G0 F3600 X189.8 Y149.38
;TYPE:WALL-OUTER
G1 F2400 X189.679 Y150.461 E21.02665
G1 X189.322 Y151.478 E21.0625
G1 X188.754 Y152.383 E21.09804
G1 X187.99 Y153.147 E21.13397
G1 X187.085 Y153.715 E21.16951
G1 X186.068 Y154.072 E21.20536
G1 X184.987 Y154.193 E21.24154
G1 X112.013 Y154.193 E23.66866
G1 X110.932 Y154.072 E23.70484
G1 X109.915 Y153.715 E23.74069
G1 X109.008 Y153.145 E23.77632
G1 X108.248 Y152.385 E23.81207
G1 X107.678 Y151.478 E23.8477
G1 X107.321 Y150.461 E23.88355
G1 X107.2 Y149.38 E23.91973
G1 X107.2 Y139.593 E24.24524
G1 X189.8 Y139.593 E26.99253
G1 X189.8 Y149.38 E27.31805
G0 F3600 X189.778 Y149.578
G0 X189.282 Y149.521
G0 X148.5 Y147.499
G0 X147.749 Y147.591
G0 X147.174 Y147.807
G0 X146.336 Y148.289
G0 X146.708 Y148.621
G1 F2400 X146.277 Y149.109 E27.3397
G1 X145.974 Y149.685 E27.36135
G1 X145.818 Y150.318 E27.38303
G1 X145.818 Y150.968 E27.40465
G1 X145.974 Y151.602 E27.42637
G1 X146.277 Y152.178 E27.44801
G1 X146.708 Y152.665 E27.46964
G1 X147.244 Y153.035 E27.49131
G1 X147.854 Y153.266 E27.513
G1 X148.5 Y153.344 E27.53464
G1 X149.146 Y153.266 E27.55629
G1 X149.756 Y153.035 E27.57798
G1 X150.292 Y152.665 E27.59964
G1 X150.723 Y152.178 E27.62127
G1 X151.026 Y151.602 E27.64292
G1 X151.182 Y150.968 E27.66464
G1 X151.182 Y150.318 E27.68625
G1 X151.026 Y149.685 E27.70794
G1 X150.723 Y149.109 E27.72958
G1 X150.292 Y148.621 E27.75124
G1 X149.756 Y148.251 E27.7729
G1 X149.146 Y148.02 E27.7946
G1 X148.5 Y147.942 E27.81624
G1 X147.854 Y148.02 E27.83788
G1 X147.244 Y148.251 E27.85958
G1 X146.708 Y148.621 E27.88124
G0 F3600 X146.576 Y148.77
G0 X146.204 Y148.438
G0 X146.18 Y148.026
;TYPE:SKIN
G1 F2400 X145.621 Y148.657 E27.90928
G1 X145.23 Y149.403 E27.93729
G1 X145.028 Y150.222 E27.96535
G1 X145.028 Y151.063 E27.99332
G1 X145.23 Y151.884 E28.02144
G1 X145.621 Y152.63 E28.04945
G1 X146.18 Y153.261 E28.07749
G1 X146.386 Y153.403 E28.08581
G1 X112.064 Y153.403 E29.22737
G1 X111.103 Y153.296 E29.25953
G1 X110.263 Y153 E29.28915
G1 X109.501 Y152.522 E29.31907
G1 X108.871 Y151.892 E29.3487
G1 X108.393 Y151.13 E29.37862
G1 X108.097 Y150.29 E29.40824
G1 X107.99 Y149.329 E29.4404
G1 X107.99 Y140.383 E29.73795
G1 X189.01 Y140.383 E32.43268
G1 X189.01 Y149.329 E32.73023
G1 X188.903 Y150.29 E32.76239
G1 X188.607 Y151.132 E32.79207
G1 X188.131 Y151.89 E32.82184
G1 X187.497 Y152.524 E32.85167
G1 X186.739 Y153 E32.88144
G1 X185.897 Y153.296 E32.91112
G1 X184.936 Y153.403 E32.94328
G1 X150.614 Y153.403 E34.08484
G1 X150.82 Y153.261 E34.09316
G1 X151.379 Y152.63 E34.1212
G1 X151.77 Y151.884 E34.14921
G1 X151.972 Y151.063 E34.17733
G1 X151.972 Y150.222 E34.2053
G1 X151.77 Y149.403 E34.23336
G1 X151.379 Y148.657 E34.26137
G1 X150.82 Y148.026 E34.28941
G1 X150.126 Y147.547 E34.31746
G1 X149.336 Y147.247 E34.34556
G1 X148.5 Y147.147 E34.37357
G1 X147.664 Y147.247 E34.40157
G1 X146.874 Y147.547 E34.42968
G1 X146.18 Y148.026 E34.45772
G0 F3600 X110.445 Y152.872
G1 F2400 X108.518 Y150.945 E34.54836
G1 X108.448 Y150.875
G0 F3600 X108.258 Y150.118
G1 F2400 X111.272 Y153.133 E34.69016
G1 X111.342 Y153.203
G0 F3600 X111.908 Y153.203
G1 F2400 X108.188 Y149.483 E34.86513
G1 X108.118 Y149.413
G0 F3600 X108.169 Y148.899
G1 F2400 X112.492 Y153.222 E35.06847
G1 X112.562 Y153.292
G0 F3600 X113.058 Y153.222
G1 F2400 X108.169 Y148.333 E35.29844
G1 X108.099 Y148.263
G0 F3600 X108.169 Y147.767
G1 F2400 X113.624 Y153.222 E35.55502
G1 X113.694 Y153.292
G0 F3600 X114.189 Y153.222
G1 F2400 X108.169 Y147.201 E35.83821
G1 X108.099 Y147.131
G0 F3600 X108.169 Y146.636
G1 F2400 X114.755 Y153.222 E36.148
G1 X114.825 Y153.292
G0 F3600 X115.321 Y153.222
G1 F2400 X108.169 Y146.07 E36.4844
G1 X108.099 Y146
G0 F3600 X108.169 Y145.504
G1 F2400 X115.887 Y153.222 E36.84743
G1 X115.957 Y153.292
G0 F3600 X116.452 Y153.222
G1 F2400 X108.169 Y144.939 E37.23704
G1 X108.099 Y144.869
G0 F3600 X108.169 Y144.373
G1 F2400 X117.018 Y153.222 E37.65327
G1 X117.088 Y153.292
G0 F3600 X117.584 Y153.222
G1 F2400 X108.169 Y143.807 E38.09612
G1 X108.099 Y143.737
G0 F3600 X108.169 Y143.242
G1 F2400 X118.149 Y153.222 E38.56555
G1 X118.219 Y153.292
G0 F3600 X118.715 Y153.222
G1 F2400 X108.169 Y142.676 E39.0616
G1 X108.099 Y142.606
G0 F3600 X108.169 Y142.11
G1 F2400 X119.281 Y153.222 E39.58428
G1 X119.351 Y153.292
G0 F3600 X119.846 Y153.222
G1 F2400 X108.169 Y141.545 E40.13353
G1 X108.099 Y141.475
G0 F3600 X108.169 Y140.979
G1 F2400 X120.412 Y153.222 E40.7094
G1 X120.482 Y153.292
G0 F3600 X120.978 Y153.222
G1 F2400 X108.318 Y140.562 E41.30489
G1 X108.248 Y140.492
G0 F3600 X108.884 Y140.562
G1 F2400 X121.543 Y153.222 E41.90035
G1 X121.613 Y153.292
G0 F3600 X122.109 Y153.222
G1 F2400 X109.45 Y140.562 E42.49582
G1 X109.38 Y140.492
G0 F3600 X110.015 Y140.562
G1 F2400 X122.675 Y153.222 E43.09131
G1 X122.745 Y153.292
G0 F3600 X123.24 Y153.222
G1 F2400 X110.581 Y140.562 E43.68677
G1 X110.511 Y140.492
G0 F3600 X111.147 Y140.562
G1 F2400 X123.806 Y153.222 E44.28223
G1 X123.876 Y153.292
G0 F3600 X124.372 Y153.222
G1 F2400 X111.712 Y140.562 E44.87772
G1 X111.642 Y140.492
G0 F3600 X112.278 Y140.562
G1 F2400 X124.937 Y153.222 E45.47319
G1 X125.007 Y153.292
G0 F3600 X125.503 Y153.222
G1 F2400 X112.844 Y140.562 E46.06865
G1 X112.774 Y140.492
G0 F3600 X113.41 Y140.562
G1 F2400 X126.069 Y153.222 E46.66411
G1 X126.139 Y153.292
G0 F3600 X126.635 Y153.222
G1 F2400 X113.975 Y140.562 E47.2596
G1 X113.905 Y140.492
G0 F3600 X114.541 Y140.562
G1 F2400 X127.2 Y153.222 E47.85506
G1 X127.27 Y153.292
G0 F3600 X127.766 Y153.222
G1 F2400 X115.107 Y140.562 E48.45053
G1 X115.037 Y140.492
G0 F3600 X115.672 Y140.562
G1 F2400 X128.332 Y153.222 E49.04602
G1 X128.402 Y153.292
G0 F3600 X128.897 Y153.222
G1 F2400 X116.238 Y140.562 E49.64148
G1 X116.168 Y140.492
G0 F3600 X116.804 Y140.562
G1 F2400 X129.463 Y153.222 E50.23694
G1 X129.533 Y153.292
G0 F3600 X130.029 Y153.222
G1 F2400 X117.369 Y140.562 E50.83243
G1 X117.299 Y140.492
G0 F3600 X117.935 Y140.562
G1 F2400 X130.594 Y153.222 E51.4279
G1 X130.664 Y153.292
G0 F3600 X131.16 Y153.222
G1 F2400 X118.501 Y140.562 E52.02336
G1 X118.431 Y140.492
G0 F3600 X119.066 Y140.562
G1 F2400 X131.726 Y153.222 E52.61885
G1 X131.796 Y153.292
G0 F3600 X132.291 Y153.222
G1 F2400 X119.632 Y140.562 E53.21431
G1 X119.562 Y140.492
G0 F3600 X120.198 Y140.562
G1 F2400 X132.857 Y153.222 E53.80978
G1 X132.927 Y153.292
G0 F3600 X133.423 Y153.222
G1 F2400 X120.763 Y140.562 E54.40526
G1 X120.693 Y140.492
G0 F3600 X121.329 Y140.562
G1 F2400 X133.988 Y153.222 E55.00073
G1 X134.058 Y153.292
G0 F3600 X134.554 Y153.222
G1 F2400 X121.895 Y140.562 E55.59619
G1 X121.825 Y140.492
G0 F3600 X122.46 Y140.562
G1 F2400 X135.12 Y153.222 E56.19168
G1 X135.19 Y153.292
G0 F3600 X135.686 Y153.222
G1 F2400 X123.026 Y140.562 E56.78717
G1 X122.956 Y140.492
G0 F3600 X123.592 Y140.562
G1 F2400 X136.251 Y153.222 E57.38263
G1 X136.321 Y153.292
G0 F3600 X136.817 Y153.222
G1 F2400 X124.158 Y140.562 E57.9781
G1 X124.088 Y140.492
G0 F3600 X124.723 Y140.562
G1 F2400 X137.383 Y153.222 E58.57358
G1 X137.453 Y153.292
G0 F3600 X137.948 Y153.222
G1 F2400 X125.289 Y140.562 E59.16905
G1 X125.219 Y140.492
G0 F3600 X125.855 Y140.562
G1 F2400 X138.514 Y153.222 E59.76451
G1 X138.584 Y153.292
G0 F3600 X139.08 Y153.222
G1 F2400 X126.42 Y140.562 E60.36
G1 X126.35 Y140.492
G0 F3600 X126.986 Y140.562
G1 F2400 X139.645 Y153.222 E60.95546
G1 X139.715 Y153.292
G0 F3600 X140.211 Y153.222
G1 F2400 X127.552 Y140.562 E61.55093
G1 X127.482 Y140.492
G0 F3600 X128.117 Y140.562
G1 F2400 X140.777 Y153.222 E62.14641
G1 X140.847 Y153.292
G0 F3600 X141.342 Y153.222
G1 F2400 X128.683 Y140.562 E62.74188
G1 X128.613 Y140.492
G0 F3600 X129.249 Y140.562
G1 F2400 X141.908 Y153.222 E63.33734
G1 X141.978 Y153.292
G0 F3600 X142.474 Y153.222
G1 F2400 X129.814 Y140.562 E63.93283
G1 X129.744 Y140.492
G0 F3600 X130.38 Y140.562
G1 F2400 X143.039 Y153.222 E64.52829
G1 X143.109 Y153.292
G0 F3600 X143.605 Y153.222
G1 F2400 X130.946 Y140.562 E65.12376
G1 X130.876 Y140.492
G0 F3600 X131.511 Y140.562
G1 F2400 X144.171 Y153.222 E65.71925
G1 X144.241 Y153.292
G0 F3600 X144.736 Y153.222
G1 F2400 X132.077 Y140.562 E66.31471
G1 X132.007 Y140.492
G0 F3600 X132.643 Y140.562
G1 F2400 X145.302 Y153.222 E66.91017
G1 X145.372 Y153.292
G0 F3600 X145.868 Y153.222
G1 F2400 X133.209 Y140.562 E67.50564
G1 X133.139 Y140.492
G0 F3600 X133.774 Y140.562
G1 F2400 X145.027 Y151.815 E68.03494
G1 X145.097 Y151.885
G0 F3600 X144.847 Y151.07
G1 F2400 X134.34 Y140.562 E68.52919
G1 X134.27 Y140.492
G0 F3600 X134.906 Y140.562
G1 F2400 X144.847 Y150.504 E68.9968
G1 X144.917 Y150.574
G0 F3600 X144.899 Y149.99
G1 F2400 X135.471 Y140.562 E69.44027
G1 X135.401 Y140.492
G0 F3600 X136.037 Y140.562
G1 F2400 X145.011 Y149.536 E69.86238
G1 X145.081 Y149.606
G0 F3600 X145.17 Y149.13
G1 F2400 X136.603 Y140.562 E70.26537
G1 X136.533 Y140.492
G0 F3600 X137.168 Y140.562
G1 F2400 X145.364 Y148.759 E70.6509
G1 X145.434 Y148.829
G0 F3600 X145.591 Y148.419
G1 F2400 X137.734 Y140.562 E71.02047
G1 X137.664 Y140.492
G0 F3600 X138.3 Y140.562
G1 F2400 X145.856 Y148.119 E71.37591
G1 X145.926 Y148.189
G0 F3600 X146.137 Y147.834
G1 F2400 X138.865 Y140.562 E71.71796
G1 X138.795 Y140.492
G0 F3600 X139.431 Y140.562
G1 F2400 X146.472 Y147.603 E72.04915
G1 X146.542 Y147.673
G0 F3600 X146.811 Y147.377
G1 F2400 X139.997 Y140.562 E72.36968
G1 X139.927 Y140.492
G0 F3600 X140.562 Y140.562
G1 F2400 X147.221 Y147.221 E72.6829
G1 X147.291 Y147.291
G0 F3600 X147.634 Y147.069
G1 F2400 X141.128 Y140.562 E72.98894
G1 X141.058 Y140.492
G0 F3600 X141.694 Y140.562
G1 F2400 X148.14 Y147.008 E73.29215
G1 X148.21 Y147.078
G0 F3600 X148.685 Y146.988
G1 F2400 X142.259 Y140.562 E73.5944
G1 X142.189 Y140.492
G0 F3600 X142.825 Y140.562
G1 F2400 X149.326 Y147.064 E73.90021
G1 X149.396 Y147.134
G0 F3600 X150.225 Y147.397
G1 F2400 X143.391 Y140.562 E74.22169
G1 X143.321 Y140.492
