;FLAVOR:Marlin
;TIME:8316
;Filament used: 5.48512m
;Layer height: 0.2
;Generated with Cura_SteamEngine 3.2.1
M104 S200
M109 S200
M82 ;absolute extrusion mode
; -- START GCODE --
G21                     ;set units to millimetres
G90                     ;set to absolute positioning
M106 S0                 ;set fan speed to zero (turned off)
G28 X0 Y0               ;move to the X/Y origin (Home)
G28 Z0                  ;move to the Z origin (Home)
G1 Z15.0 F1200          ;move Z to position 15.0 mm
G92 E0                  ;zero the extruded length
G1 E20 F200             ;extrude 20mm of feed stock
G92 E0                  ;zero the extruded length again
G1 F7200                ;set feedrate to 120 mm/s
; -- end of START GCODE --
;LAYER_COUNT:16
;LAYER:0
M107
G0 F3600 X95.64 Y51.776 Z0.2
;TYPE:SKIRT
G1 F1200 X96.05 Y51.101 E0.02627
G1 X96.527 Y50.472 E0.05252
G1 X97.065 Y49.894 E0.07879
G1 X97.658 Y49.373 E0.10504
G1 X98.302 Y48.915 E0.13133
G1 X98.988 Y48.524 E0.15759
G1 X99.71 Y48.205 E0.18384
G1 X100.461 Y47.96 E0.21011
G1 X101.233 Y47.792 E0.23639
G1 X102.017 Y47.704 E0.26263
G1 X102.499 Y47.689 E0.27867
G1 X121.693 Y47.689 E0.91707
G1 X122.05 Y47.101 E0.93995
G1 X122.527 Y46.472 E0.9662
G1 X123.065 Y45.894 E0.99247
G1 X123.658 Y45.373 E1.01872
G1 X124.302 Y44.915 E1.045
G1 X124.988 Y44.524 E1.07127
G1 X125.71 Y44.205 E1.09752
G1 X126.461 Y43.96 E1.12379
G1 X127.233 Y43.792 E1.15007
G1 X128.017 Y43.704 E1.17631
G1 X128.499 Y43.689 E1.19235
G1 X143.024 Y43.689 E1.67545
G1 X142.875 Y43.137 E1.69447
G1 X142.747 Y42.357 E1.72076
G1 X142.699 Y41.569 E1.74702
G1 X142.731 Y40.78 E1.77328
G1 X142.843 Y39.998 E1.79956
G1 X143.033 Y39.232 E1.82581
G1 X143.299 Y38.488 E1.85208
G1 X143.64 Y37.776 E1.87834
G1 X144.05 Y37.101 E1.90461
G1 X144.527 Y36.472 E1.93087
G1 X145.065 Y35.894 E1.95713
G1 X145.658 Y35.373 E1.98338
G1 X146.302 Y34.915 E2.00967
G1 X146.988 Y34.524 E2.03593
G1 X147.71 Y34.205 E2.06218
G1 X148.461 Y33.96 E2.08846
G1 X149.233 Y33.792 E2.11473
G1 X150.017 Y33.704 E2.14097
G1 X150.499 Y33.689 E2.15701
G1 X170.501 Y33.689 E2.82228
G1 X171.29 Y33.729 E2.84856
G1 X172.07 Y33.848 E2.8748
G1 X172.835 Y34.046 E2.90108
G1 X173.575 Y34.32 E2.92733
G1 X174.284 Y34.668 E2.9536
G1 X174.955 Y35.086 E2.97989
G1 X175.579 Y35.569 E3.00614
G1 X176.152 Y36.112 E3.03239
G1 X176.667 Y36.711 E3.05867
G1 X177.118 Y37.359 E3.08493
G1 X177.502 Y38.05 E3.11122
G1 X177.814 Y38.775 E3.13747
G1 X178.051 Y39.528 E3.16373
G1 X178.21 Y40.302 E3.19001
G1 X178.291 Y41.087 E3.21626
G1 X178.291 Y41.877 E3.24253
G1 X178.212 Y42.663 E3.26881
G1 X178.054 Y43.436 E3.29505
G1 X177.919 Y43.9 E3.31112
G1 X174.737 Y53.689 E3.65347
G1 X192.501 Y53.689 E4.24431
G1 X193.29 Y53.729 E4.27058
G1 X194.07 Y53.848 E4.29682
G1 X194.835 Y54.046 E4.32311
G1 X195.575 Y54.32 E4.34935
G1 X196.284 Y54.668 E4.37562
G1 X196.955 Y55.086 E4.40191
G1 X197.579 Y55.569 E4.42816
G1 X198.152 Y56.112 E4.45442
G1 X198.667 Y56.711 E4.48069
G1 X199.118 Y57.359 E4.50695
G1 X199.502 Y58.05 E4.53324
G1 X199.814 Y58.775 E4.55949
G1 X200.051 Y59.528 E4.58575
G1 X200.21 Y60.302 E4.61203
G1 X200.291 Y61.087 E4.63828
G1 X200.291 Y61.877 E4.66455
G1 X200.212 Y62.663 E4.69083
G1 X200.054 Y63.436 E4.71707
G1 X199.919 Y63.9 E4.73314
G1 X196.098 Y75.656 E5.14428
G1 X195.816 Y76.394 E5.17056
G1 X195.461 Y77.099 E5.19681
G1 X195.037 Y77.765 E5.22307
G1 X194.547 Y78.385 E5.24936
G1 X193.997 Y78.952 E5.27563
G1 X193.265 Y79.555 E5.30717
G1 X188.004 Y83.378 E5.52348
G1 X188.051 Y83.528 E5.5287
G1 X188.21 Y84.302 E5.55498
G1 X188.291 Y85.087 E5.58123
G1 X188.291 Y85.877 E5.60751
G1 X188.212 Y86.663 E5.63378
G1 X188.054 Y87.436 E5.66002
G1 X187.919 Y87.9 E5.6761
G1 X187.338 Y89.689 E5.73866
G1 X204.501 Y89.689 E6.3095
G1 X205.29 Y89.729 E6.33578
G1 X206.07 Y89.848 E6.36202
G1 X206.835 Y90.046 E6.3883
G1 X207.575 Y90.32 E6.41455
G1 X208.284 Y90.668 E6.44082
G1 X208.955 Y91.086 E6.46711
G1 X209.579 Y91.569 E6.49336
G1 X210.152 Y92.112 E6.51961
G1 X210.667 Y92.711 E6.54589
G1 X211.118 Y93.359 E6.57215
G1 X211.502 Y94.05 E6.59844
G1 X211.814 Y94.775 E6.62469
G1 X212.051 Y95.528 E6.65095
G1 X212.21 Y96.302 E6.67723
G1 X212.291 Y97.087 E6.70348
G1 X212.291 Y97.877 E6.72975
G1 X212.212 Y98.663 E6.75603
G1 X212.054 Y99.436 E6.78227
G1 X211.919 Y99.9 E6.79834
G1 X208.098 Y111.656 E7.20948
G1 X207.816 Y112.394 E7.23576
G1 X207.461 Y113.099 E7.26201
G1 X207.085 Y113.689 E7.28528
G1 X210.501 Y113.689 E7.3989
G1 X211.29 Y113.729 E7.42517
G1 X212.07 Y113.848 E7.45142
G1 X212.835 Y114.046 E7.4777
G1 X213.575 Y114.32 E7.50394
G1 X214.284 Y114.668 E7.53021
G1 X214.955 Y115.086 E7.55651
G1 X215.579 Y115.569 E7.58275
G1 X216.152 Y116.112 E7.60901
G1 X216.667 Y116.711 E7.63528
G1 X217.118 Y117.359 E7.66154
G1 X217.502 Y118.05 E7.68783
G1 X217.814 Y118.775 E7.71409
G1 X218.051 Y119.528 E7.74034
G1 X218.21 Y120.302 E7.76662
G1 X218.291 Y121.087 E7.79287
G1 X218.291 Y121.877 E7.81915
G1 X218.212 Y122.663 E7.84542
G1 X218.054 Y123.436 E7.87166
G1 X217.919 Y123.9 E7.88773
G1 X214.098 Y135.656 E8.29888
G1 X213.816 Y136.394 E8.32515
G1 X213.461 Y137.099 E8.35141
G1 X213.037 Y137.765 E8.37766
G1 X212.547 Y138.385 E8.40395
G1 X211.997 Y138.952 E8.43022
G1 X211.265 Y139.555 E8.46177
G1 X201.264 Y146.821 E8.87292
G1 X200.602 Y147.253 E8.89921
G1 X199.9 Y147.615 E8.92548
G1 X199.166 Y147.904 E8.95172
G1 X198.405 Y148.118 E8.97801
G1 X197.627 Y148.253 E9.00428
G1 X196.84 Y148.309 E9.03052
G1 X196.05 Y148.286 E9.0568
G1 X195.267 Y148.182 E9.08308
G1 X194.499 Y148 E9.10933
G1 X193.753 Y147.741 E9.13559
G1 X193.037 Y147.408 E9.16186
G1 X192.358 Y147.005 E9.18812
G1 X191.724 Y146.535 E9.21437
G1 X191.14 Y146.003 E9.24064
G1 X190.613 Y145.415 E9.2669
G1 X190.148 Y144.776 E9.29319
G1 X189.751 Y144.094 E9.31944
G1 X189.424 Y143.375 E9.34571
G1 X189.261 Y142.921 E9.36175
G1 X188.449 Y140.422 E9.44915
G1 X186.098 Y147.656 E9.70214
G1 X185.816 Y148.394 E9.72841
G1 X185.461 Y149.099 E9.75467
G1 X185.037 Y149.765 E9.78093
G1 X184.547 Y150.385 E9.80721
G1 X183.997 Y150.952 E9.83348
G1 X183.265 Y151.555 E9.86503
G1 X173.264 Y158.821 E10.27618
G1 X172.602 Y159.253 E10.30247
G1 X171.9 Y159.615 E10.32875
G1 X171.166 Y159.904 E10.35498
G1 X170.405 Y160.118 E10.38127
G1 X169.627 Y160.253 E10.40754
G1 X168.84 Y160.309 E10.43378
G1 X168.05 Y160.286 E10.46007
G1 X167.267 Y160.182 E10.48634
G1 X166.499 Y160 E10.51259
G1 X165.753 Y159.741 E10.53885
G1 X165.037 Y159.408 E10.56512
G1 X164.358 Y159.005 E10.59138
G1 X163.724 Y158.535 E10.61763
G1 X163.14 Y158.003 E10.6439
G1 X162.613 Y157.415 E10.67017
G1 X162.148 Y156.776 E10.69645
G1 X161.751 Y156.094 E10.7227
G1 X161.424 Y155.375 E10.74897
G1 X161.261 Y154.921 E10.76501
G1 X161.124 Y154.499 E10.77977
G1 X160.098 Y157.656 E10.89018
G1 X159.816 Y158.394 E10.91646
G1 X159.461 Y159.099 E10.94271
G1 X159.037 Y159.765 E10.96897
G1 X158.547 Y160.385 E10.99525
G1 X157.997 Y160.952 E11.02152
G1 X157.265 Y161.555 E11.05307
G1 X147.264 Y168.821 E11.46422
G1 X146.602 Y169.253 E11.49052
G1 X145.9 Y169.615 E11.51679
G1 X145.166 Y169.904 E11.54302
G1 X144.405 Y170.118 E11.56932
G1 X143.627 Y170.253 E11.59558
G1 X142.84 Y170.309 E11.62182
G1 X142.05 Y170.286 E11.64811
G1 X141.267 Y170.182 E11.67438
G1 X140.499 Y170 E11.70063
G1 X139.753 Y169.741 E11.7269
G1 X139.037 Y169.408 E11.75316
G1 X138.358 Y169.005 E11.77942
G1 X137.724 Y168.535 E11.80567
G1 X137.14 Y168.003 E11.83195
G1 X136.613 Y167.415 E11.85821
G1 X136.148 Y166.776 E11.88449
G1 X135.751 Y166.094 E11.91074
G1 X135.424 Y165.375 E11.93701
G1 X135.261 Y164.921 E11.95305
G1 X134.149 Y161.499 E12.07273
G1 X134.098 Y161.656 E12.07822
G1 X133.816 Y162.394 E12.1045
G1 X133.461 Y163.099 E12.13075
G1 X133.037 Y163.765 E12.15701
G1 X132.547 Y164.385 E12.18329
G1 X131.997 Y164.952 E12.20957
G1 X131.265 Y165.555 E12.24111
G1 X121.264 Y172.821 E12.65227
G1 X120.602 Y173.253 E12.67856
G1 X119.9 Y173.615 E12.70483
G1 X119.166 Y173.904 E12.73106
G1 X118.405 Y174.118 E12.75736
G1 X117.627 Y174.253 E12.78362
G1 X116.84 Y174.309 E12.80986
G1 X116.05 Y174.286 E12.83615
G1 X115.267 Y174.182 E12.86242
G1 X114.499 Y174 E12.88867
G1 X113.753 Y173.741 E12.91494
G1 X113.037 Y173.408 E12.9412
G1 X112.358 Y173.005 E12.96746
G1 X111.724 Y172.535 E12.99371
G1 X111.14 Y172.003 E13.01999
G1 X110.613 Y171.415 E13.04625
G1 X110.148 Y170.776 E13.07253
G1 X109.751 Y170.094 E13.09878
G1 X109.424 Y169.375 E13.12505
G1 X109.261 Y168.921 E13.1411
G1 X103.081 Y149.899 E13.80632
G1 X102.875 Y149.137 E13.83258
G1 X102.747 Y148.357 E13.85887
G1 X102.733 Y148.121 E13.86673
G1 X96.264 Y152.821 E14.13268
G1 X95.602 Y153.253 E14.15897
G1 X94.9 Y153.615 E14.18524
G1 X94.166 Y153.904 E14.21148
G1 X93.405 Y154.118 E14.23777
G1 X92.627 Y154.253 E14.26404
G1 X91.84 Y154.309 E14.29028
G1 X91.05 Y154.286 E14.31656
G1 X90.267 Y154.182 E14.34284
G1 X89.499 Y154 E14.36909
G1 X88.753 Y153.741 E14.39535
G1 X88.037 Y153.408 E14.42162
G1 X87.358 Y153.005 E14.44788
G1 X86.724 Y152.535 E14.47413
G1 X86.14 Y152.003 E14.5004
G1 X85.613 Y151.415 E14.52666
G1 X85.148 Y150.776 E14.55295
G1 X84.751 Y150.094 E14.5792
G1 X84.424 Y149.375 E14.60547
G1 X84.261 Y148.921 E14.62151
G1 X78.081 Y129.899 E15.28674
G1 X77.875 Y129.137 E15.31299
G1 X77.747 Y128.357 E15.33928
G1 X77.699 Y127.569 E15.36554
G1 X77.731 Y126.78 E15.3918
G1 X77.843 Y125.998 E15.41808
G1 X78.033 Y125.232 E15.44433
G1 X78.299 Y124.488 E15.47061
G1 X78.64 Y123.776 E15.49686
G1 X79.05 Y123.101 E15.52313
G1 X79.527 Y122.472 E15.54939
G1 X80.065 Y121.894 E15.57565
G1 X80.658 Y121.373 E15.6019
G1 X81.302 Y120.915 E15.62819
G1 X81.988 Y120.524 E15.65445
G1 X82.71 Y120.205 E15.6807
G1 X82.727 Y120.199 E15.6813
G1 X78.081 Y105.899 E16.1814
G1 X77.875 Y105.137 E16.20765
G1 X77.747 Y104.357 E16.23394
G1 X77.699 Y103.569 E16.2602
G1 X77.731 Y102.78 E16.28646
G1 X77.843 Y101.998 E16.31274
G1 X78.033 Y101.232 E16.33899
G1 X78.299 Y100.488 E16.36527
G1 X78.64 Y99.776 E16.39152
G1 X79.05 Y99.101 E16.41779
G1 X79.527 Y98.472 E16.44405
G1 X80.065 Y97.894 E16.47031
G1 X80.658 Y97.373 E16.49656
G1 X81.302 Y96.915 E16.52285
G1 X81.988 Y96.524 E16.54911
G1 X82.71 Y96.205 E16.57536
G1 X83.461 Y95.96 E16.60164
G1 X84.233 Y95.792 E16.62792
G1 X85.017 Y95.704 E16.65416
G1 X85.499 Y95.689 E16.67019
G1 X97.561 Y95.689 E17.07138
G1 X93.081 Y81.899 E17.55363
G1 X92.875 Y81.137 E17.57989
G1 X92.747 Y80.357 E17.60618
G1 X92.699 Y79.569 E17.63243
G1 X92.731 Y78.78 E17.6587
G1 X92.843 Y77.998 E17.68497
G1 X93.033 Y77.232 E17.71122
G1 X93.299 Y76.488 E17.7375
G1 X93.64 Y75.776 E17.76376
G1 X94.05 Y75.101 E17.79003
G1 X94.527 Y74.472 E17.81628
G1 X95.065 Y73.894 E17.84255
G1 X95.658 Y73.373 E17.8688
G1 X96.302 Y72.915 E17.89508
G1 X96.988 Y72.524 E17.92135
G1 X97.71 Y72.205 E17.9476
G1 X98.461 Y71.96 E17.97387
G1 X99.233 Y71.792 E18.00015
G1 X99.582 Y71.753 E18.01183
G1 X95.081 Y57.899 E18.49633
G1 X94.875 Y57.137 E18.52258
G1 X94.747 Y56.357 E18.54887
G1 X94.699 Y55.569 E18.57513
G1 X94.731 Y54.78 E18.60139
G1 X94.843 Y53.998 E18.62767
G1 X95.033 Y53.232 E18.65391
G1 X95.299 Y52.488 E18.68019
G1 X95.64 Y51.776 E18.70645
G0 F3600 X96.069 Y51.826
G1 F1200 X96.484 Y51.179 E18.73202
G1 X96.964 Y50.578 E18.7576
G1 X97.503 Y50.03 E18.78316
G1 X98.097 Y49.541 E18.80875
G1 X98.738 Y49.116 E18.83433
G1 X99.42 Y48.76 E18.85992
G1 X100.135 Y48.477 E18.8855
G1 X100.876 Y48.269 E18.9111
G1 X101.634 Y48.14 E18.93667
G1 X102.499 Y48.089 E18.96549
G1 X121.937 Y48.089 E19.612
G1 X122.069 Y47.826 E19.62179
G1 X122.484 Y47.179 E19.64735
G1 X122.964 Y46.578 E19.67294
G1 X123.503 Y46.03 E19.6985
G1 X124.097 Y45.541 E19.72409
G1 X124.738 Y45.116 E19.74967
G1 X125.42 Y44.76 E19.77526
G1 X126.135 Y44.477 E19.80084
G1 X126.876 Y44.269 E19.82643
G1 X127.634 Y44.14 E19.85201
G1 X128.499 Y44.089 E19.88083
G1 X143.563 Y44.089 E20.38186
G1 X143.461 Y43.776 E20.39281
G1 X143.262 Y43.033 E20.41839
G1 X143.141 Y42.273 E20.44399
G1 X143.099 Y41.505 E20.46957
G1 X143.137 Y40.737 E20.49514
G1 X143.255 Y39.977 E20.52072
G1 X143.451 Y39.233 E20.54631
G1 X143.723 Y38.514 E20.57188
G1 X144.069 Y37.826 E20.5975
G1 X144.484 Y37.179 E20.62306
G1 X144.964 Y36.578 E20.64864
G1 X145.503 Y36.03 E20.67421
G1 X146.097 Y35.541 E20.6998
G1 X146.738 Y35.116 E20.72538
G1 X147.42 Y34.76 E20.75097
G1 X148.135 Y34.477 E20.77654
G1 X148.876 Y34.269 E20.80214
G1 X149.634 Y34.14 E20.82772
G1 X150.499 Y34.089 E20.85654
G1 X170.501 Y34.089 E21.5218
G1 X171.269 Y34.129 E21.54738
G1 X172.029 Y34.248 E21.57297
G1 X172.772 Y34.446 E21.59854
G1 X173.491 Y34.72 E21.62414
G1 X174.177 Y35.067 E21.6497
G1 X174.824 Y35.483 E21.67529
G1 X175.424 Y35.964 E21.70087
G1 X175.971 Y36.505 E21.72645
G1 X176.459 Y37.1 E21.75205
G1 X176.882 Y37.742 E21.77762
G1 X177.237 Y38.425 E21.80322
G1 X177.518 Y39.14 E21.82877
G1 X177.724 Y39.882 E21.85439
G1 X177.852 Y40.64 E21.87995
G1 X177.901 Y41.408 E21.90555
G1 X177.869 Y42.176 E21.93112
G1 X177.758 Y42.937 E21.95669
G1 X177.539 Y43.776 E21.98553
G1 X174.187 Y54.089 E22.34621
G1 X192.501 Y54.089 E22.95534
G1 X193.269 Y54.129 E22.98091
G1 X194.029 Y54.248 E23.0065
G1 X194.772 Y54.446 E23.03207
G1 X195.491 Y54.72 E23.05767
G1 X196.177 Y55.067 E23.08324
G1 X196.824 Y55.483 E23.10882
G1 X197.424 Y55.964 E23.1344
G1 X197.971 Y56.505 E23.15998
G1 X198.459 Y57.1 E23.18558
G1 X198.882 Y57.742 E23.21115
G1 X199.237 Y58.425 E23.23675
G1 X199.518 Y59.14 E23.2623
G1 X199.724 Y59.882 E23.28792
G1 X199.852 Y60.64 E23.31348
G1 X199.901 Y61.408 E23.33908
G1 X199.869 Y62.176 E23.36465
G1 X199.758 Y62.937 E23.39022
G1 X199.539 Y63.776 E23.41907
G1 X195.718 Y75.532 E23.83021
G1 X195.442 Y76.251 E23.85582
G1 X195.094 Y76.936 E23.88138
G1 X194.676 Y77.582 E23.90697
G1 X194.193 Y78.181 E23.93256
G1 X193.651 Y78.727 E23.95815
G1 X193.03 Y79.232 E23.98477
G1 X187.54 Y83.22 E24.21046
G1 X187.724 Y83.882 E24.23331
G1 X187.852 Y84.64 E24.25888
G1 X187.901 Y85.408 E24.28448
G1 X187.869 Y86.176 E24.31004
G1 X187.758 Y86.937 E24.33562
G1 X187.539 Y87.776 E24.36446
G1 X186.787 Y90.089 E24.44536
G1 X204.501 Y90.089 E25.03453
G1 X205.269 Y90.129 E25.06011
G1 X206.029 Y90.248 E25.08569
G1 X206.772 Y90.446 E25.11127
G1 X207.491 Y90.72 E25.13686
G1 X208.177 Y91.067 E25.16243
G1 X208.824 Y91.483 E25.18801
G1 X209.424 Y91.964 E25.21359
G1 X209.971 Y92.505 E25.23918
G1 X210.459 Y93.1 E25.26477
G1 X210.882 Y93.742 E25.29034
G1 X211.237 Y94.425 E25.31594
G1 X211.518 Y95.14 E25.3415
G1 X211.724 Y95.882 E25.36711
G1 X211.852 Y96.64 E25.39268
G1 X211.901 Y97.408 E25.41827
G1 X211.869 Y98.176 E25.44384
G1 X211.758 Y98.937 E25.46942
G1 X211.539 Y99.776 E25.49826
G1 X207.718 Y111.532 E25.9094
G1 X207.442 Y112.251 E25.93501
G1 X207.094 Y112.936 E25.96057
G1 X206.676 Y113.582 E25.98616
G1 X206.267 Y114.089 E26.00783
G1 X210.501 Y114.089 E26.14865
G1 X211.269 Y114.129 E26.17423
G1 X212.029 Y114.248 E26.19981
G1 X212.772 Y114.446 E26.22539
G1 X213.491 Y114.72 E26.25098
G1 X214.177 Y115.067 E26.27655
G1 X214.824 Y115.483 E26.30213
G1 X215.424 Y115.964 E26.32771
G1 X215.971 Y116.505 E26.3533
G1 X216.459 Y117.1 E26.37889
G1 X216.882 Y117.742 E26.40446
G1 X217.237 Y118.425 E26.43007
G1 X217.518 Y119.14 E26.45562
G1 X217.724 Y119.882 E26.48123
G1 X217.852 Y120.64 E26.5068
G1 X217.901 Y121.408 E26.53239
G1 X217.869 Y122.176 E26.55796
G1 X217.758 Y122.937 E26.58354
G1 X217.539 Y123.776 E26.61238
G1 X213.718 Y135.532 E27.02352
G1 X213.442 Y136.251 E27.04913
G1 X213.094 Y136.936 E27.07469
G1 X212.676 Y137.582 E27.10028
G1 X212.193 Y138.181 E27.12587
G1 X211.651 Y138.727 E27.15146
G1 X211.03 Y139.232 E27.17808
G1 X201.029 Y146.498 E27.58924
G1 X200.384 Y146.917 E27.61482
G1 X199.699 Y147.267 E27.64041
G1 X198.981 Y147.544 E27.666
G1 X198.239 Y147.745 E27.69157
G1 X197.479 Y147.868 E27.71718
G1 X196.711 Y147.911 E27.74276
G1 X195.943 Y147.874 E27.76834
G1 X195.183 Y147.758 E27.79391
G1 X194.439 Y147.564 E27.81948
G1 X193.719 Y147.293 E27.84507
G1 X193.031 Y146.949 E27.87065
G1 X192.382 Y146.536 E27.89624
G1 X191.78 Y146.057 E27.92182
G1 X191.231 Y145.519 E27.94739
G1 X190.74 Y144.926 E27.973
G1 X190.314 Y144.286 E27.99857
G1 X189.957 Y143.605 E28.02414
G1 X189.641 Y142.798 E28.05297
G1 X188.449 Y139.129 E28.18128
G1 X185.718 Y147.532 E28.47515
G1 X185.442 Y148.251 E28.50077
