;FLAVOR:Marlin
;TIME:6060
;Filament used: 3.83232m
;Layer height: 0.2
;Generated with Cura_SteamEngine 3.2.1
M104 S200
M109 S200
M82 ;absolute extrusion mode
; -- START GCODE --
G21                     ;set units to millimetres
G90                     ;set to absolute positioning
M106 S0                 ;set fan speed to zero (turned off)
G28 X0 Y0               ;move to the X/Y origin (Home)
G28 Z0                  ;move to the Z origin (Home)
G1 Z15.0 F1200          ;move Z to position 15.0 mm
G92 E0                  ;zero the extruded length
G1 E20 F200             ;extrude 20mm of feed stock
G92 E0                  ;zero the extruded length again
G1 F7200                ;set feedrate to 120 mm/s
; -- end of START GCODE --
;LAYER_COUNT:16
;LAYER:0
M107
G0 F3600 X90.325 Y75.744 Z0.2
;TYPE:SKIRT
G1 F1200 X90.839 Y75.144 E0.02628
G1 X91.41 Y74.6 E0.05251
G1 X91.914 Y74.201 E0.07389
G1 X99.865 Y68.424 E0.40077
G1 X102.903 Y59.078 E0.72763
G1 X103.185 Y58.34 E0.75391
G1 X103.54 Y57.635 E0.78016
G1 X103.964 Y56.969 E0.80642
G1 X104.454 Y56.349 E0.83271
G1 X105.004 Y55.782 E0.85898
G1 X105.608 Y55.274 E0.88523
G1 X106.26 Y54.829 E0.91148
G1 X106.955 Y54.453 E0.93777
G1 X107.683 Y54.149 E0.96401
G1 X108.439 Y53.919 E0.99029
G1 X109.214 Y53.768 E1.01655
G1 X110 Y53.696 E1.0428
G1 X110.79 Y53.703 E1.06908
G1 X111.575 Y53.79 E1.09535
G1 X112.347 Y53.957 E1.12162
G1 X113.098 Y54.2 E1.14787
G1 X113.821 Y54.518 E1.17414
G1 X114.508 Y54.908 E1.20042
G1 X115.152 Y55.365 E1.22668
G1 X115.746 Y55.885 E1.25294
G1 X116.285 Y56.462 E1.2792
G1 X116.763 Y57.091 E1.30548
G1 X117.174 Y57.765 E1.33173
G1 X117.516 Y58.477 E1.358
G1 X117.739 Y59.079 E1.37936
G1 X119.262 Y63.768 E1.54333
G1 X123.865 Y60.424 E1.73257
G1 X126.903 Y51.078 E2.05943
G1 X127.185 Y50.34 E2.0857
G1 X127.54 Y49.635 E2.11196
G1 X127.964 Y48.969 E2.13822
G1 X128.454 Y48.349 E2.1645
G1 X129.004 Y47.782 E2.19077
G1 X129.608 Y47.274 E2.21702
G1 X130.26 Y46.829 E2.24328
G1 X130.955 Y46.453 E2.26956
G1 X131.683 Y46.149 E2.2958
G1 X132.439 Y45.919 E2.32208
G1 X133.214 Y45.768 E2.34834
G1 X134 Y45.696 E2.37459
G1 X134.79 Y45.703 E2.40087
G1 X135.575 Y45.79 E2.42714
G1 X136.347 Y45.957 E2.45341
G1 X137.098 Y46.2 E2.47966
G1 X137.821 Y46.518 E2.50593
G1 X138.508 Y46.908 E2.53221
G1 X139.152 Y47.365 E2.55847
G1 X139.746 Y47.885 E2.58473
G1 X140.285 Y48.462 E2.61099
G1 X140.763 Y49.091 E2.63727
G1 X141.174 Y49.765 E2.66353
G1 X141.516 Y50.477 E2.6898
G1 X141.739 Y51.079 E2.71115
G1 X142.211 Y52.532 E2.76196
G1 X147.865 Y48.424 E2.99441
G1 X150.903 Y39.078 E3.32127
G1 X151.185 Y38.34 E3.34755
G1 X151.54 Y37.635 E3.3738
G1 X151.964 Y36.969 E3.40006
G1 X152.454 Y36.349 E3.42634
G1 X153.004 Y35.782 E3.45262
G1 X153.608 Y35.274 E3.47887
G1 X154.26 Y34.829 E3.50512
G1 X154.955 Y34.453 E3.5314
G1 X155.683 Y34.149 E3.55764
G1 X156.439 Y33.919 E3.58393
G1 X157.214 Y33.768 E3.61019
G1 X158 Y33.696 E3.63644
G1 X158.79 Y33.703 E3.66272
G1 X159.575 Y33.79 E3.68899
G1 X160.347 Y33.957 E3.71526
G1 X161.098 Y34.2 E3.74151
G1 X161.821 Y34.518 E3.76778
G1 X162.508 Y34.908 E3.79405
G1 X163.152 Y35.365 E3.82032
G1 X163.746 Y35.885 E3.84658
G1 X164.285 Y36.462 E3.87284
G1 X164.763 Y37.091 E3.89911
G1 X165.174 Y37.765 E3.92537
G1 X165.516 Y38.477 E3.95164
G1 X165.739 Y39.079 E3.97299
G1 X170.638 Y54.159 E4.50036
G1 X171.004 Y53.782 E4.51784
G1 X171.608 Y53.274 E4.54409
G1 X172.26 Y52.829 E4.57034
G1 X172.955 Y52.453 E4.59662
G1 X173.683 Y52.149 E4.62286
G1 X174.439 Y51.919 E4.64915
G1 X175.214 Y51.768 E4.67541
G1 X176 Y51.696 E4.70166
G1 X176.79 Y51.703 E4.72794
G1 X177.575 Y51.79 E4.7542
G1 X178.347 Y51.957 E4.78048
G1 X179.098 Y52.2 E4.80673
G1 X179.821 Y52.518 E4.833
G1 X180.508 Y52.908 E4.85927
G1 X181.152 Y53.365 E4.88554
G1 X181.746 Y53.885 E4.9118
G1 X182.285 Y54.462 E4.93806
G1 X182.763 Y55.091 E4.96433
G1 X183.174 Y55.765 E4.99059
G1 X183.516 Y56.477 E5.01686
G1 X183.739 Y57.079 E5.03821
G1 X189.919 Y76.101 E5.70344
G1 X190.125 Y76.863 E5.72969
G1 X190.253 Y77.643 E5.75598
G1 X190.301 Y78.431 E5.78224
G1 X190.269 Y79.22 E5.80851
G1 X190.157 Y80.002 E5.83478
G1 X189.967 Y80.768 E5.86103
G1 X189.731 Y81.428 E5.88434
G1 X193.865 Y78.424 E6.05431
G1 X196.903 Y69.078 E6.38117
G1 X197.185 Y68.34 E6.40744
G1 X197.54 Y67.635 E6.4337
G1 X197.964 Y66.969 E6.45996
G1 X198.454 Y66.349 E6.48624
G1 X199.004 Y65.782 E6.51251
G1 X199.608 Y65.274 E6.53876
G1 X200.26 Y64.829 E6.56502
G1 X200.955 Y64.453 E6.5913
G1 X201.683 Y64.149 E6.61754
G1 X202.439 Y63.919 E6.64382
G1 X203.214 Y63.768 E6.67009
G1 X204 Y63.696 E6.69634
G1 X204.79 Y63.703 E6.72261
G1 X205.575 Y63.79 E6.74888
G1 X206.347 Y63.957 E6.77515
G1 X207.098 Y64.2 E6.80141
G1 X207.821 Y64.518 E6.82768
G1 X208.508 Y64.908 E6.85395
G1 X209.152 Y65.365 E6.88022
G1 X209.746 Y65.885 E6.90647
G1 X210.285 Y66.462 E6.93274
G1 X210.763 Y67.091 E6.95901
G1 X211.174 Y67.765 E6.98527
G1 X211.516 Y68.477 E7.01154
G1 X211.739 Y69.079 E7.03289
G1 X217.919 Y88.101 E7.69812
G1 X218.125 Y88.863 E7.72437
G1 X218.253 Y89.643 E7.75066
G1 X218.301 Y90.431 E7.77692
G1 X218.269 Y91.22 E7.80318
G1 X218.157 Y92.002 E7.82946
G1 X217.967 Y92.768 E7.85571
G1 X217.701 Y93.512 E7.88199
G1 X217.36 Y94.224 E7.90824
G1 X216.95 Y94.899 E7.93451
G1 X216.473 Y95.528 E7.96077
G1 X215.935 Y96.106 E7.98703
G1 X215.342 Y96.627 E8.01329
G1 X214.698 Y97.085 E8.03957
G1 X214.012 Y97.476 E8.06583
G1 X213.29 Y97.795 E8.09209
G1 X212.539 Y98.04 E8.11836
G1 X211.767 Y98.208 E8.14464
G1 X210.983 Y98.296 E8.17088
G1 X210.501 Y98.311 E8.18692
G1 X203.439 Y98.311 E8.4218
G1 X207.919 Y112.101 E8.90405
G1 X208.125 Y112.863 E8.93031
G1 X208.253 Y113.643 E8.9566
G1 X208.301 Y114.431 E8.98285
G1 X208.269 Y115.22 E9.00912
G1 X208.157 Y116.002 E9.03539
G1 X207.967 Y116.768 E9.06164
G1 X207.701 Y117.512 E9.08792
G1 X207.36 Y118.224 E9.11418
G1 X206.95 Y118.899 E9.14045
G1 X206.473 Y119.528 E9.1667
G1 X205.935 Y120.106 E9.19297
G1 X205.342 Y120.627 E9.21922
G1 X204.698 Y121.085 E9.2455
G1 X204.012 Y121.476 E9.27177
G1 X203.29 Y121.795 E9.29802
G1 X202.539 Y122.04 E9.32429
G1 X201.767 Y122.208 E9.35057
G1 X200.983 Y122.296 E9.37681
G1 X200.501 Y122.311 E9.39285
G1 X199.439 Y122.311 E9.42817
G1 X203.919 Y136.101 E9.91043
G1 X204.125 Y136.863 E9.93668
G1 X204.253 Y137.643 E9.96297
G1 X204.301 Y138.431 E9.98923
G1 X204.269 Y139.22 E10.01549
G1 X204.157 Y140.002 E10.04177
G1 X203.967 Y140.768 E10.06802
G1 X203.701 Y141.512 E10.0943
G1 X203.36 Y142.224 E10.12055
G1 X202.95 Y142.899 E10.14682
G1 X202.473 Y143.528 E10.17308
G1 X201.935 Y144.106 E10.19934
G1 X201.342 Y144.627 E10.22559
G1 X200.698 Y145.085 E10.25188
G1 X200.012 Y145.476 E10.27814
G1 X199.29 Y145.795 E10.30439
G1 X198.539 Y146.04 E10.33067
G1 X197.767 Y146.208 E10.35695
G1 X196.983 Y146.296 E10.38319
G1 X196.501 Y146.311 E10.39922
G1 X193.439 Y146.311 E10.50107
G1 X197.919 Y160.101 E10.98332
G1 X198.125 Y160.863 E11.00958
G1 X198.253 Y161.643 E11.03587
G1 X198.301 Y162.431 E11.06212
G1 X198.269 Y163.22 E11.08839
G1 X198.157 Y164.002 E11.11466
G1 X197.967 Y164.768 E11.14091
G1 X197.701 Y165.512 E11.16719
G1 X197.36 Y166.224 E11.19345
G1 X196.95 Y166.899 E11.21972
G1 X196.473 Y167.528 E11.24597
G1 X195.935 Y168.106 E11.27223
G1 X195.342 Y168.627 E11.29849
G1 X194.698 Y169.085 E11.32477
G1 X194.012 Y169.476 E11.35104
G1 X193.29 Y169.795 E11.37729
G1 X192.539 Y170.04 E11.40356
G1 X191.767 Y170.208 E11.42984
G1 X190.983 Y170.296 E11.45608
G1 X190.501 Y170.311 E11.47212
G1 X170.499 Y170.311 E12.13739
G1 X169.71 Y170.271 E12.16366
G1 X168.93 Y170.152 E12.18991
G1 X168.165 Y169.954 E12.21619
G1 X167.425 Y169.68 E12.24244
G1 X166.716 Y169.332 E12.2687
G1 X166.045 Y168.914 E12.295
G1 X165.421 Y168.431 E12.32124
G1 X164.848 Y167.888 E12.3475
G1 X164.333 Y167.289 E12.37377
G1 X163.882 Y166.641 E12.40003
G1 X163.498 Y165.95 E12.42632
G1 X163.186 Y165.225 E12.45258
G1 X162.949 Y164.472 E12.47883
G1 X162.79 Y163.698 E12.50511
G1 X162.709 Y162.913 E12.53136
G1 X162.709 Y162.123 E12.55764
G1 X162.788 Y161.337 E12.58391
G1 X162.946 Y160.564 E12.61015
G1 X163.182 Y159.81 E12.63643
G1 X163.492 Y159.084 E12.66269
G1 X163.875 Y158.393 E12.68896
G1 X163.932 Y158.311 E12.69229
G1 X157.337 Y158.311 E12.91164
G1 X157.919 Y160.101 E12.97424
G1 X158.125 Y160.863 E13.00049
G1 X158.253 Y161.643 E13.02678
G1 X158.301 Y162.431 E13.05304
G1 X158.269 Y163.22 E13.0793
G1 X158.157 Y164.002 E13.10558
G1 X157.967 Y164.768 E13.13183
G1 X157.701 Y165.512 E13.15811
G1 X157.36 Y166.224 E13.18437
G1 X156.95 Y166.899 E13.21063
G1 X156.473 Y167.528 E13.23689
G1 X155.935 Y168.106 E13.26315
G1 X155.342 Y168.627 E13.28941
G1 X154.698 Y169.085 E13.31569
G1 X154.012 Y169.476 E13.34195
G1 X153.29 Y169.795 E13.36821
G1 X152.539 Y170.04 E13.39448
G1 X151.767 Y170.208 E13.42076
G1 X150.983 Y170.296 E13.447
G1 X150.501 Y170.311 E13.46304
G1 X130.499 Y170.311 E14.12831
G1 X129.71 Y170.271 E14.15458
G1 X128.93 Y170.152 E14.18083
G1 X128.165 Y169.954 E14.20711
G1 X127.425 Y169.68 E14.23335
G1 X126.716 Y169.332 E14.25962
G1 X126.045 Y168.914 E14.28592
G1 X125.421 Y168.431 E14.31216
G1 X124.848 Y167.888 E14.33842
G1 X124.333 Y167.289 E14.36469
G1 X123.882 Y166.641 E14.39095
G1 X123.498 Y165.95 E14.41724
G1 X123.186 Y165.225 E14.44349
G1 X122.949 Y164.472 E14.46975
G1 X122.79 Y163.698 E14.49603
G1 X122.709 Y162.913 E14.52228
G1 X122.709 Y162.123 E14.54855
G1 X122.788 Y161.337 E14.57483
G1 X122.946 Y160.564 E14.60107
G1 X123.182 Y159.81 E14.62735
G1 X123.492 Y159.084 E14.6536
G1 X123.875 Y158.393 E14.67988
G1 X124.325 Y157.744 E14.70615
G1 X124.839 Y157.144 E14.73243
G1 X125.41 Y156.6 E14.75866
G1 X125.914 Y156.201 E14.78004
G1 X131.345 Y152.255 E15.00332
G1 X130.983 Y152.296 E15.01544
G1 X130.501 Y152.311 E15.03147
G1 X110.499 Y152.311 E15.69674
G1 X109.71 Y152.271 E15.72302
G1 X108.93 Y152.152 E15.74926
G1 X108.165 Y151.954 E15.77555
G1 X107.425 Y151.68 E15.80179
G1 X106.716 Y151.332 E15.82806
G1 X106.045 Y150.914 E15.85435
G1 X105.421 Y150.431 E15.8806
G1 X104.848 Y149.888 E15.90685
G1 X104.333 Y149.289 E15.93313
G1 X103.882 Y148.641 E15.95939
G1 X103.498 Y147.95 E15.98568
G1 X103.186 Y147.225 E16.01193
G1 X102.949 Y146.472 E16.03819
G1 X102.79 Y145.698 E16.06447
G1 X102.709 Y144.913 E16.09072
G1 X102.709 Y144.123 E16.11699
G1 X102.788 Y143.337 E16.14327
G1 X102.946 Y142.564 E16.16951
G1 X103.182 Y141.81 E16.19579
G1 X103.492 Y141.084 E16.22204
G1 X103.875 Y140.393 E16.24832
G1 X103.932 Y140.311 E16.25164
G1 X85.499 Y140.311 E16.86472
G1 X84.71 Y140.271 E16.891
G1 X83.93 Y140.152 E16.91724
G1 X83.165 Y139.954 E16.94353
G1 X82.425 Y139.68 E16.96977
G1 X81.716 Y139.332 E16.99604
G1 X81.045 Y138.914 E17.02233
G1 X80.421 Y138.431 E17.04858
G1 X79.848 Y137.888 E17.07484
G1 X79.333 Y137.289 E17.10111
G1 X78.882 Y136.641 E17.12737
G1 X78.498 Y135.95 E17.15366
G1 X78.186 Y135.225 E17.17991
G1 X77.949 Y134.472 E17.20617
G1 X77.79 Y133.698 E17.23245
G1 X77.709 Y132.913 E17.2587
G1 X77.709 Y132.123 E17.28497
G1 X77.788 Y131.337 E17.31125
G1 X77.946 Y130.564 E17.33749
G1 X78.182 Y129.81 E17.36377
G1 X78.492 Y129.084 E17.39002
G1 X78.875 Y128.393 E17.4163
G1 X79.325 Y127.744 E17.44257
G1 X79.839 Y127.144 E17.46885
G1 X80.41 Y126.6 E17.49508
G1 X80.914 Y126.201 E17.51646
G1 X88.865 Y120.424 E17.84334
G1 X90.306 Y115.991 E17.99838
G1 X90.165 Y115.954 E18.00323
G1 X89.425 Y115.68 E18.02947
G1 X88.716 Y115.332 E18.05574
G1 X88.045 Y114.914 E18.08203
G1 X87.421 Y114.431 E18.10828
G1 X86.848 Y113.888 E18.13454
G1 X86.333 Y113.289 E18.16081
G1 X85.882 Y112.641 E18.18707
G1 X85.498 Y111.95 E18.21336
G1 X85.186 Y111.225 E18.23961
G1 X84.949 Y110.472 E18.26587
G1 X84.79 Y109.698 E18.29215
G1 X84.709 Y108.913 E18.3184
G1 X84.709 Y108.123 E18.34467
G1 X84.788 Y107.337 E18.37095
G1 X84.946 Y106.564 E18.39719
G1 X85.182 Y105.81 E18.42347
G1 X85.492 Y105.084 E18.44972
G1 X85.875 Y104.393 E18.476
G1 X86.325 Y103.744 E18.50227
G1 X86.839 Y103.144 E18.52854
G1 X87.41 Y102.6 E18.55478
G1 X87.914 Y102.201 E18.57616
G1 X95.865 Y96.424 E18.90304
G1 X98.502 Y88.311 E19.18678
G1 X96.499 Y88.311 E19.2534
G1 X95.71 Y88.271 E19.27967
G1 X94.93 Y88.152 E19.30592
G1 X94.165 Y87.954 E19.3322
G1 X93.425 Y87.68 E19.35844
G1 X92.716 Y87.332 E19.38471
G1 X92.045 Y86.914 E19.41101
G1 X91.421 Y86.431 E19.43725
G1 X90.848 Y85.888 E19.46351
G1 X90.333 Y85.289 E19.48978
G1 X89.882 Y84.641 E19.51604
G1 X89.498 Y83.95 E19.54233
G1 X89.186 Y83.225 E19.56858
G1 X88.949 Y82.472 E19.59484
G1 X88.79 Y81.698 E19.62112
G1 X88.709 Y80.913 E19.64737
G1 X88.709 Y80.123 E19.67364
G1 X88.788 Y79.337 E19.69992
G1 X88.946 Y78.564 E19.72616
G1 X89.182 Y77.81 E19.75244
G1 X89.492 Y77.084 E19.77869
G1 X89.875 Y76.393 E19.80497
G1 X90.325 Y75.744 E19.83124
G0 F3600 X90.446 Y76.254
G1 F1200 X90.921 Y75.649 E19.85682
G1 X91.455 Y75.096 E19.88239
G1 X92.149 Y74.524 E19.9123
G1 X100.205 Y68.671 E20.2435
G1 X103.283 Y59.202 E20.57466
G1 X103.559 Y58.483 E20.60028
G1 X103.907 Y57.798 E20.62583
G1 X104.325 Y57.152 E20.65142
G1 X104.808 Y56.553 E20.67701
G1 X105.35 Y56.007 E20.7026
G1 X105.946 Y55.521 E20.72818
G1 X106.589 Y55.099 E20.75376
G1 X107.272 Y54.746 E20.77933
G1 X107.989 Y54.466 E20.80493
G1 X108.73 Y54.262 E20.8305
G1 X109.489 Y54.136 E20.85609
G1 X110.257 Y54.089 E20.88168
G1 X111.025 Y54.123 E20.90725
G1 X111.786 Y54.235 E20.93283
G1 X112.531 Y54.427 E20.95842
G1 X113.252 Y54.694 E20.98399
G1 X113.941 Y55.035 E21.00956
G1 X114.592 Y55.446 E21.03517
G1 X115.196 Y55.922 E21.06075
G1 X115.748 Y56.458 E21.08634
G1 X116.24 Y57.048 E21.11189
G1 X116.669 Y57.687 E21.13749
G1 X117.03 Y58.366 E21.16306
G1 X117.359 Y59.202 E21.19294
G1 X119.052 Y64.415 E21.37524
G1 X124.205 Y60.671 E21.5871
G1 X127.283 Y51.202 E21.91826
G1 X127.559 Y50.483 E21.94387
G1 X127.907 Y49.798 E21.96943
G1 X128.325 Y49.152 E21.99502
G1 X128.808 Y48.553 E22.02061
G1 X129.35 Y48.007 E22.0462
G1 X129.946 Y47.521 E22.07178
G1 X130.589 Y47.099 E22.09736
G1 X131.272 Y46.746 E22.12293
G1 X131.989 Y46.466 E22.14853
G1 X132.73 Y46.262 E22.17409
G1 X133.489 Y46.136 E22.19968
G1 X134.257 Y46.089 E22.22528
G1 X135.025 Y46.123 E22.25084
G1 X135.786 Y46.235 E22.27643
G1 X136.531 Y46.427 E22.30202
G1 X137.252 Y46.694 E22.32759
G1 X137.941 Y47.035 E22.35316
G1 X138.592 Y47.446 E22.37876
G1 X139.196 Y47.922 E22.40434
G1 X139.748 Y48.458 E22.42993
G1 X140.24 Y49.048 E22.45548
G1 X140.669 Y49.687 E22.48108
G1 X141.03 Y50.366 E22.50666
G1 X141.359 Y51.202 E22.53654
G1 X142.001 Y53.178 E22.60564
G1 X148.205 Y48.671 E22.86069
G1 X151.283 Y39.202 E23.19185
G1 X151.559 Y38.483 E23.21747
G1 X151.907 Y37.798 E23.24302
G1 X152.325 Y37.152 E23.26862
G1 X152.808 Y36.553 E23.29421
G1 X153.35 Y36.007 E23.3198
G1 X153.946 Y35.521 E23.34538
G1 X154.589 Y35.099 E23.37096
G1 X155.272 Y34.746 E23.39653
G1 X155.989 Y34.466 E23.42213
G1 X156.73 Y34.262 E23.44769
G1 X157.489 Y34.136 E23.47328
G1 X158.257 Y34.089 E23.49887
G1 X159.025 Y34.123 E23.52444
G1 X159.786 Y34.235 E23.55003
G1 X160.531 Y34.427 E23.57561
G1 X161.252 Y34.694 E23.60119
G1 X161.941 Y35.035 E23.62676
G1 X162.592 Y35.446 E23.65236
G1 X163.196 Y35.922 E23.67794
G1 X163.748 Y36.458 E23.70353
G1 X164.24 Y37.048 E23.72908
G1 X164.669 Y37.687 E23.75468
G1 X165.03 Y38.366 E23.78026
G1 X165.359 Y39.202 E23.81014
G1 X170.479 Y54.961 E24.36125
G1 X170.808 Y54.553 E24.37869
G1 X171.35 Y54.007 E24.40428
G1 X171.946 Y53.521 E24.42985
G1 X172.589 Y53.099 E24.45543
G1 X173.272 Y52.746 E24.48101
G1 X173.989 Y52.466 E24.50661
G1 X174.73 Y52.262 E24.53217
G1 X175.489 Y52.136 E24.55776
G1 X176.257 Y52.089 E24.58335
G1 X177.025 Y52.123 E24.60892
G1 X177.786 Y52.235 E24.6345
G1 X178.531 Y52.427 E24.66009
G1 X179.252 Y52.694 E24.68566
G1 X179.941 Y53.035 E24.71123
G1 X180.592 Y53.446 E24.73684
G1 X181.196 Y53.922 E24.76242
G1 X181.748 Y54.458 E24.78801
G1 X182.24 Y55.048 E24.81356
G1 X182.669 Y55.687 E24.83916
G1 X183.03 Y56.366 E24.86474
G1 X183.359 Y57.202 E24.89462
G1 X189.539 Y76.224 E25.55984
G1 X189.738 Y76.967 E25.58543
G1 X189.859 Y77.727 E25.61102
G1 X189.901 Y78.495 E25.6366
G1 X189.863 Y79.263 E25.66218
G1 X189.745 Y80.023 E25.68776
G1 X189.549 Y80.767 E25.71335
G1 X189.277 Y81.486 E25.73892
G1 X188.931 Y82.174 E25.76453
G1 X188.536 Y82.79 E25.78887
