;FLAVOR:RepRap
;TIME:397
;Filament used: 0.318706m
;Layer height: 0.2
;Generated with Cura_SteamEngine master
M104 S200
M109 S200
; -- START GCODE --
M800        ; Custom GCODE to fire start print procedure
; -- end of START GCODE --
;LAYER_COUNT:30
;LAYER:0
M107
G0 F3600 X139.923 Y93.447 Z0.2
G0 X140.143 Y93.158
;TYPE:SKIRT
G1 F1800 X140.517 Y92.703 E0.01959
G1 X140.949 Y92.241 E0.04063
G1 X141.215 Y92.007 E0.05241
G1 X141.676 Y91.63 E0.07222
G1 X142.189 Y91.262 E0.09322
G1 X142.489 Y91.089 E0.10473
G1 X143.003 Y90.815 E0.12411
G1 X143.578 Y90.553 E0.14512
G1 X143.907 Y90.441 E0.15668
G1 X144.469 Y90.271 E0.17621
G1 X145.085 Y90.127 E0.19725
G1 X145.43 Y90.081 E0.20883
G1 X146.013 Y90.024 E0.22831
G1 X146.517 Y90 E0.24509
G1 X150.811 Y90.015 E0.38791
G1 X151.442 Y90.057 E0.40895
G1 X151.776 Y90.112 E0.42021
G1 X152.355 Y90.228 E0.43985
G1 X152.966 Y90.392 E0.46089
G1 X153.277 Y90.508 E0.47193
G1 X153.804 Y90.725 E0.49088
G1 X154.372 Y91.002 E0.5119
G1 X154.654 Y91.175 E0.52291
G1 X155.154 Y91.505 E0.54283
G1 X155.659 Y91.886 E0.56387
G1 X155.936 Y92.142 E0.57642
G1 X156.352 Y92.558 E0.59598
G1 X156.769 Y93.033 E0.61701
G1 X156.975 Y93.319 E0.62873
G1 X157.302 Y93.809 E0.64832
G1 X157.619 Y94.355 E0.66932
G1 X157.762 Y94.669 E0.6808
G1 X157.988 Y95.214 E0.70042
G1 X158.192 Y95.812 E0.72144
G1 X158.272 Y96.148 E0.73292
G1 X158.387 Y96.723 E0.75243
G1 X158.471 Y97.35 E0.77347
G1 X158.484 Y97.698 E0.78505
G1 X158.5 Y111.994 E1.26054
G1 X158.476 Y112.492 E1.27712
G1 X158.418 Y113.078 E1.29671
G1 X158.316 Y113.702 E1.31774
G1 X158.227 Y114.036 E1.32923
G1 X158.057 Y114.597 E1.34873
G1 X157.836 Y115.189 E1.36975
G1 X157.561 Y115.717 E1.38955
G1 X157.108 Y116.473 E1.41886
G1 X156.749 Y116.994 E1.4399
G1 X156.355 Y117.439 E1.45967
G1 X155.94 Y117.854 E1.47919
G1 X155.465 Y118.271 E1.50022
G1 X155.179 Y118.477 E1.51194
G1 X154.689 Y118.804 E1.53153
G1 X154.143 Y119.121 E1.55253
G1 X153.822 Y119.267 E1.56426
G1 X153.277 Y119.492 E1.58387
G1 X152.679 Y119.695 E1.60487
G1 X152.348 Y119.773 E1.61619
G1 X151.772 Y119.888 E1.63572
G1 X151.145 Y119.973 E1.65677
G1 X150.811 Y119.985 E1.66788
G1 X146.586 Y120 E1.80841
G1 X146.122 Y119.98 E1.82385
G1 X145.463 Y119.921 E1.84586
G1 X144.838 Y119.825 E1.86689
G1 X144.44 Y119.72 E1.88058
G1 X143.877 Y119.547 E1.90017
G1 X143.286 Y119.324 E1.92118
G1 X142.984 Y119.175 E1.93238
G1 X142.469 Y118.899 E1.95182
G1 X141.932 Y118.566 E1.97283
G1 X141.646 Y118.346 E1.98483
G1 X141.191 Y117.97 E2.00446
G1 X140.73 Y117.538 E2.02548
G1 X140.515 Y117.292 E2.03634
G1 X140.144 Y116.841 E2.05577
G1 X139.774 Y116.329 E2.07678
G1 X139.596 Y116.023 E2.08855
G1 X139.319 Y115.505 E2.10809
G1 X139.057 Y114.93 E2.12911
G1 X138.943 Y114.597 E2.14081
G1 X138.773 Y114.036 E2.16031
G1 X138.628 Y113.421 E2.18133
G1 X138.582 Y113.079 E2.1928
G1 X138.524 Y112.494 E2.21236
G1 X138.5 Y111.996 E2.22894
G1 X138.515 Y97.702 E2.70436
G1 X138.556 Y97.071 E2.72539
G1 X138.667 Y96.485 E2.74523
G1 X138.883 Y95.628 E2.77462
G1 X139.076 Y95.026 E2.79565
G1 X139.317 Y94.502 E2.81483
G1 X139.592 Y93.985 E2.83431
G1 X139.923 Y93.447 E2.85532
G1 X140.143 Y93.158 E2.8674
G0 F3600 X140.452 Y93.412
G1 F1800 X140.826 Y92.957 E2.88699
G1 X141.468 Y92.317 E2.91714
G1 X141.929 Y91.94 E2.93695
G1 X142.677 Y91.442 E2.96683
G1 X143.191 Y91.168 E2.98621
G1 X144.023 Y90.824 E3.01615
G1 X144.585 Y90.654 E3.03568
G1 X145.469 Y90.479 E3.06565
G1 X146.052 Y90.422 E3.08514
G1 X146.516 Y90.4 E3.10059
G1 X150.81 Y90.415 E3.24341
G1 X151.698 Y90.505 E3.27309
G1 X152.277 Y90.621 E3.29273
G1 X153.124 Y90.877 E3.32216
G1 X153.651 Y91.094 E3.34112
G1 X154.434 Y91.509 E3.37059
G1 X154.934 Y91.839 E3.39052
G1 X155.417 Y92.205 E3.41067
G1 X155.653 Y92.425 E3.42141
G1 X156.069 Y92.841 E3.44097
G1 X156.642 Y93.541 E3.47106
G1 X156.969 Y94.031 E3.49065
G1 X157.392 Y94.822 E3.52049
G1 X157.618 Y95.367 E3.54011
G1 X157.88 Y96.227 E3.57001
G1 X157.995 Y96.802 E3.58952
G1 X158.084 Y97.699 E3.6195
G1 X158.1 Y111.995 E4.09498
G1 X158.078 Y112.453 E4.11024
G1 X158.02 Y113.039 E4.12982
G1 X157.844 Y113.92 E4.1597
G1 X157.674 Y114.481 E4.1792
G1 X157.461 Y115.048 E4.19934
G1 X157.218 Y115.511 E4.21674
G1 X156.765 Y116.267 E4.24605
G1 X156.42 Y116.766 E4.26623
G1 X156.072 Y117.156 E4.28361
G1 X155.657 Y117.571 E4.30313
G1 X154.957 Y118.144 E4.33322
G1 X154.467 Y118.471 E4.35281
G1 X153.669 Y118.897 E4.3829
G1 X153.124 Y119.122 E4.40251
G1 X152.27 Y119.381 E4.43219
G1 X151.694 Y119.496 E4.45173
G1 X150.809 Y119.585 E4.48131
G1 X146.584 Y119.6 E4.62184
G1 X146.158 Y119.582 E4.63602
G1 X145.499 Y119.523 E4.65802
G1 X144.9 Y119.429 E4.67819
G1 X144.558 Y119.338 E4.68996
G1 X143.995 Y119.165 E4.70955
G1 X143.173 Y118.822 E4.73918
G1 X142.658 Y118.546 E4.75861
G1 X142.144 Y118.225 E4.77876
G1 X141.901 Y118.038 E4.78896
G1 X141.446 Y117.662 E4.80859
G1 X140.824 Y117.038 E4.8379
G1 X140.453 Y116.587 E4.85732
G1 X139.949 Y115.834 E4.88746
G1 X139.672 Y115.316 E4.907
G1 X139.326 Y114.481 E4.93706
G1 X139.156 Y113.92 E4.95656
G1 X138.98 Y113.04 E4.9864
G1 X138.922 Y112.455 E5.00596
G1 X138.9 Y111.996 E5.02124
G1 X138.915 Y97.702 E5.49666
G1 X138.956 Y97.097 E5.51683
G1 X139.054 Y96.583 E5.53423
G1 X139.27 Y95.726 E5.56363
G1 X139.457 Y95.149 E5.5838
G1 X139.67 Y94.69 E5.60063
G1 X139.945 Y94.173 E5.62011
G1 X140.264 Y93.657 E5.64029
G1 X140.452 Y93.412 E5.65056
G0 F3600 X140.761 Y93.666
G1 F1800 X141.135 Y93.211 E5.67015
G1 X141.721 Y92.627 E5.69766
G1 X142.182 Y92.25 E5.71747
G1 X142.865 Y91.795 E5.74477
G1 X143.379 Y91.521 E5.76414
G1 X144.139 Y91.207 E5.79149
G1 X144.701 Y91.037 E5.81102
G1 X145.508 Y90.877 E5.83838
G1 X146.091 Y90.82 E5.85787
G1 X146.515 Y90.8 E5.87198
G1 X150.809 Y90.815 E6.0148
G1 X151.619 Y90.897 E6.04188
G1 X152.198 Y91.013 E6.06152
G1 X152.972 Y91.247 E6.08842
G1 X153.499 Y91.464 E6.10737
G1 X154.214 Y91.843 E6.13429
G1 X154.714 Y92.173 E6.15421
G1 X155.37 Y92.708 E6.18237
G1 X155.786 Y93.124 E6.20194
G1 X156.31 Y93.763 E6.22942
G1 X156.637 Y94.253 E6.24901
G1 X157.023 Y94.975 E6.27624
G1 X157.249 Y95.52 E6.29587
G1 X157.487 Y96.305 E6.32315
G1 X157.602 Y96.88 E6.34265
G1 X157.684 Y97.699 E6.37003
G1 X157.7 Y111.995 E6.84552
G1 X157.68 Y112.414 E6.85947
G1 X157.622 Y113 E6.87906
G1 X157.462 Y113.804 E6.90632
G1 X157.292 Y114.365 E6.92582
G1 X157.086 Y114.907 E6.9451
G1 X156.875 Y115.306 E6.96011
G1 X156.422 Y116.062 E6.98943
G1 X156.09 Y116.537 E7.0087
G1 X155.789 Y116.873 E7.02371
G1 X155.374 Y117.288 E7.04323
G1 X154.735 Y117.812 E7.07071
G1 X154.245 Y118.139 E7.09031
G1 X153.517 Y118.527 E7.11774
G1 X152.972 Y118.752 E7.13735
G1 X152.191 Y118.989 E7.1645
G1 X151.615 Y119.104 E7.18404
G1 X150.808 Y119.185 E7.21101
G1 X146.583 Y119.2 E7.35154
G1 X146.193 Y119.183 E7.36452
G1 X145.534 Y119.124 E7.38653
G1 X144.962 Y119.033 E7.40579
G1 X144.675 Y118.956 E7.41567
G1 X144.112 Y118.783 E7.43526
G1 X143.362 Y118.47 E7.46229
G1 X142.847 Y118.194 E7.48173
G1 X142.156 Y117.73 E7.50941
G1 X141.701 Y117.354 E7.52904
G1 X141.132 Y116.784 E7.55583
G1 X140.761 Y116.333 E7.57525
G1 X140.301 Y115.646 E7.60275
G1 X140.024 Y115.128 E7.62229
G1 X139.708 Y114.365 E7.64976
G1 X139.538 Y113.804 E7.66926
G1 X139.378 Y113 E7.69652
G1 X139.32 Y112.415 E7.71607
G1 X139.3 Y111.997 E7.72999
G1 X139.315 Y97.703 E8.20541
G1 X139.356 Y97.125 E8.22469
G1 X139.442 Y96.681 E8.23973
G1 X139.658 Y95.824 E8.26912
G1 X139.838 Y95.273 E8.2884
G1 X140.023 Y94.878 E8.30291
G1 X140.298 Y94.361 E8.32239
G1 X140.761 Y93.666 E8.35016
G0 F3600 X141.07 Y93.92
G1 F1800 X141.444 Y93.465 E8.36975
G1 X141.974 Y92.936 E8.39466
G1 X142.435 Y92.559 E8.41446
G1 X143.053 Y92.148 E8.43915
G1 X143.567 Y91.874 E8.45852
G1 X144.255 Y91.59 E8.48328
G1 X144.817 Y91.42 E8.50281
G1 X145.547 Y91.275 E8.52756
G1 X146.13 Y91.218 E8.54704
G1 X146.513 Y91.2 E8.5598
G1 X150.807 Y91.215 E8.70262
G1 X151.54 Y91.289 E8.72712
G1 X152.119 Y91.405 E8.74676
G1 X152.82 Y91.617 E8.77112
G1 X153.347 Y91.834 E8.79008
G1 X153.993 Y92.176 E8.81439
G1 X154.493 Y92.506 E8.83431
G1 X155.087 Y92.991 E8.85982
G1 X155.503 Y93.407 E8.87939
G1 X155.977 Y93.985 E8.90425
G1 X156.304 Y94.475 E8.92384
G1 X156.653 Y95.128 E8.94847
G1 X156.879 Y95.673 E8.96809
G1 X157.095 Y96.384 E8.99281
G1 X157.21 Y96.959 E9.01231
G1 X157.284 Y97.7 E9.03708
G1 X157.3 Y111.996 E9.51256
G1 X157.282 Y112.374 E9.52515
G1 X157.224 Y112.96 E9.54474
G1 X157.079 Y113.688 E9.56943
G1 X156.909 Y114.249 E9.58892
G1 X156.711 Y114.763 E9.60724
G1 X156.532 Y115.1 E9.61993
G1 X156.079 Y115.856 E9.64925
G1 X155.762 Y116.307 E9.66758
G1 X155.506 Y116.59 E9.68027
G1 X155.091 Y117.005 E9.6998
G1 X154.513 Y117.479 E9.72466
G1 X154.023 Y117.806 E9.74425
G1 X153.364 Y118.157 E9.76908
G1 X152.819 Y118.382 E9.78869
G1 X152.113 Y118.596 E9.81323
G1 X151.537 Y118.711 E9.83277
G1 X150.806 Y118.785 E9.8572
G1 X146.581 Y118.8 E9.99773
G1 X146.229 Y118.785 E10.00945
G1 X145.57 Y118.726 E10.03145
G1 X144.793 Y118.573 E10.05779
G1 X144.23 Y118.4 E10.07738
G1 X143.551 Y118.117 E10.10185
G1 X143.036 Y117.841 E10.12128
G1 X142.41 Y117.421 E10.14636
G1 X141.955 Y117.045 E10.16599
G1 X141.441 Y116.53 E10.19019
G1 X141.07 Y116.079 E10.20961
G1 X140.654 Y115.457 E10.2345
G1 X140.377 Y114.939 E10.25404
G1 X140.091 Y114.249 E10.27888
G1 X139.921 Y113.688 E10.29838
G1 X139.777 Y112.961 E10.32303
G1 X139.719 Y112.376 E10.34258
G1 X139.7 Y111.997 E10.3552
G1 X139.715 Y97.703 E10.83062
G1 X139.756 Y97.154 E10.84893
G1 X139.83 Y96.778 E10.86168
G1 X140.046 Y95.921 E10.89107
G1 X140.219 Y95.398 E10.9094
G1 X140.376 Y95.065 E10.92164
G1 X140.651 Y94.548 E10.94112
G1 X141.07 Y93.92 E10.96623
G0 F3600 X141.379 Y94.174
G1 F1800 X141.753 Y93.719 E10.98582
G1 X142.228 Y93.246 E11.00811
G1 X142.689 Y92.869 E11.02792
G1 X143.242 Y92.501 E11.05001
G1 X143.756 Y92.227 E11.06939
G1 X144.371 Y91.973 E11.09152
G1 X144.933 Y91.803 E11.11105
G1 X145.586 Y91.673 E11.13319
G1 X146.169 Y91.616 E11.15267
G1 X146.512 Y91.6 E11.16409
G1 X150.806 Y91.615 E11.30691
G1 X151.462 Y91.681 E11.32884
G1 X152.041 Y91.797 E11.34848
G1 X152.668 Y91.987 E11.37027
G1 X153.195 Y92.204 E11.38923
G1 X153.773 Y92.51 E11.41098
G1 X154.273 Y92.84 E11.43091
G1 X154.804 Y93.274 E11.45372
G1 X155.22 Y93.69 E11.47328
G1 X155.644 Y94.207 E11.49552
G1 X155.971 Y94.697 E11.51512
G1 X156.284 Y95.282 E11.53718
G1 X156.51 Y95.827 E11.55681
G1 X156.703 Y96.462 E11.57888
G1 X156.818 Y97.037 E11.59838
G1 X156.884 Y97.7 E11.62055
G1 X156.9 Y111.996 E12.09603
G1 X156.883 Y112.335 E12.10732
G1 X156.825 Y112.921 E12.12691
G1 X156.696 Y113.572 E12.14898
G1 X156.526 Y114.133 E12.16848
G1 X156.337 Y114.619 E12.18582
G1 X156.188 Y114.895 E12.19625
G1 X155.735 Y115.651 E12.22557
G1 X155.434 Y116.076 E12.24289
G1 X155.223 Y116.307 E12.25329
G1 X154.808 Y116.722 E12.27281
G1 X154.291 Y117.146 E12.29505
G1 X153.801 Y117.473 E12.31465
G1 X153.211 Y117.788 E12.33689
G1 X152.666 Y118.013 E12.3565
G1 X152.035 Y118.204 E12.37843
G1 X151.459 Y118.319 E12.39797
G1 X150.805 Y118.385 E12.41983
G1 X146.58 Y118.4 E12.56035
G1 X146.265 Y118.386 E12.57084
G1 X145.606 Y118.327 E12.59285
G1 X144.91 Y118.191 E12.61643
G1 X144.347 Y118.018 E12.63602
G1 X143.74 Y117.765 E12.6579
G1 X143.225 Y117.489 E12.67733
G1 X142.665 Y117.113 E12.69976
G1 X142.21 Y116.737 E12.7194
G1 X141.75 Y116.276 E12.74106
G1 X141.379 Y115.825 E12.76048
G1 X141.007 Y115.268 E12.78276
G1 X140.73 Y114.75 E12.80229
G1 X140.474 Y114.133 E12.82451
G1 X140.304 Y113.572 E12.84401
G1 X140.175 Y112.921 E12.86608
G1 X140.117 Y112.336 E12.88564
G1 X140.1 Y111.997 E12.89692
G1 X140.115 Y97.703 E13.37235
G1 X140.155 Y97.184 E13.38966
G1 X140.218 Y96.876 E13.40011
G1 X140.434 Y96.019 E13.42951
G1 X140.6 Y95.525 E13.44684
G1 X140.729 Y95.253 E13.45686
G1 X141.004 Y94.736 E13.47633
G1 X141.379 Y94.174 E13.4988
G0 F3600 X141.688 Y94.428
G1 F1800 X142.062 Y93.973 E13.51839
G1 X142.481 Y93.556 E13.53806
G1 X142.942 Y93.179 E13.55786
G1 X143.43 Y92.854 E13.57736
G1 X143.944 Y92.58 E13.59674
G1 X144.486 Y92.355 E13.61626
G1 X145.048 Y92.185 E13.63578
G1 X145.625 Y92.071 E13.65535
G1 X146.208 Y92.014 E13.67483
G1 X146.51 Y92 E13.68488
G1 X150.804 Y92.015 E13.8277
G1 X151.383 Y92.073 E13.84706
G1 X151.962 Y92.189 E13.8667
G1 X152.515 Y92.357 E13.88592
G1 X153.042 Y92.574 E13.90488
G1 X153.553 Y92.844 E13.9241
G1 X154.053 Y93.174 E13.94403
G1 X154.521 Y93.557 E13.96414
G1 X154.937 Y93.973 E13.98371
G1 X155.311 Y94.429 E14.00332
G1 X155.638 Y94.919 E14.02292
G1 X155.914 Y95.435 E14.04238
G1 X156.14 Y95.98 E14.062
G1 X156.311 Y96.541 E14.08151
G1 X156.426 Y97.116 E14.10101
G1 X156.484 Y97.701 E14.12056
G1 X156.5 Y111.997 E14.59605
G1 X156.485 Y112.295 E14.60598
G1 X156.427 Y112.881 E14.62556
G1 X156.313 Y113.456 E14.64506
G1 X156.143 Y114.017 E14.66455
G1 X155.963 Y114.472 E14.68083
G1 X155.845 Y114.689 E14.68904
G1 X155.392 Y115.445 E14.71836
G1 X155.107 Y115.843 E14.73464
G1 X154.94 Y116.024 E14.74283
G1 X154.525 Y116.439 E14.76235
G1 X154.069 Y116.813 E14.78197
G1 X153.579 Y117.14 E14.80156
G1 X153.059 Y117.418 E14.82117
G1 X152.514 Y117.643 E14.84078
G1 X151.956 Y117.812 E14.86017
G1 X151.38 Y117.927 E14.87971
G1 X150.804 Y117.985 E14.89896
G1 X146.579 Y118 E15.03949
G1 X146.3 Y117.988 E15.04878
G1 X145.641 Y117.929 E15.07078
G1 X145.028 Y117.809 E15.09156
G1 X144.465 Y117.636 E15.11115
G1 X143.929 Y117.412 E15.13047
G1 X143.414 Y117.136 E15.1499
G1 X142.92 Y116.805 E15.16968
G1 X142.465 Y116.429 E15.18931
G1 X142.059 Y116.022 E15.20843
G1 X141.688 Y115.571 E15.22786
G1 X141.359 Y115.08 E15.24752
G1 X141.082 Y114.562 E15.26705
G1 X140.857 Y114.017 E15.28666
G1 X140.687 Y113.456 E15.30616
G1 X140.573 Y112.882 E15.32563
G1 X140.515 Y112.297 E15.34518
G1 X140.5 Y111.998 E15.35513
G1 X140.515 Y97.704 E15.83056
G1 X140.555 Y97.216 E15.84684
G1 X140.606 Y96.974 E15.85507
G1 X140.822 Y96.117 E15.88446
G1 X141.082 Y95.441 E15.90855
G1 X141.357 Y94.924 E15.92803
G1 X141.688 Y94.428 E15.94786
G0 F3600 X141.997 Y94.682
G1 F1800 X142.371 Y94.227 E15.96745
G1 X142.734 Y93.865 E15.9845
G1 X143.195 Y93.488 E16.00431
G1 X143.618 Y93.207 E16.0212
G1 X144.132 Y92.933 E16.04057
G1 X144.602 Y92.738 E16.0575
G1 X145.164 Y92.568 E16.07703
G1 X145.664 Y92.469 E16.09398
G1 X146.247 Y92.412 E16.11346
G1 X146.509 Y92.4 E16.12219
G1 X150.803 Y92.415 E16.265
G1 X151.305 Y92.466 E16.28179
G1 X151.884 Y92.582 E16.30143
G1 X152.363 Y92.727 E16.31807
G1 X152.89 Y92.944 E16.33703
G1 X153.332 Y93.178 E16.35366
G1 X153.832 Y93.508 E16.37359
G1 X154.238 Y93.84 E16.39103
G1 X154.654 Y94.256 E16.4106
G1 X154.979 Y94.651 E16.42761
G1 X155.306 Y95.141 E16.44721
G1 X155.545 Y95.588 E16.46407
G1 X155.771 Y96.133 E16.48369
G1 X155.919 Y96.619 E16.50059
G1 X156.034 Y97.194 E16.52009
G1 X156.084 Y97.701 E16.53703
G1 X156.1 Y111.997 E17.01252
G1 X156.087 Y112.256 E17.02115
G1 X156.029 Y112.842 E17.04073
G1 X155.93 Y113.34 E17.05762
G1 X155.76 Y113.901 E17.07712
G1 X155.502 Y114.483 E17.09829
G1 X155.049 Y115.239 E17.1276
G1 X154.657 Y115.741 E17.14879
G1 X154.242 Y116.156 E17.16831
G1 X153.847 Y116.481 E17.18532
G1 X153.357 Y116.808 E17.20491
G1 X152.906 Y117.048 E17.22191
G1 X152.361 Y117.273 E17.24152
G1 X151.878 Y117.42 E17.25831
G1 X151.302 Y117.535 E17.27785
G1 X150.802 Y117.585 E17.29456
G1 X146.577 Y117.6 E17.43508
G1 X146.336 Y117.59 E17.44311
G1 X145.677 Y117.531 E17.46511
G1 X145.145 Y117.426 E17.48315
G1 X144.582 Y117.253 E17.50274
G1 X144.118 Y117.06 E17.51945
G1 X143.603 Y116.784 E17.53889
G1 X143.175 Y116.496 E17.55604
G1 X142.72 Y116.12 E17.57568
G1 X142.368 Y115.768 E17.59223
G1 X141.997 Y115.317 E17.61166
G1 X141.712 Y114.891 E17.6287
G1 X141.435 Y114.373 E17.64824
G1 X141.24 Y113.901 E17.66523
G1 X141.07 Y113.34 E17.68472
G1 X140.971 Y112.843 E17.70158
G1 X140.913 Y112.258 E17.72113
G1 X140.9 Y111.998 E17.72979
G1 X140.915 Y97.704 E18.20521
G1 X140.994 Y97.072 E18.22639
G1 X141.21 Y96.215 E18.25579
G1 X141.436 Y95.629 E18.27668
G1 X141.711 Y95.112 E18.29616
G1 X141.997 Y94.682 E18.31333
G0 F3600 X142.306 Y94.936
G1 F1800 X142.68 Y94.481 E18.33292
G1 X142.987 Y94.175 E18.34734
G1 X143.448 Y93.798 E18.36715
G1 X143.806 Y93.56 E18.38144
G1 X144.32 Y93.286 E18.40082
G1 X144.718 Y93.121 E18.41515
G1 X145.28 Y92.951 E18.43468
