;FLAVOR:RepRap
;TIME:433
;Filament used: 0.351425m
;Layer height: 0.2
;Generated with Cura_SteamEngine master
M104 S200
M109 S200
; -- START GCODE --
M800        ; Custom GCODE to fire start print procedure
; -- end of START GCODE --
;LAYER_COUNT:30
;LAYER:0
M107
G0 F3600 X139.934 Y93.458 Z0.2
;TYPE:SKIRT
G1 F1800 X140.412 Y92.835 E0.02612
G1 X140.828 Y92.359 E0.04714
G1 X141.336 Y91.911 E0.06967
G1 X141.958 Y91.434 E0.09574
G1 X142.483 Y91.082 E0.11677
G1 X143.091 Y90.781 E0.13933
G1 X143.812 Y90.483 E0.16528
G1 X144.41 Y90.279 E0.18629
G1 X145.061 Y90.148 E0.20838
G1 X145.841 Y90.044 E0.23455
G1 X146.502 Y90 E0.25659
G1 X150.498 Y90 E0.38949
G1 X151.159 Y90.044 E0.41153
G1 X151.939 Y90.148 E0.4377
G1 X152.559 Y90.271 E0.45872
G1 X153.188 Y90.483 E0.4808
G1 X153.909 Y90.781 E0.50675
G1 X154.477 Y91.059 E0.52778
G1 X155.042 Y91.434 E0.55033
G1 X155.664 Y91.911 E0.57641
G1 X156.14 Y92.327 E0.59743
G1 X156.588 Y92.835 E0.61996
G1 X157.066 Y93.458 E0.64608
G1 X157.418 Y93.983 E0.6671
G1 X157.721 Y94.595 E0.68981
G1 X158.018 Y95.315 E0.71572
G1 X158.222 Y95.914 E0.73676
G1 X158.352 Y96.559 E0.75865
G1 X158.456 Y97.336 E0.78472
G1 X158.5 Y97.999 E0.80682
G1 X158.5 Y111.998 E1.27243
G1 X158.456 Y112.659 E1.29446
G1 X158.352 Y113.439 E1.32064
G1 X158.229 Y114.059 E1.34166
G1 X158.018 Y114.685 E1.36363
G1 X157.721 Y115.405 E1.38954
G1 X157.444 Y115.973 E1.41056
G1 X157.066 Y116.542 E1.43328
G1 X156.588 Y117.165 E1.45939
G1 X156.172 Y117.641 E1.48042
G1 X155.664 Y118.089 E1.50295
G1 X155.042 Y118.566 E1.52902
G1 X154.517 Y118.918 E1.55004
G1 X153.909 Y119.219 E1.57261
G1 X153.188 Y119.517 E1.59855
G1 X152.59 Y119.721 E1.61957
G1 X151.939 Y119.852 E1.64165
G1 X151.159 Y119.956 E1.66783
G1 X150.498 Y120 E1.68986
G1 X146.502 Y120 E1.82277
G1 X145.841 Y119.956 E1.8448
G1 X145.061 Y119.852 E1.87097
G1 X144.441 Y119.729 E1.892
G1 X143.812 Y119.517 E1.91407
G1 X143.091 Y119.219 E1.94002
G1 X142.523 Y118.941 E1.96106
G1 X141.958 Y118.566 E1.98361
G1 X141.336 Y118.089 E2.00968
G1 X140.86 Y117.673 E2.03071
G1 X140.412 Y117.165 E2.05324
G1 X139.934 Y116.542 E2.07935
G1 X139.582 Y116.017 E2.10038
G1 X139.279 Y115.405 E2.12309
G1 X138.982 Y114.685 E2.14899
G1 X138.778 Y114.086 E2.17004
G1 X138.648 Y113.441 E2.19192
G1 X138.544 Y112.664 E2.218
G1 X138.5 Y112.001 E2.2401
G1 X138.5 Y98.002 E2.70571
G1 X138.544 Y97.341 E2.72774
G1 X138.648 Y96.561 E2.75391
G1 X138.771 Y95.941 E2.77494
G1 X138.982 Y95.315 E2.79691
G1 X139.279 Y94.595 E2.82281
G1 X139.556 Y94.027 E2.84383
G1 X139.934 Y93.458 E2.86655
G0 F3600 X140.251 Y93.702
G1 F1800 X140.729 Y93.079 E2.89267
G1 X141.129 Y92.623 E2.91284
G1 X141.58 Y92.229 E2.93276
G1 X142.202 Y91.752 E2.95883
G1 X142.706 Y91.415 E2.979
G1 X143.244 Y91.151 E2.99893
G1 X143.965 Y90.853 E3.02488
G1 X144.539 Y90.659 E3.04503
G1 X145.114 Y90.544 E3.06453
G1 X145.894 Y90.44 E3.09071
G1 X146.502 Y90.4 E3.11097
G1 X150.498 Y90.4 E3.24388
G1 X151.106 Y90.44 E3.26415
G1 X151.886 Y90.544 E3.29032
G1 X152.48 Y90.664 E3.31047
G1 X153.035 Y90.853 E3.32997
G1 X153.756 Y91.151 E3.35592
G1 X154.3 Y91.419 E3.37609
G1 X154.798 Y91.752 E3.39602
G1 X155.42 Y92.229 E3.42209
G1 X155.876 Y92.629 E3.44226
G1 X156.271 Y93.079 E3.46218
G1 X156.749 Y93.702 E3.4883
G1 X157.085 Y94.206 E3.50844
G1 X157.351 Y94.748 E3.52852
G1 X157.648 Y95.468 E3.55443
G1 X157.842 Y96.042 E3.57458
G1 X157.955 Y96.612 E3.59391
G1 X158.059 Y97.389 E3.61998
G1 X158.1 Y97.999 E3.64032
G1 X158.1 Y111.998 E4.10592
G1 X158.06 Y112.606 E4.12619
G1 X157.956 Y113.386 E4.15236
G1 X157.836 Y113.98 E4.17252
G1 X157.648 Y114.532 E4.19191
G1 X157.351 Y115.252 E4.21782
G1 X157.084 Y115.796 E4.23797
G1 X156.749 Y116.298 E4.25805
G1 X156.271 Y116.921 E4.28416
G1 X155.871 Y117.377 E4.30434
G1 X155.42 Y117.771 E4.32426
G1 X154.798 Y118.248 E4.35033
G1 X154.294 Y118.585 E4.37049
G1 X153.756 Y118.849 E4.39043
G1 X153.035 Y119.147 E4.41637
G1 X152.461 Y119.341 E4.43653
G1 X151.886 Y119.456 E4.45603
G1 X151.106 Y119.56 E4.4822
G1 X150.498 Y119.6 E4.50247
G1 X146.502 Y119.6 E4.63537
G1 X145.894 Y119.56 E4.65564
G1 X145.114 Y119.456 E4.68181
G1 X144.52 Y119.336 E4.70197
G1 X143.965 Y119.147 E4.72147
G1 X143.244 Y118.849 E4.74742
G1 X142.7 Y118.581 E4.76759
G1 X142.202 Y118.248 E4.78751
G1 X141.58 Y117.771 E4.81358
G1 X141.124 Y117.371 E4.83376
G1 X140.729 Y116.921 E4.85367
G1 X140.251 Y116.298 E4.87979
G1 X139.915 Y115.794 E4.89994
G1 X139.649 Y115.252 E4.92002
G1 X139.352 Y114.532 E4.94592
G1 X139.158 Y113.958 E4.96608
G1 X139.045 Y113.388 E4.9854
G1 X138.941 Y112.611 E5.01148
G1 X138.9 Y112.001 E5.03181
G1 X138.9 Y98.002 E5.49742
G1 X138.94 Y97.394 E5.51769
G1 X139.044 Y96.614 E5.54386
G1 X139.164 Y96.02 E5.56401
G1 X139.352 Y95.468 E5.58341
G1 X139.649 Y94.748 E5.60931
G1 X139.916 Y94.204 E5.62947
G1 X140.251 Y93.702 E5.64954
G0 F3600 X140.569 Y93.945
G1 F1800 X141.047 Y93.322 E5.67566
G1 X141.43 Y92.888 E5.69491
G1 X141.823 Y92.546 E5.71224
G1 X142.445 Y92.069 E5.73831
G1 X142.928 Y91.749 E5.75758
G1 X143.397 Y91.52 E5.77494
G1 X144.118 Y91.222 E5.80089
G1 X144.667 Y91.039 E5.82013
G1 X145.167 Y90.941 E5.83708
G1 X145.947 Y90.837 E5.86325
G1 X146.502 Y90.8 E5.88175
G1 X150.498 Y90.8 E6.01466
G1 X151.053 Y90.837 E6.03316
G1 X151.833 Y90.941 E6.05933
G1 X152.401 Y91.057 E6.07862
G1 X152.882 Y91.222 E6.09553
G1 X153.603 Y91.52 E6.12148
G1 X154.122 Y91.778 E6.14075
G1 X154.555 Y92.069 E6.15811
G1 X155.177 Y92.546 E6.18418
G1 X155.611 Y92.93 E6.20345
G1 X155.953 Y93.322 E6.22075
G1 X156.431 Y93.945 E6.24687
G1 X156.751 Y94.428 E6.26614
G1 X156.982 Y94.9 E6.28362
G1 X157.279 Y95.62 E6.30952
G1 X157.462 Y96.17 E6.3288
G1 X157.559 Y96.665 E6.34558
G1 X157.663 Y97.442 E6.37165
G1 X157.7 Y97.999 E6.39022
G1 X157.7 Y111.998 E6.85583
G1 X157.663 Y112.553 E6.87433
G1 X157.559 Y113.333 E6.9005
G1 X157.443 Y113.901 E6.91978
G1 X157.279 Y114.38 E6.93662
G1 X156.982 Y115.1 E6.96253
G1 X156.724 Y115.619 E6.98181
G1 X156.431 Y116.055 E6.99928
G1 X155.953 Y116.678 E7.02539
G1 X155.57 Y117.112 E7.04465
G1 X155.177 Y117.454 E7.06197
G1 X154.555 Y117.931 E7.08805
G1 X154.072 Y118.251 E7.10732
G1 X153.603 Y118.48 E7.12467
G1 X152.882 Y118.778 E7.15062
G1 X152.333 Y118.961 E7.16987
G1 X151.833 Y119.059 E7.18682
G1 X151.053 Y119.163 E7.21299
G1 X150.498 Y119.2 E7.23149
G1 X146.502 Y119.2 E7.3644
G1 X145.947 Y119.163 E7.3829
G1 X145.167 Y119.059 E7.40907
G1 X144.599 Y118.943 E7.42835
G1 X144.118 Y118.778 E7.44527
G1 X143.397 Y118.48 E7.47121
G1 X142.878 Y118.222 E7.49049
G1 X142.445 Y117.931 E7.50784
G1 X141.823 Y117.454 E7.53391
G1 X141.389 Y117.07 E7.55319
G1 X141.047 Y116.678 E7.57049
G1 X140.569 Y116.055 E7.59661
G1 X140.249 Y115.572 E7.61588
G1 X140.018 Y115.1 E7.63336
G1 X139.721 Y114.38 E7.65926
G1 X139.538 Y113.83 E7.67854
G1 X139.441 Y113.335 E7.69532
G1 X139.337 Y112.558 E7.72139
G1 X139.3 Y112.001 E7.73996
G1 X139.3 Y98.002 E8.20557
G1 X139.337 Y97.447 E8.22407
G1 X139.441 Y96.667 E8.25024
G1 X139.557 Y96.099 E8.26952
G1 X139.721 Y95.62 E8.28636
G1 X140.018 Y94.9 E8.31226
G1 X140.276 Y94.381 E8.33154
G1 X140.569 Y93.945 E8.34901
G0 F3600 X140.886 Y94.189
G1 F1800 X141.364 Y93.566 E8.37513
G1 X141.73 Y93.154 E8.39346
G1 X142.067 Y92.864 E8.40825
G1 X142.689 Y92.387 E8.43432
G1 X143.149 Y92.084 E8.45264
G1 X143.549 Y91.89 E8.46742
G1 X144.27 Y91.592 E8.49337
G1 X144.794 Y91.419 E8.51173
G1 X145.22 Y91.337 E8.52616
G1 X146 Y91.233 E8.55233
G1 X146.502 Y91.2 E8.56906
G1 X150.498 Y91.2 E8.70197
G1 X151 Y91.233 E8.7187
G1 X151.78 Y91.337 E8.74487
G1 X152.32 Y91.45 E8.76322
G1 X152.73 Y91.592 E8.77765
G1 X153.451 Y91.89 E8.8036
G1 X153.943 Y92.137 E8.82191
G1 X154.311 Y92.387 E8.83671
G1 X154.933 Y92.864 E8.86278
G1 X155.345 Y93.23 E8.88111
G1 X155.636 Y93.566 E8.89589
G1 X156.114 Y94.189 E8.92201
G1 X156.417 Y94.649 E8.94033
G1 X156.612 Y95.053 E8.95525
G1 X156.909 Y95.773 E8.98116
G1 X157.081 Y96.296 E8.99947
G1 X157.162 Y96.718 E9.01376
G1 X157.266 Y97.495 E9.03983
G1 X157.3 Y97.999 E9.05663
G1 X157.3 Y111.998 E9.52224
G1 X157.267 Y112.5 E9.53898
G1 X157.163 Y113.28 E9.56515
G1 X157.05 Y113.82 E9.5835
G1 X156.909 Y114.227 E9.59782
G1 X156.612 Y114.947 E9.62373
G1 X156.365 Y115.44 E9.64207
G1 X156.114 Y115.811 E9.65697
G1 X155.636 Y116.434 E9.68308
G1 X155.27 Y116.846 E9.70141
G1 X154.933 Y117.136 E9.7162
G1 X154.311 Y117.613 E9.74227
G1 X153.851 Y117.916 E9.76059
G1 X153.451 Y118.11 E9.77538
G1 X152.73 Y118.408 E9.80133
G1 X152.206 Y118.581 E9.81968
G1 X151.78 Y118.663 E9.83411
G1 X151 Y118.767 E9.86028
G1 X150.498 Y118.8 E9.87701
G1 X146.502 Y118.8 E10.00992
G1 X146 Y118.767 E10.02666
G1 X145.22 Y118.663 E10.05283
G1 X144.68 Y118.55 E10.07118
G1 X144.27 Y118.408 E10.08561
G1 X143.549 Y118.11 E10.11156
G1 X143.057 Y117.863 E10.12987
G1 X142.689 Y117.613 E10.14466
G1 X142.067 Y117.136 E10.17073
G1 X141.655 Y116.77 E10.18906
G1 X141.364 Y116.434 E10.20385
G1 X140.886 Y115.811 E10.22997
G1 X140.583 Y115.351 E10.24829
G1 X140.388 Y114.947 E10.26321
G1 X140.091 Y114.227 E10.28911
G1 X139.919 Y113.704 E10.30742
G1 X139.838 Y113.282 E10.32171
G1 X139.734 Y112.505 E10.34779
G1 X139.7 Y112.001 E10.36459
G1 X139.7 Y98.002 E10.8302
G1 X139.733 Y97.5 E10.84693
G1 X139.837 Y96.72 E10.8731
G1 X139.95 Y96.18 E10.89145
G1 X140.091 Y95.773 E10.90578
G1 X140.388 Y95.053 E10.93168
G1 X140.635 Y94.56 E10.95002
G1 X140.886 Y94.189 E10.96492
G0 F3600 X141.204 Y94.432
G1 F1800 X141.682 Y93.809 E10.99104
G1 X142.029 Y93.421 E11.00835
G1 X142.31 Y93.181 E11.02064
G1 X142.932 Y92.704 E11.04671
G1 X143.369 Y92.42 E11.06405
G1 X143.702 Y92.26 E11.07634
G1 X144.423 Y91.962 E11.10228
G1 X144.919 Y91.8 E11.11964
G1 X145.273 Y91.734 E11.13162
G1 X146.053 Y91.63 E11.15779
G1 X146.502 Y91.6 E11.17276
G1 X150.498 Y91.6 E11.30566
G1 X150.947 Y91.63 E11.32063
G1 X151.727 Y91.734 E11.3468
G1 X152.237 Y91.842 E11.36414
G1 X152.577 Y91.962 E11.37613
G1 X153.298 Y92.26 E11.40208
G1 X153.763 Y92.495 E11.41941
G1 X154.068 Y92.704 E11.43171
G1 X154.69 Y93.181 E11.45778
G1 X155.078 Y93.529 E11.47511
G1 X155.318 Y93.809 E11.48738
G1 X155.796 Y94.432 E11.5135
G1 X156.081 Y94.869 E11.53085
G1 X156.242 Y95.205 E11.54324
G1 X156.539 Y95.925 E11.56915
G1 X156.7 Y96.421 E11.58649
G1 X156.766 Y96.771 E11.59834
G1 X156.87 Y97.548 E11.62441
G1 X156.9 Y97.999 E11.63944
G1 X156.9 Y111.998 E12.10505
G1 X156.87 Y112.447 E12.12002
G1 X156.766 Y113.227 E12.14619
G1 X156.658 Y113.737 E12.16353
G1 X156.539 Y114.075 E12.17545
G1 X156.242 Y114.795 E12.20135
G1 X156.007 Y115.26 E12.21868
G1 X155.796 Y115.568 E12.2311
G1 X155.318 Y116.191 E12.25722
G1 X154.971 Y116.579 E12.27453
G1 X154.69 Y116.819 E12.28682
G1 X154.068 Y117.296 E12.31289
G1 X153.631 Y117.58 E12.33023
G1 X153.298 Y117.74 E12.34252
G1 X152.577 Y118.038 E12.36846
G1 X152.081 Y118.2 E12.38582
G1 X151.727 Y118.266 E12.39779
G1 X150.947 Y118.37 E12.42397
G1 X150.498 Y118.4 E12.43893
G1 X146.502 Y118.4 E12.57184
G1 X146.053 Y118.37 E12.58681
G1 X145.273 Y118.266 E12.61298
G1 X144.763 Y118.158 E12.63032
G1 X144.423 Y118.038 E12.64231
G1 X143.702 Y117.74 E12.66826
G1 X143.237 Y117.505 E12.68559
G1 X142.932 Y117.296 E12.69789
G1 X142.31 Y116.819 E12.72396
G1 X141.922 Y116.471 E12.74129
G1 X141.682 Y116.191 E12.75356
G1 X141.204 Y115.568 E12.77968
G1 X140.919 Y115.131 E12.79703
G1 X140.758 Y114.795 E12.80942
G1 X140.461 Y114.075 E12.83533
G1 X140.3 Y113.579 E12.85267
G1 X140.234 Y113.229 E12.86452
G1 X140.13 Y112.452 E12.89059
G1 X140.1 Y112.001 E12.90562
G1 X140.1 Y98.002 E13.37123
G1 X140.13 Y97.553 E13.3862
G1 X140.234 Y96.773 E13.41237
G1 X140.342 Y96.263 E13.42971
G1 X140.461 Y95.925 E13.44163
G1 X140.758 Y95.205 E13.46753
G1 X140.993 Y94.74 E13.48486
G1 X141.204 Y94.432 E13.49728
G0 F3600 X141.521 Y94.676
G1 F1800 X141.999 Y94.053 E13.5234
G1 X142.328 Y93.69 E13.53969
G1 X142.553 Y93.498 E13.54953
G1 X143.175 Y93.021 E13.5756
G1 X143.587 Y92.756 E13.59189
G1 X143.855 Y92.629 E13.60176
G1 X144.576 Y92.331 E13.6277
G1 X145.042 Y92.182 E13.64398
G1 X145.326 Y92.13 E13.65358
G1 X146.106 Y92.026 E13.67975
G1 X146.502 Y92 E13.69295
G1 X150.498 Y92 E13.82586
G1 X150.894 Y92.026 E13.83906
G1 X151.674 Y92.13 E13.86523
G1 X152.153 Y92.234 E13.88153
G1 X152.424 Y92.331 E13.89111
G1 X153.145 Y92.629 E13.91706
G1 X153.581 Y92.853 E13.93336
G1 X153.825 Y93.021 E13.94321
G1 X154.447 Y93.498 E13.96928
G1 X154.809 Y93.827 E13.98555
G1 X155.001 Y94.053 E13.99542
G1 X155.479 Y94.676 E14.02153
G1 X155.744 Y95.087 E14.0378
G1 X155.872 Y95.358 E14.04777
G1 X156.169 Y96.078 E14.07367
G1 X156.318 Y96.544 E14.08994
G1 X156.369 Y96.824 E14.09941
G1 X156.473 Y97.601 E14.12548
G1 X156.5 Y97.999 E14.13875
G1 X156.5 Y111.998 E14.60436
G1 X156.474 Y112.394 E14.61756
G1 X156.37 Y113.174 E14.64373
G1 X156.266 Y113.653 E14.66003
G1 X156.169 Y113.922 E14.66955
G1 X155.872 Y114.642 E14.69545
G1 X155.649 Y115.078 E14.71174
G1 X155.479 Y115.324 E14.72168
G1 X155.001 Y115.947 E14.7478
G1 X154.672 Y116.31 E14.7641
G1 X154.447 Y116.502 E14.77393
G1 X153.825 Y116.979 E14.8
G1 X153.413 Y117.244 E14.8163
G1 X153.145 Y117.371 E14.82616
G1 X152.424 Y117.669 E14.85211
G1 X151.958 Y117.818 E14.86838
G1 X151.674 Y117.87 E14.87798
G1 X150.894 Y117.974 E14.90416
G1 X150.498 Y118 E14.91736
G1 X146.502 Y118 E15.05026
G1 X146.106 Y117.974 E15.06346
G1 X145.326 Y117.87 E15.08964
G1 X144.847 Y117.766 E15.10594
G1 X144.576 Y117.669 E15.11551
G1 X143.855 Y117.371 E15.14146
G1 X143.419 Y117.147 E15.15776
G1 X143.175 Y116.979 E15.16762
G1 X142.553 Y116.502 E15.19369
G1 X142.191 Y116.173 E15.20996
G1 X141.999 Y115.947 E15.21982
G1 X141.521 Y115.324 E15.24594
G1 X141.256 Y114.913 E15.2622
G1 X141.128 Y114.642 E15.27217
G1 X140.831 Y113.922 E15.29808
G1 X140.682 Y113.456 E15.31435
G1 X140.631 Y113.176 E15.32381
G1 X140.527 Y112.399 E15.34989
G1 X140.5 Y112.001 E15.36316
G1 X140.5 Y98.002 E15.82876
G1 X140.526 Y97.606 E15.84196
G1 X140.63 Y96.826 E15.86814
G1 X140.734 Y96.347 E15.88444
G1 X140.831 Y96.078 E15.89395
G1 X141.128 Y95.358 E15.91985
G1 X141.351 Y94.922 E15.93614
G1 X141.521 Y94.676 E15.94609
G0 F3600 X141.838 Y94.919
G1 F1800 X142.316 Y94.296 E15.97221
G1 X142.797 Y93.816 E15.99481
G1 X143.419 Y93.339 E16.02088
G1 X144.008 Y92.999 E16.0435
G1 X144.729 Y92.701 E16.06945
G1 X145.378 Y92.527 E16.09179
G1 X146.158 Y92.423 E16.11797
G1 X146.502 Y92.4 E16.12943
G1 X150.498 Y92.4 E16.26234
G1 X150.842 Y92.423 E16.27381
G1 X151.622 Y92.527 E16.29998
G1 X152.271 Y92.701 E16.32233
G1 X152.992 Y92.999 E16.34828
G1 X153.581 Y93.339 E16.3709
G1 X154.203 Y93.816 E16.39697
G1 X154.684 Y94.296 E16.41957
G1 X155.162 Y94.919 E16.44569
G1 X155.406 Y95.304 E16.46085
G1 X155.503 Y95.511 E16.46845
G1 X155.8 Y96.231 E16.49435
G1 X155.973 Y96.877 E16.5166
G1 X156.077 Y97.654 E16.54267
G1 X156.1 Y97.999 E16.55417
G1 X156.1 Y111.998 E17.01978
G1 X156.077 Y112.342 E17.03125
G1 X155.973 Y113.122 E17.05742
G1 X155.8 Y113.769 E17.07969
G1 X155.503 Y114.489 E17.1056
G1 X155.293 Y114.894 E17.12077
G1 X155.162 Y115.081 E17.12837
G1 X154.684 Y115.704 E17.15448
G1 X154.203 Y116.184 E17.17709
G1 X153.581 Y116.661 E17.20316
G1 X152.992 Y117.001 E17.22578
G1 X152.271 Y117.299 E17.25172
G1 X151.622 Y117.473 E17.27407
G1 X150.842 Y117.577 E17.30024
G1 X150.498 Y117.6 E17.31171
G1 X146.502 Y117.6 E17.44462
G1 X146.158 Y117.577 E17.45609
G1 X145.378 Y117.473 E17.48226
G1 X144.729 Y117.299 E17.50461
G1 X144.008 Y117.001 E17.53056
G1 X143.419 Y116.661 E17.55318
G1 X142.797 Y116.184 E17.57925
G1 X142.316 Y115.704 E17.60185
G1 X141.838 Y115.081 E17.62796
G1 X141.594 Y114.696 E17.64312
G1 X141.497 Y114.489 E17.65073
G1 X141.2 Y113.769 E17.67663
G1 X141.027 Y113.123 E17.69888
G1 X140.923 Y112.346 E17.72495
G1 X140.9 Y112.001 E17.73645
G1 X140.9 Y98.002 E18.20206
G1 X140.923 Y97.658 E18.21353
G1 X141.027 Y96.878 E18.2397
G1 X141.2 Y96.231 E18.26197
G1 X141.497 Y95.511 E18.28788
G1 X141.707 Y95.106 E18.30305
G1 X141.838 Y94.919 E18.31065
G0 F3600 X142.156 Y95.163
G1 F1800 X142.634 Y94.54 E18.33676
G1 X143.04 Y94.133 E18.35588
G1 X143.662 Y93.656 E18.38195
G1 X144.161 Y93.369 E18.4011
G1 X144.882 Y93.071 E18.42705
G1 X145.431 Y92.923 E18.44596
G1 X146.211 Y92.819 E18.47213
G1 X146.502 Y92.8 E18.48183
G1 X150.498 Y92.8 E18.61474
G1 X150.789 Y92.819 E18.62444
