;FLAVOR:RepRap
;TIME:1240
;Generated with Cura_SteamEngine 2.3.1
M104 S200
M109 S200
; -- START GCODE --
G21                     ;set units to millimetres
G90                     ;set to absolute positioning
M106 S0                 ;set fan speed to zero (turned off)
G28 X0 Y0               ;move to the X/Y origin (Home)
G28 Z0                  ;move to the Z origin (Home)
G1 Z15.0 F1200          ;move Z to position 15.0 mm
G92 E0                  ;zero the extruded length
G1 E20 F200             ;extrude 20mm of feed stock
G92 E0                  ;zero the extruded length again
G1 F7200                ;set feedrate to 120 mm/s
; -- end of START GCODE --
;LAYER_COUNT:36
;LAYER:0
M107
G1 F1500 E-6.5
G0 F2400 X126.048 Y94.763 Z.2
;TYPE:SKIRT
G1 F1500 E0
G1 F1200 X126.406 Y94.304 E0.01936
G1 X126.767 Y93.907 E0.03721
G1 X127.182 Y93.568 E0.05503
G1 X127.768 Y93.235 E0.07745
G1 X130.438 Y92.034 E0.17482
G1 X135.389 Y89.632 E0.35785
G1 X140.143 Y86.982 E0.53888
G1 X144.977 Y83.919 E0.72921
G1 X145.308 Y83.733 E0.74184
G1 X147.305 Y82.745 E0.81595
G1 X147.802 Y82.544 E0.83378
G1 X148.323 Y82.419 E0.8516
G1 X148.908 Y82.372 E0.87112
G1 X154.589 Y82.383 E1.06007
G1 X155.149 Y82.428 E1.07876
G1 X155.926 Y82.552 E1.10493
G1 X156.448 Y82.676 E1.12277
G1 X157.144 Y82.981 E1.14804
G1 X163.256 Y86.471 E1.38214
G1 X163.537 Y86.649 E1.3932
G1 X164.998 Y87.673 E1.45254
G1 X165.335 Y87.94 E1.46684
G1 X167.63 Y89.997 E1.56935
G1 X167.992 Y90.373 E1.58671
G1 X168.89 Y91.45 E1.63335
G1 X169.126 Y91.767 E1.64649
G1 X170.401 Y93.692 E1.72329
G1 X170.602 Y94.036 E1.73654
G1 X171.421 Y95.631 E1.79617
G1 X171.538 Y95.881 E1.80535
G1 X171.971 Y96.912 E1.84255
G1 X172.153 Y97.468 E1.862
G1 X172.568 Y99.202 E1.92131
G1 X172.654 Y99.731 E1.93913
G1 X172.667 Y100.05 E1.94975
G1 X172.649 Y106.668 E2.16987
G1 X172.608 Y107.202 E2.18768
G1 X172.487 Y107.725 E2.20553
G1 X172.319 Y108.163 E2.22114
G1 X170.963 Y111.11 E2.32903
G1 X170.734 Y111.531 E2.34497
G1 X168.928 Y114.383 E2.45725
G1 X168.522 Y114.91 E2.47938
G1 X166.471 Y117.113 E2.57949
G1 X165.982 Y117.551 E2.60132
G1 X164.671 Y118.524 E2.65562
G1 X164.236 Y118.801 E2.67278
G1 X159.136 Y121.555 E2.86555
G1 X158.921 Y121.661 E2.87353
G1 X157.619 Y122.256 E2.92114
G1 X157.102 Y122.446 E2.93946
G1 X155.92 Y122.78 E2.98031
G1 X155.584 Y122.858 E2.99178
G1 X153.689 Y123.202 E3.05584
G1 X153.429 Y123.24 E3.06458
G1 X152.214 Y123.37 E3.10522
G1 X151.85 Y123.39 E3.11735
G1 X145.522 Y123.424 E3.32782
G1 X144.821 Y123.359 E3.35124
G1 X142.407 Y122.893 E3.43301
G1 X142.11 Y122.822 E3.44317
G1 X138.226 Y121.724 E3.57741
G1 X137.601 Y121.483 E3.59969
G1 X135.811 Y120.592 E3.66619
G1 X135.517 Y120.428 E3.67739
G1 X133.052 Y118.899 E3.77387
G1 X132.587 Y118.556 E3.79309
G1 X130.83 Y117.027 E3.87055
G1 X130.656 Y116.865 E3.87846
G1 X129.249 Y115.467 E3.94443
G1 X129.02 Y115.217 E3.95571
G1 X127.946 Y113.928 E4.01151
G1 X127.769 Y113.698 E4.02116
G1 X126.563 Y111.987 E4.09079
G1 X126.357 Y111.657 E4.10373
G1 X126.058 Y111.117 E4.12426
G1 X125.866 Y110.713 E4.13913
G1 X124.719 Y107.852 E4.24165
G1 X124.557 Y107.34 E4.25952
G1 X124.466 Y106.712 E4.28062
G1 X124.31 Y103.903 E4.37419
G1 X124.304 Y103.667 E4.38204
G1 X124.34 Y100.062 E4.50195
G1 X124.385 Y99.528 E4.51978
G1 X124.446 Y99.229 E4.52993
G1 X125.077 Y96.691 E4.61691
G1 X125.245 Y96.182 E4.63474
G1 X125.406 Y95.845 E4.64716
G1 X125.722 Y95.262 E4.66922
G1 X126.048 Y94.763 E4.68904
G0 F2400 X126.364 Y95.009
G1 F1200 X126.722 Y94.55 E4.7084
G1 X127.063 Y94.177 E4.72521
G1 X127.459 Y93.863 E4.74202
G1 X127.933 Y93.6 E4.76005
G1 X130.585 Y92.407 E4.85677
G1 X135.572 Y89.988 E5.04112
G1 X140.351 Y87.323 E5.22312
G1 X145.191 Y84.257 E5.41368
G1 X145.485 Y84.092 E5.42489
G1 X147.482 Y83.104 E5.49899
G1 X147.951 Y82.916 E5.5158
G1 X148.445 Y82.805 E5.53264
G1 X148.907 Y82.772 E5.54804
G1 X154.588 Y82.783 E5.737
G1 X155.086 Y82.823 E5.75361
G1 X155.863 Y82.947 E5.77978
G1 X156.355 Y83.066 E5.79662
G1 X156.946 Y83.328 E5.81812
G1 X163.058 Y86.818 E6.05221
G1 X163.308 Y86.977 E6.06207
G1 X164.769 Y88.001 E6.12141
G1 X165.068 Y88.238 E6.1341
G1 X167.363 Y90.295 E6.2366
G1 X167.685 Y90.629 E6.25203
G1 X168.583 Y91.706 E6.29867
G1 X168.793 Y91.988 E6.31037
G1 X170.068 Y93.913 E6.38716
G1 X170.247 Y94.218 E6.39893
G1 X171.066 Y95.813 E6.45856
G1 X171.169 Y96.036 E6.46673
G1 X171.602 Y97.067 E6.50392
G1 X171.764 Y97.561 E6.52121
G1 X172.179 Y99.295 E6.58052
G1 X172.258 Y99.795 E6.59735
G1 X172.267 Y100.049 E6.60581
G1 X172.249 Y106.667 E6.82592
G1 X172.208 Y107.171 E6.84274
G1 X172.088 Y107.662 E6.85955
G1 X171.956 Y107.996 E6.8715
G1 X170.6 Y110.943 E6.97939
G1 X170.397 Y111.317 E6.99355
G1 X168.591 Y114.169 E7.10582
G1 X168.229 Y114.638 E7.12553
G1 X166.178 Y116.841 E7.22564
G1 X165.743 Y117.23 E7.24505
G1 X164.432 Y118.203 E7.29935
G1 X164.045 Y118.449 E7.3146
G1 X158.945 Y121.203 E7.50738
G1 X158.755 Y121.297 E7.51443
G1 X157.453 Y121.892 E7.56204
G1 X156.993 Y122.061 E7.57834
G1 X155.811 Y122.395 E7.6192
G1 X155.513 Y122.465 E7.62938
G1 X153.618 Y122.809 E7.69344
G1 X153.386 Y122.842 E7.70123
G1 X152.171 Y122.972 E7.74187
G1 X151.848 Y122.99 E7.75263
G1 X145.52 Y123.024 E7.9631
G1 X144.896 Y122.966 E7.98395
G1 X142.482 Y122.5 E8.06572
G1 X142.218 Y122.437 E8.07475
G1 X138.334 Y121.339 E8.20899
G1 X137.779 Y121.125 E8.22878
G1 X135.989 Y120.234 E8.29528
G1 X135.728 Y120.088 E8.30523
G1 X133.263 Y118.559 E8.4017
G1 X132.849 Y118.254 E8.41881
G1 X131.092 Y116.725 E8.49628
G1 X130.938 Y116.581 E8.50329
G1 X129.531 Y115.183 E8.56926
G1 X129.328 Y114.961 E8.57926
G1 X128.254 Y113.672 E8.63507
G1 X128.096 Y113.468 E8.64365
G1 X126.89 Y111.757 E8.71327
G1 X126.706 Y111.463 E8.72481
G1 X126.407 Y110.923 E8.74534
G1 X126.237 Y110.564 E8.75855
G1 X125.09 Y107.703 E8.86107
G1 X124.939 Y107.22 E8.8779
G1 X124.865 Y106.689 E8.89573
G1 X124.709 Y103.88 E8.9893
G1 X124.704 Y103.671 E8.99626
G1 X124.74 Y100.066 E9.11617
G1 X124.835 Y99.326 E9.14098
G1 X125.466 Y96.788 E9.22796
G1 X125.626 Y96.308 E9.24479
G1 X125.758 Y96.035 E9.25488
G1 X126.074 Y95.452 E9.27693
G1 X126.364 Y95.009 E9.29455
G1 F1500 E2.79455
G0 F2400 X130.854 Y95.453
G0 X132.055 Y95.715
G0 X133.263 Y96.223
G0 X133.285 Y97.526
G0 X131.461 Y97.925
G0 X130.388 Y97.922
G0 X130.37 Y97.951
;TYPE:WALL-INNER
G1 F1500 E9.29455
G1 F1200 X130.312 Y97.956 E9.29648
G1 X130.365 Y97.878 E9.29753
G1 X130.578 Y97.878 E9.30187
G1 X130.66 Y97.878 E9.3046
G1 X131.084 Y97.867 E9.31871
G1 X131.126 Y97.865 E9.32011
G1 X131.225 Y97.842 E9.32349
G1 X131.293 Y97.866 E9.32588
G1 X131.428 Y97.882 E9.33041
G1 X131.461 Y97.886 E9.33151
G1 X131.679 Y97.87 E9.33878
G1 X131.716 Y97.86 E9.34006
G1 X131.946 Y97.793 E9.34802
G1 X132.17 Y97.678 E9.3564
G1 X132.32 Y97.567 E9.36261
G1 X132.39 Y97.497 E9.3659
G1 X133.285 Y97.487 E9.39567
G1 X135.089 Y97.451 E9.45568
G1 X136.688 Y97.265 E9.50922
G1 X138.429 Y96.871 E9.56859
G1 X140.076 Y96.292 E9.62666
G1 X141.723 Y95.473 E9.68784
G1 X143.226 Y94.461 E9.7481
G1 X144.573 Y93.266 E9.80799
G1 X145.751 Y91.898 E9.86804
G1 X146.342 Y91.057 E9.90223
G1 X146.866 Y90.198 E9.93569
G1 X146.971 Y89.98 E9.94374
G1 X147.047 Y89.823 E9.94954
G1 X147.099 Y89.717 E9.95347
G0 X147.187 Y89.89
G1 X147.308 Y90.016 E9.95782
G1 X147.403 Y90.114 E9.96236
G1 X147.629 Y90.251 E9.97115
G1 X147.946 Y90.303 E9.98183
G1 X148.079 Y90.254 E9.98654
G1 X148.195 Y90.281 E9.99051
G1 X148.395 Y90.303 E9.9972
G1 X148.64 Y90.26 E10.00547
G1 X148.892 Y90.108 E10.01526
G1 X149.046 Y89.863 E10.02488
G1 X149.121 Y89.537 E10.03601
G1 X149.407 Y89.262 E10.04921
G1 X149.184 Y88.667 E10.07034
G1 X149.084 Y88.398 E10.07989
G1 X149.37 Y88.398 E10.08549
G1 X149.372 Y88.398 E10.08556
G1 X150.054 Y88.398 E10.10824
G1 X150.575 Y87.828 E10.13393
G1 X150.702 Y87.652 E10.14114
G1 X150.849 Y87.328 E10.15298
G1 X151.5 Y87.313 E10.17464
G1 X153.044 Y87.353 E10.22601
G1 X153.992 Y87.483 E10.25783
G1 X154.47 Y87.64 E10.27457
G1 X158.898 Y90.03 E10.44193
G1 X159.7 Y90.475 E10.47243
G1 X160.728 Y91.026 E10.51122
G1 X161.292 Y91.419 E10.53409
G1 X162.442 Y92.252 E10.58132
G1 X163.184 Y92.875 E10.61354
G1 X164.144 Y93.84 E10.65881
G1 X164.582 Y94.367 E10.68161
G1 X164.852 Y94.768 E10.69769
G1 X165.268 Y95.354 E10.72159
G1 X165.724 Y95.92 E10.74576
G1 X165.801 Y95.995 E10.74934
G1 X165.943 Y96.233 E10.75856
G1 X166.434 Y97.137 E10.79277
G1 X166.688 Y97.741 E10.81456
G1 X166.732 Y97.847 E10.81838
G1 X166.824 Y98.066 E10.82628
G1 X166.505 Y97.942 E10.82924
G1 X166.389 Y97.942 E10.83249
G1 X165.933 Y97.94 E10.84766
G1 X165.545 Y97.964 E10.86059
G1 X165.232 Y98.026 E10.8712
G1 X164.95 Y98.132 E10.88122
G1 X164.645 Y98.302 E10.89283
G1 X164.404 Y98.504 E10.90329
G1 X164.36 Y98.563 E10.90574
G1 X164.311 Y98.626 E10.9084
G0 X164.282 Y98.573
G0 X164.216 Y98.454
G1 X163.997 Y98.234 E10.91872
G1 X163.85 Y98.191 E10.92381
G1 X163.608 Y98.057 E10.93301
G1 X163.356 Y97.971 E10.94187
G1 X162.988 Y97.898 E10.95435
G1 X162.578 Y97.898 E10.96799
G1 X162.186 Y98.016 E10.9816
G1 X161.838 Y98.207 E10.9948
G1 X161.536 Y98.453 E11.00776
G1 X161.333 Y98.677 E11.01781
G1 X161.171 Y98.925 E11.02767
G1 X161.076 Y99.155 E11.03594
G1 X161.023 Y99.322 E11.04177
G1 X160.956 Y99.493 E11.04788
G1 X160.859 Y100.448 E11.07981
G1 X160.843 Y101.231 E11.10585
G1 X160.843 Y101.233 E11.10592
G1 X160.841 Y101.326 E11.10902
G1 X160.838 Y101.427 E11.11238
G1 X160.813 Y101.444 E11.11338
G0 X160.642 Y101.322
G1 X160.447 Y101.225 E11.11947
G1 X160.446 Y101.225 E11.1195
G1 X160.234 Y101.151 E11.12697
G1 X160.164 Y101.109 E11.12969
G1 X160.153 Y101.073 E11.13094
G1 X160.033 Y100.909 E11.1377
G1 X160 Y100.879 E11.13918
G1 X159.963 Y100.826 E11.14133
G1 X159.895 Y100.694 E11.14627
G1 X159.827 Y100.471 E11.15402
G1 X159.802 Y99.079 E11.20033
G1 X159.743 Y98.572 E11.21731
G1 X159.668 Y98.372 E11.22441
G1 X159.563 Y98.199 E11.23114
G1 X159.415 Y98.059 E11.23792
G1 X159.247 Y97.961 E11.24439
G1 X159.023 Y97.894 E11.25216
G1 X158.613 Y97.889 E11.2658
G1 X158.344 Y97.922 E11.27481
G1 X158.147 Y97.995 E11.2818
G1 X157.982 Y98.109 E11.28847
G1 X157.842 Y98.266 E11.29547
G1 X157.753 Y98.406 E11.30099
G1 X157.671 Y98.617 E11.30852
G1 X157.665 Y98.785 E11.31411
G1 X157.653 Y99.052 E11.323
G1 X157.646 Y99.216 E11.32846
G0 X157.603 Y99.05
G0 X157.483 Y98.778
G0 X157.471 Y98.761
G1 X157.248 Y98.448 E11.34124
G1 X156.829 Y97.927 E11.36348
G1 X156.191 Y97.927 E11.3847
G1 X155.913 Y97.941 E11.39395
G1 X155.631 Y97.997 E11.40352
G1 X155.332 Y98.126 E11.41435
G1 X154.998 Y98.381 E11.42832
G1 X154.764 Y98.653 E11.44026
G1 X154.584 Y98.989 E11.45294
G1 X154.512 Y99.231 E11.46133
G1 X154.437 Y99.488 E11.47024
G1 X154.347 Y100.69 E11.51033
G1 X154.363 Y101.3 E11.53062
G1 X154.379 Y101.435 E11.53515
G1 X154.4 Y101.595 E11.54051
G1 X154.432 Y101.848 E11.54899
G1 X154.541 Y102.261 E11.5632
G1 X154.632 Y102.471 E11.57081
G1 X154.667 Y102.551 E11.57372
G1 X154.832 Y102.804 E11.58376
G1 X154.843 Y102.815 E11.58428
G1 X155.047 Y103.021 E11.59392
G1 X155.307 Y103.184 E11.60413
G1 X155.565 Y103.27 E11.61318
G1 X155.924 Y103.349 E11.6254
G1 X156.376 Y103.295 E11.64054
G1 X156.65 Y103.24 E11.64984
G1 X156.932 Y103.134 E11.65986
G1 X157.225 Y102.947 E11.67142
G1 X157.429 Y102.733 E11.68125
G1 X157.442 Y102.72 E11.68186
G1 X157.472 Y102.688 E11.68332
G1 X157.514 Y102.614 E11.68615
G0 X157.535 Y102.653
G1 X157.705 Y102.971 E11.68965
G1 X157.718 Y102.984 E11.69026
G1 X157.861 Y103.134 E11.69715
G1 X158.027 Y103.231 E11.70355
G1 X158.217 Y103.287 E11.71014
G1 X158.474 Y103.299 E11.71869
G1 X158.638 Y103.296 E11.72415
G1 X158.967 Y103.228 E11.73532
G1 X159.237 Y103.092 E11.74538
G1 X159.461 Y103.195 E11.75358
G1 X159.838 Y103.279 E11.76643
G1 X160.073 Y103.296 E11.77426
G1 X160.309 Y103.282 E11.78213
G1 X160.484 Y103.215 E11.78836
G1 X160.522 Y103.201 E11.7897
G1 X160.675 Y103.089 E11.79601
G1 X160.744 Y103.038 E11.79887
G1 X160.767 Y103.014 E11.79997
G1 X160.856 Y103.073 E11.80352
G0 X160.85 Y103.215
G1 X160.845 Y103.319 E11.80388
G1 X160.845 Y103.36 E11.80525
G1 X160.832 Y104.694 E11.84962
G1 X160.922 Y105.902 E11.88991
G1 X161.351 Y105.952 E11.90427
G1 X161.542 Y105.973 E11.91066
G1 X161.732 Y105.995 E11.91703
G1 X161.802 Y106.003 E11.91937
G1 X161.917 Y106.003 E11.92319
G1 X162.089 Y106.004 E11.92891
G1 X162.141 Y105.997 E11.93066
G1 X162.314 Y105.97 E11.93648
G1 X162.376 Y105.96 E11.93857
G1 X162.578 Y105.861 E11.94605
G1 X162.728 Y105.728 E11.95272
G1 X162.839 Y105.564 E11.95931
G1 X162.926 Y105.328 E11.96767
G1 X162.98 Y104.094 E12.00876
G1 X162.99 Y103.291 E12.03547
G1 X163.669 Y103.253 E12.05809
G1 X163.905 Y103.176 E12.06634
G1 X164.081 Y103.05 E12.07354
G1 X164.197 Y102.912 E12.07954
G1 X164.212 Y102.894 E12.08032
G1 X164.319 Y102.686 E12.0881
G1 X164.366 Y102.493 E12.0947
G0 X164.44 Y102.604
G0 X164.503 Y102.699
G0 X164.529 Y102.738
G1 X164.546 Y102.754 E12.09548
G1 X164.854 Y103.035 E12.10935
G1 X165.008 Y103.143 E12.1156
G1 X165.19 Y103.239 E12.12245
G1 X165.41 Y103.291 E12.12997
G1 X165.852 Y103.292 E12.14467
G1 X166.197 Y103.261 E12.15619
G1 X166.534 Y103.188 E12.16766
G1 X167.081 Y102.92 E12.18792
G1 X167.278 Y102.722 E12.19721
G1 X167.441 Y102.559 E12.20487
G1 X167.696 Y102.147 E12.22099
G1 X167.668 Y102.574 E12.22466
G1 X167.653 Y102.804 E12.23077
G1 X167.56 Y104.16 E12.27598
G1 X167.344 Y106.325 E12.34834
G1 X167.291 Y106.728 E12.36186
G1 X167.243 Y106.942 E12.36916
G1 X167.184 Y107.079 E12.37412
G1 X166.799 Y107.924 E12.405
G1 X166.777 Y107.994 E12.40744
G1 X166.641 Y108.172 E12.41489
G1 X166.599 Y108.144 E12.41599
G1 X166.063 Y108.929 E12.4476
G1 X165.879 Y109.327 E12.46218
G1 X165.894 Y109.409 E12.46496
G1 X165.816 Y109.686 E12.47453
G1 X165.66 Y110.044 E12.48752
G1 X165.193 Y110.694 E12.51414
G1 X165.913 Y111.332 E12.54613
G1 X165.733 Y111.568 E12.55601
G1 X165.658 Y111.675 E12.56035
G1 X165.583 Y111.781 E12.56467
G1 X165.518 Y111.92 E12.56977
G0 X165.492 Y111.9
G1 X165.389 Y111.821 E12.57311
G1 X164.833 Y111.394 E12.59643
G1 X164.368 Y111.918 E12.61973
G1 X164.284 Y112.05 E12.62493
G1 X163.63 Y112.81 E12.65828
G1 X163.287 Y113.116 E12.67357
G1 X163.285 Y113.118 E12.67366
G1 X162.948 Y113.418 E12.68867
G1 X162.952 Y112.966 E12.69684
G1 X162.953 Y112.964 E12.69692
G1 X162.992 Y109.988 E12.79591
G1 X163.018 Y106.601 E12.90856
G1 X162.522 Y106.343 E12.92716
G1 X162.363 Y106.287 E12.93235
G0 X162.31 Y106.276
G1 X162.18 Y106.249 E12.93406
G0 X162.069 Y106.239
G0 X161.917 Y106.225
G0 X161.811 Y106.228
G0 X161.704 Y106.233
G1 X161.508 Y106.272 E12.93722
G1 X161.329 Y106.346 E12.94289
G1 X161.315 Y106.352 E12.94339
G1 X161.125 Y106.496 E12.95132
G1 X160.937 Y106.7 E12.96055
G1 X160.914 Y106.762 E12.96275
G1 X160.852 Y106.929 E12.96867
G0 X160.776 Y106.788
G0 X160.725 Y106.693
G1 X160.561 Y106.517 E12.97667
G1 X160.399 Y106.4 E12.98332
G1 X159.936 Y106.13 E13.00115
G1 X159.3 Y106.432 E13.02456
G1 X159.173 Y106.508 E13.02949
G1 X159.029 Y106.627 E13.0357
G1 X158.904 Y106.781 E13.0423
G1 X158.782 Y107.021 E13.05125
G1 X158.728 Y110.039 E13.15165
G1 X158.727 Y110.479 E13.16628
G1 X158.767 Y113.615 E13.27059
G1 X158.806 Y113.805 E13.27705
G1 X158.856 Y113.963 E13.28256
G1 X158.971 Y114.213 E13.29171
G1 X159.129 Y114.455 E13.30132
G1 X159.322 Y114.666 E13.31083
G1 X159.537 Y114.824 E13.31971
G1 X159.697 Y114.905 E13.32567
G1 X159.904 Y114.967 E13.33286
G1 X159.998 Y114.968 E13.33599
G1 X160.517 Y114.976 E13.35325
G1 X160.641 Y114.966 E13.35739
G0 X160.543 Y115.021
G1 X160.079 Y115.28 E13.36605
G1 X159.993 Y115.328 E13.36863
G1 X160.37 Y116.15 E13.39871
G1 X159.747 Y116.499 E13.42246
G1 X159.553 Y116.529 E13.42899
G1 X159.086 Y116.732 E13.44593
G1 X158.557 Y117.077 E13.46693
G1 X158.078 Y117.313 E13.48469
